; generated by Slic3r Prusa Edition 1.40.1+ on 2018-12-16 at 15:11:48

; 

; external perimeters extrusion width = 0.45mm
; perimeters extrusion width = 0.45mm
; infill extrusion width = 0.45mm
; solid infill extrusion width = 0.45mm
; top infill extrusion width = 0.40mm
; first layer extrusion width = 0.42mm

M107
M115 U3.3.1 ; tell printer latest fw version
M201 X1000 Y1000 Z1000 E9000 ; sets maximum accelerations, mm/sec^2
M203 X200 Y200 Z12 E120 ; sets maximum feedrates, mm/sec
M204 S1250 T1250 ; sets acceleration (S) and retract acceleration (T)
M205 X8 Y8 Z0.4 E1.5 ; sets the jerk limits, mm/sec
M205 S0 T0 ; sets the minimum extruding and travel feed rate, mm/sec
M83  ; extruder relative mode
M104 S230 ; set extruder temp
M140 S85 ; set bed temp
M190 S85 ; wait for bed temp
M109 S230 ; wait for extruder temp
G28 W ; home all without mesh bed level
G80 ; mesh bed leveling
G1 Y-3.0 F1000.0 ; go outside print area
G92 E0.0
G1 X60.0 E9.0  F1000.0 ; intro line
G1 X100.0 E12.5  F1000.0 ; intro line
G92 E0.0
M221 S95
M900 K45; Filament gcode
G21 ; set units to millimeters
G90 ; use absolute coordinates
M83 ; use relative distances for extrusion
;BEFORE_LAYER_CHANGE
G92 E0.0
;0.2


G1 E-0.80000 F2100.00000
G1 Z0.600 F10800.000
;AFTER_LAYER_CHANGE
;0.2
G1 X113.132 Y88.975
G1 Z0.200
G1 E0.80000 F2100.00000
M204 S1000
G1 F1800
G1 X114.557 Y87.562 E0.06294
G1 X116.000 Y86.438 E0.05733
G1 X117.672 Y85.432 E0.06119
G1 X119.340 Y84.682 E0.05734
G1 X121.257 Y84.086 E0.06293
G1 X123.000 Y83.765 E0.05559
G1 X125.012 Y83.638 E0.06319
G1 X126.433 Y83.703 E0.04463
G1 X127.781 Y83.884 E0.04264
G1 X128.921 Y84.131 E0.03656
G1 X130.282 Y84.544 E0.04460
G1 X131.544 Y85.051 E0.04264
G1 X132.813 Y85.695 E0.04463
G1 X134.025 Y86.456 E0.04488
G1 X135.103 Y87.272 E0.04239
G1 X136.243 Y88.311 E0.04837
G1 X146.862 Y98.969 E0.47171
G1 X147.777 Y100.100 E0.04563
G1 X148.581 Y101.304 E0.04538
G1 X149.282 Y102.597 E0.04612
G1 X149.826 Y103.861 E0.04313
G1 X150.316 Y105.374 E0.04986
G1 X150.639 Y106.849 E0.04737
G1 X150.822 Y108.365 E0.04787
G1 X150.858 Y109.875 E0.04735
G1 X150.751 Y111.375 E0.04715
G1 X150.496 Y112.888 E0.04812
G1 X150.104 Y114.347 E0.04737
G1 X149.539 Y115.842 E0.05011
G1 X148.866 Y117.204 E0.04762
G1 X147.926 Y118.693 E0.05521
G1 X146.941 Y119.942 E0.04986
G1 X145.934 Y120.992 E0.04563
G1 X144.735 Y122.024 E0.04961
G1 X143.493 Y122.898 E0.04762
G1 X142.165 Y123.652 E0.04787
G1 X140.757 Y124.281 E0.04837
G1 X138.898 Y124.876 E0.06119
G1 X137.205 Y125.209 E0.05409
G1 X135.235 Y125.360 E0.06194
G1 X133.511 Y125.293 E0.05410
G1 X131.813 Y125.038 E0.05385
G1 X129.898 Y124.520 E0.06219
G1 X128.297 Y123.876 E0.05409
G1 X126.569 Y122.937 E0.06169
G1 X125.291 Y122.044 E0.04887
G1 X124.078 Y121.004 E0.05011
G1 X113.271 Y110.180 E0.47957
G1 X112.270 Y108.964 E0.04936
G1 X111.452 Y107.751 E0.04588
G1 X110.729 Y106.425 E0.04737
G1 X110.174 Y105.140 E0.04388
G1 X109.622 Y103.388 E0.05758
G1 X109.254 Y101.415 E0.06294
G1 X109.139 Y99.654 E0.05534
G1 X109.246 Y97.650 E0.06293
G1 X109.606 Y95.675 E0.06293
G1 X110.129 Y93.981 E0.05559
G1 X110.945 Y92.147 E0.06293
G1 X111.890 Y90.572 E0.05758
G1 X113.095 Y89.023 E0.06155
G1 X113.355 Y89.293 F10800.000
G1 F1800
G1 X114.609 Y88.020 E0.05603
G1 X116.147 Y86.795 E0.06165
G1 X117.843 Y85.769 E0.06213
G1 X119.472 Y85.036 E0.05603
G1 X121.350 Y84.451 E0.06165
G1 X123.046 Y84.140 E0.05407
G1 X125.008 Y84.015 E0.06165
G1 X126.396 Y84.078 E0.04356
G1 X127.718 Y84.256 E0.04185
G1 X129.074 Y84.561 E0.04355
G1 X130.162 Y84.901 E0.03574
G1 X131.393 Y85.396 E0.04160
G1 X132.638 Y86.029 E0.04381
G1 X133.814 Y86.768 E0.04356
G1 X134.871 Y87.570 E0.04160
G1 X135.979 Y88.580 E0.04698
G1 X146.567 Y99.205 E0.47033
G1 X147.471 Y100.321 E0.04503
G1 X148.252 Y101.489 E0.04405
G1 X148.934 Y102.744 E0.04478
G1 X149.460 Y103.962 E0.04160
G1 X149.947 Y105.453 E0.04918
G1 X150.264 Y106.893 E0.04625
G1 X150.445 Y108.381 E0.04698
G1 X150.482 Y109.847 E0.04598
G1 X150.378 Y111.319 E0.04628
G1 X150.132 Y112.789 E0.04674
G1 X149.750 Y114.214 E0.04625
G1 X149.207 Y115.661 E0.04845
G1 X148.586 Y116.930 E0.04429
G1 X147.773 Y118.253 E0.04869
G1 X146.716 Y119.625 E0.05431
G1 X145.688 Y120.705 E0.04674
G1 X144.513 Y121.719 E0.04869
G1 X143.307 Y122.569 E0.04625
G1 X142.012 Y123.307 E0.04674
G1 X140.659 Y123.915 E0.04650
G1 X138.817 Y124.507 E0.06067
G1 X137.171 Y124.833 E0.05260
G1 X135.492 Y124.977 E0.05285
G1 X133.558 Y124.919 E0.06067
G1 X131.890 Y124.670 E0.05285
G1 X130.023 Y124.164 E0.06067
G1 X128.459 Y123.536 E0.05285
G1 X126.766 Y122.615 E0.06042
G1 X125.518 Y121.743 E0.04772
G1 X124.334 Y120.727 E0.04894
G1 X113.553 Y109.929 E0.47841
G1 X112.575 Y108.743 E0.04820
G1 X111.781 Y107.565 E0.04454
G1 X111.077 Y106.278 E0.04601
G1 X110.540 Y105.039 E0.04233
G1 X109.994 Y103.321 E0.05652
G1 X109.630 Y101.389 E0.06165
G1 X109.516 Y99.660 E0.05432
G1 X109.619 Y97.705 E0.06140
G1 X109.971 Y95.771 E0.06164
G1 X110.479 Y94.122 E0.05408
G1 X111.277 Y92.326 E0.06164
G1 X112.191 Y90.799 E0.05579
G1 X113.319 Y89.340 E0.05781
G1 F8640
G1 X114.609 Y88.020 E-0.42637
G1 X115.740 Y87.120 E-0.33363
G1 E-0.04000 F2100.00000
G1 Z0.800 F10800.000
G1 X139.288 Y95.226
G1 Z0.200
G1 E0.80000 F2100.00000
G1 F1800
G1 X140.566 Y95.665 E0.04236
G1 X142.045 Y96.358 E0.05122
G1 X143.373 Y97.161 E0.04866
G1 X144.610 Y98.096 E0.04862
G1 X145.589 Y98.999 E0.04176
G1 X146.474 Y99.974 E0.04127
G1 X147.343 Y101.130 E0.04535
G1 X148.121 Y102.413 E0.04704
G1 X148.768 Y103.769 E0.04712
G1 X149.264 Y105.148 E0.04593
G1 X149.622 Y106.571 E0.04601
G1 X149.837 Y108.003 E0.04542
G1 X149.912 Y109.481 E0.04641
G1 X149.842 Y110.952 E0.04616
G1 X149.629 Y112.397 E0.04582
G1 X149.272 Y113.825 E0.04615
G1 X148.781 Y115.200 E0.04576
G1 X148.153 Y116.530 E0.04611
G1 X147.402 Y117.782 E0.04577
G1 X146.532 Y118.956 E0.04583
G1 X145.538 Y120.053 E0.04642
G1 X144.460 Y121.029 E0.04558
G1 X143.321 Y121.876 E0.04451
G1 X142.052 Y122.640 E0.04643
G1 X140.693 Y123.283 E0.04714
G1 X139.210 Y123.807 E0.04931
G1 X137.703 Y124.167 E0.04859
G1 X136.384 Y124.349 E0.04175
G1 X135.020 Y124.413 E0.04281
G1 X133.489 Y124.337 E0.04805
G1 X132.129 Y124.134 E0.04311
G1 X130.583 Y123.743 E0.05002
G1 X128.969 Y123.140 E0.05401
G1 X127.756 Y122.535 E0.04250
G1 X126.611 Y121.830 E0.04217
G1 X125.456 Y120.959 E0.04534
G1 X124.380 Y119.970 E0.04585
G1 X123.441 Y118.924 E0.04406
G1 X122.613 Y117.805 E0.04364
G1 X121.870 Y116.571 E0.04515
G1 X121.243 Y115.257 E0.04565
G1 X120.714 Y113.788 E0.04895
G1 X119.096 Y113.194 E0.05405
G1 X117.699 Y112.504 E0.04883
G1 X116.503 Y111.756 E0.04426
G1 X115.389 Y110.904 E0.04395
G1 X114.325 Y109.914 E0.04558
G1 X113.413 Y108.888 E0.04302
G1 X112.607 Y107.795 E0.04259
G1 X111.831 Y106.498 E0.04738
G1 X111.195 Y105.141 E0.04700
G1 X110.766 Y103.951 E0.03967
G1 X110.439 Y102.724 E0.03980
G1 X110.167 Y101.032 E0.05375
G1 X110.087 Y99.446 E0.04979
G1 X110.176 Y97.873 E0.04940
G1 X110.470 Y96.139 E0.05514
G1 X110.786 Y94.989 E0.03739
G1 X111.195 Y93.856 E0.03778
G1 X111.921 Y92.336 E0.05279
G1 X112.784 Y90.949 E0.05122
G1 X113.934 Y89.502 E0.05797
G1 X114.762 Y88.657 E0.03707
G1 X115.663 Y87.871 E0.03750
G1 X116.997 Y86.917 E0.05145
G1 X118.263 Y86.196 E0.04568
G1 X119.535 Y85.625 E0.04372
G1 X120.845 Y85.178 E0.04339
G1 X122.132 Y84.866 E0.04153
G1 X123.658 Y84.648 E0.04832
G1 X125.308 Y84.590 E0.05177
G1 X126.632 Y84.677 E0.04161
G1 X127.934 Y84.879 E0.04130
G1 X129.220 Y85.197 E0.04155
G1 X130.457 Y85.621 E0.04100
G1 X132.187 Y86.435 E0.05995
G1 X133.378 Y87.164 E0.04378
G1 X134.484 Y87.992 E0.04332
G1 X135.630 Y89.040 E0.04869
G1 X136.577 Y90.099 E0.04455
G1 X137.415 Y91.238 E0.04434
G1 X138.129 Y92.427 E0.04346
G1 X138.734 Y93.689 E0.04389
G1 X139.268 Y95.169 E0.04934
G1 X138.965 Y95.514 F10800.000
G1 F1800
G1 X140.416 Y96.011 E0.04807
G1 X141.859 Y96.686 E0.04997
G1 X143.154 Y97.467 E0.04742
G1 X144.361 Y98.380 E0.04745
G1 X145.315 Y99.259 E0.04068
G1 X146.189 Y100.221 E0.04073
G1 X147.035 Y101.349 E0.04423
G1 X147.794 Y102.600 E0.04587
G1 X148.416 Y103.906 E0.04536
G1 X148.900 Y105.249 E0.04476
G1 X149.251 Y106.636 E0.04484
G1 X149.461 Y108.032 E0.04426
G1 X149.535 Y109.473 E0.04525
G1 X149.468 Y110.906 E0.04499
G1 X149.261 Y112.315 E0.04465
G1 X148.914 Y113.708 E0.04499
G1 X148.436 Y115.047 E0.04460
G1 X147.824 Y116.344 E0.04495
G1 X147.094 Y117.565 E0.04461
G1 X146.246 Y118.710 E0.04466
G1 X145.277 Y119.780 E0.04526
G1 X144.228 Y120.732 E0.04443
G1 X143.118 Y121.558 E0.04336
G1 X141.882 Y122.303 E0.04526
G1 X140.558 Y122.931 E0.04593
G1 X139.113 Y123.442 E0.04808
G1 X137.642 Y123.794 E0.04742
G1 X136.357 Y123.973 E0.04066
G1 X135.011 Y124.036 E0.04225
G1 X133.517 Y123.961 E0.04690
G1 X132.212 Y123.766 E0.04137
G1 X130.705 Y123.386 E0.04875
G1 X129.111 Y122.790 E0.05337
G1 X127.946 Y122.210 E0.04079
G1 X126.830 Y121.523 E0.04107
G1 X125.704 Y120.676 E0.04419
G1 X124.642 Y119.698 E0.04527
G1 X123.739 Y118.692 E0.04239
G1 X122.931 Y117.602 E0.04253
G1 X122.206 Y116.400 E0.04401
G1 X121.594 Y115.119 E0.04452
G1 X121.120 Y113.819 E0.04340
G1 X121.029 Y113.473 E0.01123
G1 X120.714 Y113.389 E0.01023
G1 X119.236 Y112.844 E0.04941
G1 X117.891 Y112.179 E0.04702
G1 X116.725 Y111.451 E0.04312
G1 X115.626 Y110.610 E0.04339
G1 X114.600 Y109.656 E0.04390
G1 X113.711 Y108.657 E0.04193
G1 X112.925 Y107.594 E0.04147
G1 X112.168 Y106.329 E0.04620
G1 X111.547 Y105.005 E0.04587
G1 X111.124 Y103.830 E0.03914
G1 X110.805 Y102.636 E0.03875
G1 X110.541 Y100.982 E0.05252
G1 X110.464 Y99.437 E0.04851
G1 X110.552 Y97.905 E0.04813
G1 X110.836 Y96.230 E0.05327
G1 X111.147 Y95.096 E0.03686
G1 X111.547 Y93.993 E0.03678
G1 X112.257 Y92.508 E0.05159
G1 X113.098 Y91.158 E0.04990
G1 X114.210 Y89.759 E0.05604
G1 X115.026 Y88.927 E0.03653
G1 X115.903 Y88.161 E0.03651
G1 X117.209 Y87.229 E0.05029
G1 X118.426 Y86.536 E0.04393
G1 X119.666 Y85.979 E0.04261
G1 X120.959 Y85.538 E0.04283
G1 X122.212 Y85.234 E0.04044
G1 X123.682 Y85.025 E0.04654
G1 X125.293 Y84.967 E0.05056
G1 X126.583 Y85.051 E0.04053
G1 X127.852 Y85.247 E0.04025
G1 X129.106 Y85.556 E0.04050
G1 X130.325 Y85.974 E0.04041
G1 X131.999 Y86.762 E0.05802
G1 X133.159 Y87.471 E0.04262
G1 X134.251 Y88.288 E0.04275
G1 X135.355 Y89.299 E0.04693
G1 X136.290 Y90.344 E0.04397
G1 X137.106 Y91.454 E0.04321
G1 X137.801 Y92.613 E0.04235
G1 X138.390 Y93.844 E0.04280
G1 X138.868 Y95.146 E0.04349
G1 X138.950 Y95.456 E0.01004
G1 X138.659 Y95.834 F10800.000
G1 F1800
G1 X139.055 Y95.935 E0.01284
G1 X140.282 Y96.364 E0.04073
G1 X141.673 Y97.014 E0.04816
G1 X142.951 Y97.785 E0.04680
G1 X144.113 Y98.664 E0.04567
G1 X145.042 Y99.519 E0.03960
G1 X145.903 Y100.468 E0.04018
G1 X146.728 Y101.568 E0.04311
G1 X147.458 Y102.771 E0.04412
G1 X148.065 Y104.043 E0.04419
G1 X148.537 Y105.351 E0.04360
G1 X148.879 Y106.702 E0.04368
G1 X149.085 Y108.061 E0.04310
G1 X149.158 Y109.465 E0.04408
G1 X149.093 Y110.861 E0.04382
G1 X148.893 Y112.234 E0.04349
G1 X148.555 Y113.590 E0.04382
G1 X148.091 Y114.895 E0.04344
G1 X147.496 Y116.159 E0.04379
G1 X146.785 Y117.348 E0.04346
G1 X145.960 Y118.464 E0.04350
G1 X145.017 Y119.507 E0.04409
G1 X143.995 Y120.435 E0.04329
G1 X142.915 Y121.240 E0.04222
G1 X141.711 Y121.967 E0.04409
G1 X140.423 Y122.579 E0.04472
G1 X138.996 Y123.083 E0.04746
G1 X137.581 Y123.422 E0.04564
G1 X136.331 Y123.596 E0.03956
G1 X135.003 Y123.659 E0.04169
G1 X133.564 Y123.586 E0.04518
G1 X132.295 Y123.398 E0.04021
G1 X130.827 Y123.029 E0.04747
G1 X129.270 Y122.448 E0.05211
G1 X128.122 Y121.876 E0.04021
G1 X127.036 Y121.207 E0.03999
G1 X125.939 Y120.380 E0.04307
G1 X124.904 Y119.427 E0.04412
G1 X124.026 Y118.447 E0.04126
G1 X123.240 Y117.385 E0.04142
G1 X122.534 Y116.214 E0.04288
G1 X121.938 Y114.965 E0.04337
G1 X121.478 Y113.699 E0.04225
G1 X121.339 Y113.163 E0.01735
G1 X120.835 Y113.032 E0.01631
G1 X119.375 Y112.493 E0.04879
G1 X118.067 Y111.846 E0.04578
G1 X116.932 Y111.136 E0.04197
G1 X115.876 Y110.327 E0.04171
G1 X114.876 Y109.399 E0.04279
G1 X114.009 Y108.426 E0.04084
G1 X113.234 Y107.377 E0.04091
G1 X112.505 Y106.160 E0.04446
G1 X111.898 Y104.869 E0.04474
G1 X111.486 Y103.725 E0.03811
G1 X111.172 Y102.549 E0.03819
G1 X110.915 Y100.933 E0.05128
G1 X110.841 Y99.429 E0.04723
G1 X110.928 Y97.937 E0.04686
G1 X111.202 Y96.320 E0.05142
G1 X111.505 Y95.217 E0.03586
G1 X111.898 Y94.130 E0.03625
G1 X112.592 Y92.681 E0.05038
G1 X113.412 Y91.366 E0.04858
G1 X114.486 Y90.016 E0.05411
G1 X115.290 Y89.196 E0.03598
G1 X116.144 Y88.452 E0.03552
G1 X117.420 Y87.542 E0.04912
G1 X118.605 Y86.868 E0.04274
G1 X119.796 Y86.333 E0.04094
G1 X121.072 Y85.897 E0.04228
G1 X122.292 Y85.603 E0.03935
G1 X123.705 Y85.401 E0.04477
G1 X125.278 Y85.343 E0.04936
G1 X126.534 Y85.425 E0.03945
G1 X127.770 Y85.615 E0.03921
G1 X128.991 Y85.916 E0.03944
G1 X130.193 Y86.328 E0.03982
G1 X131.812 Y87.089 E0.05608
G1 X132.955 Y87.788 E0.04202
G1 X134.017 Y88.584 E0.04162
G1 X135.080 Y89.557 E0.04519
G1 X135.991 Y90.575 E0.04283
G1 X136.787 Y91.656 E0.04209
G1 X137.473 Y92.799 E0.04179
G1 X138.046 Y93.999 E0.04169
G1 X138.511 Y95.267 E0.04236
G1 X138.644 Y95.776 E0.01648
G1 X138.349 Y96.145 F10800.000
G1 F1800
G1 X138.939 Y96.294 E0.01907
G1 X140.148 Y96.716 E0.04015
G1 X141.504 Y97.351 E0.04694
G1 X142.747 Y98.103 E0.04556
G1 X143.864 Y98.947 E0.04390
G1 X144.780 Y99.791 E0.03905
G1 X145.618 Y100.714 E0.03910
G1 X146.421 Y101.786 E0.04198
G1 X147.130 Y102.958 E0.04296
G1 X147.713 Y104.180 E0.04245
G1 X148.174 Y105.453 E0.04244
G1 X148.508 Y106.767 E0.04252
G1 X148.709 Y108.090 E0.04195
G1 X148.781 Y109.457 E0.04292
G1 X148.719 Y110.816 E0.04266
G1 X148.524 Y112.152 E0.04233
G1 X148.197 Y113.473 E0.04266
G1 X147.746 Y114.743 E0.04227
G1 X147.167 Y115.973 E0.04263
G1 X146.476 Y117.132 E0.04230
G1 X145.674 Y118.218 E0.04234
G1 X144.756 Y119.234 E0.04293
G1 X143.762 Y120.139 E0.04214
G1 X142.712 Y120.922 E0.04107
G1 X141.541 Y121.630 E0.04292
G1 X140.288 Y122.226 E0.04350
G1 X138.880 Y122.725 E0.04684
G1 X137.519 Y123.050 E0.04386
G1 X136.304 Y123.220 E0.03847
G1 X134.994 Y123.282 E0.04113
G1 X133.610 Y123.212 E0.04347
G1 X132.377 Y123.030 E0.03905
G1 X130.949 Y122.672 E0.04619
G1 X129.429 Y122.106 E0.05086
G1 X128.312 Y121.551 E0.03910
G1 X127.241 Y120.891 E0.03944
G1 X126.174 Y120.085 E0.04194
G1 X125.166 Y119.156 E0.04296
G1 X124.313 Y118.202 E0.04013
G1 X123.548 Y117.168 E0.04031
G1 X122.862 Y116.027 E0.04175
G1 X122.283 Y114.811 E0.04223
G1 X121.836 Y113.579 E0.04111
G1 X121.649 Y112.853 E0.02349
G1 X120.957 Y112.675 E0.02241
G1 X119.516 Y112.143 E0.04817
G1 X118.243 Y111.512 E0.04454
G1 X117.140 Y110.821 E0.04081
G1 X116.126 Y110.045 E0.04005
G1 X115.151 Y109.141 E0.04166
G1 X114.297 Y108.182 E0.04028
G1 X113.543 Y107.160 E0.03980
G1 X112.834 Y105.975 E0.04331
G1 X112.250 Y104.733 E0.04303
G1 X111.844 Y103.605 E0.03758
G1 X111.539 Y102.461 E0.03712
G1 X111.289 Y100.885 E0.05004
G1 X111.219 Y99.421 E0.04595
G1 X111.304 Y97.969 E0.04559
G1 X111.568 Y96.411 E0.04957
G1 X111.866 Y95.324 E0.03533
G1 X112.249 Y94.267 E0.03524
G1 X112.928 Y92.854 E0.04917
G1 X113.726 Y91.575 E0.04726
G1 X114.763 Y90.272 E0.05220
G1 X115.543 Y89.475 E0.03498
G1 X116.385 Y88.742 E0.03500
G1 X117.630 Y87.855 E0.04796
G1 X118.768 Y87.208 E0.04101
G1 X119.926 Y86.687 E0.03983
G1 X121.185 Y86.257 E0.04173
G1 X122.371 Y85.972 E0.03825
G1 X123.729 Y85.778 E0.04301
G1 X125.264 Y85.720 E0.04815
G1 X126.485 Y85.799 E0.03837
G1 X127.688 Y85.983 E0.03816
G1 X128.893 Y86.280 E0.03891
G1 X130.061 Y86.681 E0.03871
G1 X131.624 Y87.416 E0.05416
G1 X132.736 Y88.095 E0.04086
G1 X133.783 Y88.880 E0.04105
G1 X134.806 Y89.816 E0.04345
G1 X135.693 Y90.806 E0.04169
G1 X136.469 Y91.858 E0.04097
G1 X137.136 Y92.970 E0.04067
G1 X137.702 Y94.153 E0.04112
G1 X138.154 Y95.388 E0.04122
G1 X138.334 Y96.087 E0.02263
G1 X138.040 Y96.456 F10800.000
G1 F1800
G1 X138.823 Y96.652 E0.02531
G1 X140.014 Y97.069 E0.03958
G1 X141.334 Y97.689 E0.04572
G1 X142.544 Y98.420 E0.04432
G1 X143.615 Y99.231 E0.04213
G1 X144.519 Y100.062 E0.03849
G1 X145.333 Y100.961 E0.03802
G1 X146.113 Y102.005 E0.04086
G1 X146.794 Y103.129 E0.04123
G1 X147.362 Y104.318 E0.04129
G1 X147.811 Y105.555 E0.04128
G1 X148.137 Y106.833 E0.04136
G1 X148.333 Y108.119 E0.04079
