; generated by Slic3r Prusa Edition 1.40.1+ on 2018-12-16 at 11:41:23

; 

; external perimeters extrusion width = 0.45mm
; perimeters extrusion width = 0.45mm
; infill extrusion width = 0.45mm
; solid infill extrusion width = 0.45mm
; top infill extrusion width = 0.40mm
; first layer extrusion width = 0.42mm

M107
M115 U3.3.1 ; tell printer latest fw version
M201 X1000 Y1000 Z1000 E9000 ; sets maximum accelerations, mm/sec^2
M203 X200 Y200 Z12 E120 ; sets maximum feedrates, mm/sec
M204 S1250 T1250 ; sets acceleration (S) and retract acceleration (T)
M205 X8 Y8 Z0.4 E1.5 ; sets the jerk limits, mm/sec
M205 S0 T0 ; sets the minimum extruding and travel feed rate, mm/sec
M83  ; extruder relative mode
M104 S230 ; set extruder temp
M140 S85 ; set bed temp
M190 S85 ; wait for bed temp
M109 S230 ; wait for extruder temp
G28 W ; home all without mesh bed level
G80 ; mesh bed leveling
G1 Y-3.0 F1000.0 ; go outside print area
G92 E0.0
G1 X60.0 E9.0  F1000.0 ; intro line
G1 X100.0 E12.5  F1000.0 ; intro line
G92 E0.0
M221 S95
M900 K45; Filament gcode
G21 ; set units to millimeters
G90 ; use absolute coordinates
M83 ; use relative distances for extrusion
;BEFORE_LAYER_CHANGE
G92 E0.0
;0.2


G1 E-0.80000 F2100.00000
G1 Z0.600 F10800.000
;AFTER_LAYER_CHANGE
;0.2
G1 X65.842 Y56.092
G1 Z0.200
G1 E0.80000 F2100.00000
M204 S1000
G1 F1800
G1 X68.159 Y53.372 E0.11206
G1 X70.123 Y51.289 E0.08976
G1 X73.643 Y47.914 E0.15290
G1 X75.718 Y46.112 E0.08617
G1 X79.645 Y43.038 E0.15637
G1 X81.891 Y41.454 E0.08617
G1 X86.111 Y38.789 E0.15649
G1 X88.505 Y37.439 E0.08617
G1 X92.971 Y35.211 E0.15649
G1 X95.489 Y34.109 E0.08617
G1 X100.156 Y32.343 E0.15649
G1 X102.724 Y31.514 E0.08460
G1 X105.368 Y30.764 E0.08617
G1 X110.232 Y29.645 E0.15649
G1 X112.938 Y29.166 E0.08617
G1 X117.890 Y28.542 E0.15649
G1 X120.631 Y28.337 E0.08617
G1 X125.605 Y28.214 E0.15602
G1 X128.367 Y28.286 E0.08663
G1 X133.344 Y28.666 E0.15649
G1 X136.070 Y29.015 E0.08617
G1 X140.979 Y29.893 E0.15637
G1 X143.660 Y30.514 E0.08629
G1 X148.456 Y31.882 E0.15637
G1 X151.057 Y32.769 E0.08617
G1 X155.589 Y34.568 E0.15290
G1 X160.504 Y36.913 E0.17074
G1 X164.754 Y39.304 E0.15290
G1 X167.175 Y40.832 E0.08976
G1 X171.163 Y43.638 E0.15289
G1 X173.330 Y45.329 E0.08617
G1 X177.104 Y48.595 E0.15649
G1 X179.168 Y50.574 E0.08965
G1 X182.515 Y54.125 E0.15301
G1 X184.297 Y56.212 E0.08605
G1 X187.341 Y60.168 E0.15649
G1 X188.908 Y62.430 E0.08628
G1 X191.536 Y66.668 E0.15637
G1 X192.865 Y69.073 E0.08617
G1 X195.055 Y73.558 E0.15649
G1 X196.136 Y76.085 E0.08616
G1 X197.864 Y80.768 E0.15649
G1 X198.685 Y83.390 E0.08616
G1 X199.398 Y85.993 E0.08461
G1 X200.476 Y90.862 E0.15638
G1 X200.933 Y93.576 E0.08628
G1 X201.515 Y98.529 E0.15638
G1 X201.697 Y101.271 E0.08616
G1 X201.779 Y106.147 E0.15290
G1 X201.505 Y111.585 E0.17074
G1 X200.932 Y116.428 E0.15290
G1 X200.454 Y119.250 E0.08976
G1 X199.397 Y124.011 E0.15290
G1 X198.670 Y126.661 E0.08617
G1 X197.106 Y131.401 E0.15648
G1 X196.073 Y134.067 E0.08964
G1 X194.084 Y138.523 E0.15301
G1 X192.842 Y140.971 E0.08606
G1 X190.361 Y145.302 E0.15648
G1 X188.878 Y147.615 E0.08618
G1 X187.341 Y149.832 E0.08459
G1 X184.297 Y153.788 E0.15649
G1 X182.513 Y155.878 E0.08617
G1 X179.087 Y159.507 E0.15648
G1 X177.101 Y161.407 E0.08617
G1 X173.327 Y164.674 E0.15649
G1 X171.160 Y166.364 E0.08617
G1 X167.080 Y169.232 E0.15637
G1 X164.751 Y170.698 E0.08628
G1 X160.403 Y173.140 E0.15636
G1 X157.942 Y174.363 E0.08618
G1 X153.472 Y176.314 E0.15290
G1 X148.347 Y178.152 E0.17074
G1 X143.656 Y179.487 E0.15289
G1 X140.867 Y180.130 E0.08976
G1 X136.066 Y180.986 E0.15290
G1 X133.340 Y181.334 E0.08616
G1 X128.364 Y181.714 E0.15650
G1 X125.520 Y181.786 E0.08919
G1 X120.631 Y181.663 E0.15336
G1 X117.890 Y181.458 E0.08617
G1 X112.938 Y180.834 E0.15649
G1 X110.232 Y180.355 E0.08618
G1 X105.368 Y179.236 E0.15648
G1 X102.772 Y178.501 E0.08460
G1 X100.156 Y177.657 E0.08617
G1 X95.489 Y175.891 E0.15649
G1 X92.971 Y174.789 E0.08617
G1 X88.505 Y172.561 E0.15649
G1 X86.111 Y171.211 E0.08617
G1 X81.894 Y168.548 E0.15637
G1 X79.645 Y166.962 E0.08628
G1 X75.718 Y163.888 E0.15638
G1 X73.643 Y162.086 E0.08616
G1 X70.123 Y158.711 E0.15290
G1 X68.159 Y156.628 E0.08976
G1 X64.997 Y152.916 E0.15290
G1 X61.752 Y148.543 E0.17074
G1 X59.118 Y144.444 E0.15278
G1 X57.746 Y142.058 E0.08628
G1 X55.483 Y137.614 E0.15637
G1 X54.314 Y134.997 E0.08988
G1 X52.554 Y130.453 E0.15278
G1 X51.688 Y127.844 E0.08617
G1 X50.360 Y123.034 E0.15649
G1 X49.761 Y120.348 E0.08629
G1 X48.924 Y115.431 E0.15637
G1 X48.599 Y112.702 E0.08617
G1 X48.261 Y107.723 E0.15649
G1 X48.212 Y104.975 E0.08617
G1 X48.376 Y99.987 E0.15649
G1 X48.599 Y97.298 E0.08460
G1 X48.924 Y94.569 E0.08617
G1 X49.761 Y89.652 E0.15637
G1 X50.360 Y86.966 E0.08629
G1 X51.687 Y82.159 E0.15637
G1 X52.552 Y79.550 E0.08617
G1 X54.315 Y75.000 E0.15301
G1 X55.481 Y72.389 E0.08965
G1 X57.746 Y67.942 E0.15648
G1 X59.116 Y65.559 E0.08617
G1 X61.752 Y61.457 E0.15290
G1 X64.997 Y57.084 E0.17074
G1 X65.803 Y56.138 E0.03896
G1 F8640
G1 X67.937 Y53.633 E-0.76000
G1 E-0.04000 F2100.00000
G1 Z0.800 F10800.000
G1 X66.925 Y99.354
G1 Z0.200
G1 E0.80000 F2100.00000
G1 F1800
G1 X67.487 Y99.417 E0.01772
G1 X68.060 Y99.562 E0.01854
G1 X68.412 Y99.683 E0.01167
G1 X68.938 Y99.912 E0.01798
G1 X69.465 Y100.210 E0.01897
G1 X69.964 Y100.569 E0.01930
G1 X70.578 Y101.144 E0.02638
G1 X70.869 Y101.488 E0.01412
G1 X71.329 Y102.163 E0.02561
G1 X71.620 Y102.744 E0.02035
G1 X71.814 Y103.261 E0.01735
G1 X71.957 Y103.795 E0.01733
G1 X72.052 Y104.384 E0.01869
G1 X72.086 Y104.915 E0.01671
G1 X72.044 Y105.468 E0.01739
G1 X71.924 Y106.035 E0.01817
G1 X71.816 Y106.387 E0.01154
G1 X71.612 Y106.910 E0.01759
G1 X71.339 Y107.437 E0.01861
G1 X71.005 Y107.937 E0.01887
G1 X70.454 Y108.565 E0.02619
G1 X69.982 Y108.976 E0.01963
G1 X69.328 Y109.404 E0.02448
G1 X68.761 Y109.679 E0.01978
G1 X68.155 Y109.885 E0.02007
G1 X67.406 Y110.030 E0.02392
G1 X66.761 Y110.065 E0.02024
G1 X66.122 Y110.017 E0.02011
G1 X65.641 Y109.926 E0.01533
G1 X65.178 Y109.791 E0.01512
G1 X64.700 Y109.597 E0.01619
G1 X63.935 Y109.177 E0.02737
G1 X63.620 Y108.974 E0.01174
G1 X63.226 Y108.669 E0.01562
G1 X62.844 Y108.299 E0.01669
G1 X62.537 Y107.933 E0.01497
G1 X62.268 Y107.540 E0.01492
G1 X62.039 Y107.123 E0.01492
G1 X61.855 Y106.694 E0.01463
G1 X61.576 Y105.899 E0.02641
G1 X61.465 Y105.387 E0.01643
G1 X61.401 Y104.593 E0.02497
G1 X61.431 Y104.029 E0.01771
G1 X61.529 Y103.456 E0.01823
G1 X61.698 Y102.883 E0.01874
G1 X61.998 Y102.199 E0.02340
G1 X62.314 Y101.680 E0.01907
G1 X62.691 Y101.197 E0.01922
G1 X63.205 Y100.686 E0.02271
G1 X63.695 Y100.308 E0.01941
G1 X64.226 Y99.988 E0.01943
G1 X64.790 Y99.732 E0.01943
G1 X65.298 Y99.562 E0.01679
G1 X65.822 Y99.441 E0.01687
G1 X66.386 Y99.369 E0.01782
G1 X66.865 Y99.355 E0.01504
G1 X66.876 Y99.732 F10800.000
G1 F1800
G1 X67.419 Y99.789 E0.01711
G1 X67.952 Y99.923 E0.01724
G1 X68.275 Y100.035 E0.01071
G1 X68.770 Y100.250 E0.01691
G1 X69.261 Y100.528 E0.01770
G1 X69.730 Y100.865 E0.01812
G1 X70.303 Y101.402 E0.02461
G1 X70.568 Y101.717 E0.01291
G1 X71.003 Y102.354 E0.02420
G1 X71.273 Y102.895 E0.01893
G1 X71.455 Y103.377 E0.01616
G1 X71.588 Y103.874 E0.01615
G1 X71.677 Y104.426 E0.01751
G1 X71.708 Y104.913 E0.01531
G1 X71.670 Y105.414 E0.01577
G1 X71.558 Y105.941 E0.01686
G1 X71.459 Y106.263 E0.01058
G1 X71.268 Y106.754 E0.01652
G1 X71.014 Y107.245 E0.01732
G1 X70.700 Y107.714 E0.01769
G1 X70.189 Y108.295 E0.02427
G1 X69.753 Y108.675 E0.01813
G1 X69.142 Y109.075 E0.02291
G1 X68.617 Y109.330 E0.01829
G1 X68.058 Y109.520 E0.01852
G1 X67.360 Y109.655 E0.02230
G1 X66.765 Y109.687 E0.01866
G1 X66.171 Y109.642 E0.01868
G1 X65.729 Y109.559 E0.01410
G1 X65.302 Y109.434 E0.01395
G1 X64.862 Y109.256 E0.01489
G1 X64.128 Y108.853 E0.02626
G1 X63.838 Y108.666 E0.01081
G1 X63.474 Y108.383 E0.01446
G1 X63.120 Y108.041 E0.01543
G1 X62.837 Y107.704 E0.01378
G1 X62.589 Y107.342 E0.01376
G1 X62.378 Y106.958 E0.01376
G1 X62.207 Y106.557 E0.01366
G1 X61.940 Y105.796 E0.02528
G1 X61.837 Y105.325 E0.01513
G1 X61.779 Y104.592 E0.02304
G1 X61.806 Y104.071 E0.01635
G1 X61.897 Y103.541 E0.01685
G1 X62.053 Y103.012 E0.01729
G1 X62.333 Y102.374 E0.02186
G1 X62.624 Y101.895 E0.01759
G1 X62.974 Y101.447 E0.01779
G1 X63.454 Y100.970 E0.02123
G1 X63.908 Y100.620 E0.01798
G1 X64.402 Y100.323 E0.01807
G1 X64.928 Y100.083 E0.01813
G1 X65.400 Y99.925 E0.01561
G1 X65.888 Y99.813 E0.01571
G1 X66.415 Y99.746 E0.01665
G1 X66.816 Y99.734 E0.01258
G1 X67.091 Y99.395 F10800.000
G1 F8640
G1 X67.419 Y99.789 E-0.13976
G1 X67.952 Y99.923 E-0.12696
G1 X68.275 Y100.035 E-0.07889
G1 X68.770 Y100.250 E-0.12451
G1 X69.261 Y100.528 E-0.13034
G1 X69.730 Y100.865 E-0.13344
G1 X69.812 Y100.943 E-0.02610
G1 E-0.04000 F2100.00000
G1 Z0.800 F10800.000
G1 X178.601 Y104.593
G1 Z0.200
G1 E0.80000 F2100.00000
G1 F1800
G1 X178.631 Y104.029 E0.01771
G1 X178.729 Y103.456 E0.01823
G1 X178.898 Y102.883 E0.01874
G1 X179.198 Y102.199 E0.02340
G1 X179.514 Y101.680 E0.01907
G1 X179.891 Y101.197 E0.01922
G1 X180.404 Y100.686 E0.02271
G1 X180.895 Y100.308 E0.01941
G1 X181.426 Y99.988 E0.01943
G1 X181.990 Y99.732 E0.01943
G1 X182.498 Y99.562 E0.01679
G1 X183.022 Y99.441 E0.01687
G1 X183.586 Y99.369 E0.01782
G1 X184.125 Y99.354 E0.01692
G1 X184.687 Y99.417 E0.01772
G1 X185.260 Y99.562 E0.01854
G1 X185.612 Y99.683 E0.01167
G1 X186.138 Y99.912 E0.01798
G1 X186.665 Y100.210 E0.01897
G1 X187.164 Y100.569 E0.01930
G1 X187.778 Y101.144 E0.02638
G1 X188.069 Y101.488 E0.01412
G1 X188.529 Y102.163 E0.02561
G1 X188.819 Y102.744 E0.02035
G1 X189.014 Y103.261 E0.01735
G1 X189.157 Y103.795 E0.01733
G1 X189.252 Y104.384 E0.01869
G1 X189.286 Y104.915 E0.01671
G1 X189.244 Y105.468 E0.01739
G1 X189.124 Y106.035 E0.01817
G1 X189.016 Y106.387 E0.01154
G1 X188.812 Y106.910 E0.01759
G1 X188.539 Y107.437 E0.01861
G1 X188.205 Y107.937 E0.01887
G1 X187.654 Y108.565 E0.02619
G1 X187.182 Y108.976 E0.01963
G1 X186.528 Y109.404 E0.02448
G1 X185.961 Y109.679 E0.01978
G1 X185.355 Y109.885 E0.02007
G1 X184.606 Y110.030 E0.02392
G1 X183.961 Y110.065 E0.02024
G1 X183.322 Y110.017 E0.02011
G1 X182.841 Y109.926 E0.01533
G1 X182.378 Y109.791 E0.01512
G1 X181.900 Y109.597 E0.01619
G1 X181.135 Y109.177 E0.02737
G1 X180.820 Y108.974 E0.01174
G1 X180.426 Y108.669 E0.01562
G1 X180.044 Y108.299 E0.01669
G1 X179.737 Y107.933 E0.01497
G1 X179.468 Y107.540 E0.01492
G1 X179.239 Y107.123 E0.01492
G1 X179.055 Y106.694 E0.01463
G1 X178.776 Y105.899 E0.02641
G1 X178.665 Y105.387 E0.01643
G1 X178.605 Y104.653 E0.02309
G1 X178.981 Y104.631 F10800.000
G1 F1800
G1 X179.006 Y104.071 E0.01755
G1 X179.097 Y103.541 E0.01685
G1 X179.253 Y103.012 E0.01729
G1 X179.533 Y102.374 E0.02186
G1 X179.824 Y101.895 E0.01759
G1 X180.174 Y101.447 E0.01779
G1 X180.654 Y100.970 E0.02123
G1 X181.108 Y100.620 E0.01798
G1 X181.602 Y100.323 E0.01807
G1 X182.128 Y100.083 E0.01813
G1 X182.600 Y99.925 E0.01561
G1 X183.088 Y99.813 E0.01571
G1 X183.615 Y99.746 E0.01665
G1 X184.109 Y99.731 E0.01550
G1 X184.619 Y99.789 E0.01609
G1 X185.152 Y99.923 E0.01724
G1 X185.475 Y100.035 E0.01071
G1 X185.970 Y100.250 E0.01691
G1 X186.461 Y100.528 E0.01770
G1 X186.930 Y100.865 E0.01812
G1 X187.503 Y101.402 E0.02461
G1 X187.768 Y101.717 E0.01291
G1 X188.203 Y102.354 E0.02420
G1 X188.473 Y102.895 E0.01893
G1 X188.655 Y103.377 E0.01616
G1 X188.788 Y103.874 E0.01615
G1 X188.877 Y104.426 E0.01751
G1 X188.908 Y104.913 E0.01531
G1 X188.870 Y105.414 E0.01577
G1 X188.758 Y105.941 E0.01686
G1 X188.659 Y106.263 E0.01058
G1 X188.468 Y106.754 E0.01652
G1 X188.214 Y107.245 E0.01732
G1 X187.900 Y107.714 E0.01769
G1 X187.389 Y108.295 E0.02427
G1 X186.953 Y108.675 E0.01813
G1 X186.342 Y109.075 E0.02291
G1 X185.817 Y109.330 E0.01829
G1 X185.258 Y109.520 E0.01852
G1 X184.560 Y109.655 E0.02230
G1 X183.965 Y109.687 E0.01866
G1 X183.371 Y109.642 E0.01868
G1 X182.929 Y109.559 E0.01410
G1 X182.502 Y109.434 E0.01395
G1 X182.062 Y109.256 E0.01489
G1 X181.328 Y108.853 E0.02626
G1 X181.038 Y108.666 E0.01081
G1 X180.674 Y108.383 E0.01446
G1 X180.320 Y108.041 E0.01543
G1 X180.037 Y107.704 E0.01378
G1 X179.789 Y107.342 E0.01376
G1 X179.578 Y106.958 E0.01376
G1 X179.407 Y106.557 E0.01366
G1 X179.140 Y105.796 E0.02528
G1 X179.037 Y105.325 E0.01513
G1 X178.985 Y104.690 E0.01995
G1 X178.632 Y104.436 F10800.000
G1 F8640
G1 X179.006 Y104.071 E-0.14305
G1 X179.097 Y103.541 E-0.12410
G1 X179.253 Y103.012 E-0.12736
G1 X179.533 Y102.374 E-0.16102
G1 X179.824 Y101.895 E-0.12953
G1 X180.024 Y101.639 E-0.07494
G1 E-0.04000 F2100.00000
G1 Z0.800 F10800.000
G1 X199.002 Y104.690
G1 Z0.200
G1 E0.80000 F2100.00000
G1 F1800
G1 X199.002 Y106.268 E0.04947
G1 X198.917 Y108.754 E0.07797
G1 X198.754 Y111.185 E0.07640
G1 X198.504 Y113.659 E0.07797
G1 X198.164 Y116.173 E0.07954
G1 X197.757 Y118.575 E0.07640
G1 X197.260 Y121.012 E0.07797
G1 X196.669 Y123.479 E0.07954
G1 X196.022 Y125.828 E0.07640
G1 X195.282 Y128.202 E0.07797
G1 X194.445 Y130.597 E0.07954
G1 X193.565 Y132.869 E0.07640
G1 X192.590 Y135.157 E0.07797
G1 X191.517 Y137.455 E0.07954
G1 X190.413 Y139.627 E0.07640
G1 X189.213 Y141.805 E0.07797
G1 X187.914 Y143.984 E0.07954
G1 X186.596 Y146.034 E0.07640
G1 X185.183 Y148.080 E0.07797
G1 X183.671 Y150.117 E0.07954
G1 X182.154 Y152.024 E0.07640
G1 X180.542 Y153.917 E0.07797
G1 X178.834 Y155.792 E0.07953
G1 X177.097 Y157.572 E0.07797
G1 X175.338 Y159.258 E0.07640
G1 X173.449 Y160.951 E0.07954
G1 X171.542 Y162.547 E0.07797
G1 X169.583 Y164.078 E0.07797
G1 X167.614 Y165.514 E0.07640
G1 X165.515 Y166.939 E0.07954
G1 X163.411 Y168.265 E0.07797
G1 X161.308 Y169.495 E0.07640
G1 X159.076 Y170.701 E0.07954
G1 X156.895 Y171.788 E0.07640
G1 X154.634 Y172.821 E0.07797
G1 X152.292 Y173.797 E0.07953
G1 X149.965 Y174.675 E0.07797
G1 X147.658 Y175.459 E0.07640
G1 X145.230 Y176.194 E0.07954
G1 X142.827 Y176.834 E0.07797
G1 X140.453 Y177.381 E0.07640
G1 X137.964 Y177.868 E0.07954
G1 X135.508 Y178.263 E0.07797
G1 X133.041 Y178.575 E0.07797
G1 X130.615 Y178.799 E0.07640
G1 X128.083 Y178.948 E0.07954
G1 X125.647 Y179.010 E0.07640
G1 X123.160 Y178.990 E0.07797
G1 X120.626 Y178.883 E0.07953
G1 X118.146 Y178.695 E0.07797
G1 X115.724 Y178.429 E0.07640
G1 X113.213 Y178.068 E0.07954
G1 X110.814 Y177.640 E0.07640
G1 X108.382 Y177.123 E0.07797
G1 X105.920 Y176.511 E0.07954
G1 X103.576 Y175.844 E0.07640
G1 X101.209 Y175.084 E0.07797
G1 X98.821 Y174.228 E0.07953
G1 X96.510 Y173.310 E0.07797
G1 X94.277 Y172.335 E0.07640
G1 X91.987 Y171.242 E0.07954
G1 X89.825 Y170.120 E0.07640
G1 X87.657 Y168.901 E0.07797
G1 X85.489 Y167.584 E0.07954
G1 X83.450 Y166.249 E0.07640
G1 X81.416 Y164.819 E0.07797
G1 X79.392 Y163.290 E0.07953
G1 X77.459 Y161.725 E0.07797
G1 X75.618 Y160.130 E0.07640
G1 X73.758 Y158.405 E0.07954
G1 X71.992 Y156.653 E0.07797
G1 X70.321 Y154.880 E0.07640
G1 X68.676 Y153.015 E0.07797
G1 X67.064 Y151.057 E0.07954
G1 X65.579 Y149.125 E0.07640
G1 X64.130 Y147.104 E0.07797
G1 X62.723 Y144.993 E0.07954
G1 X61.440 Y142.921 E0.07640
G1 X60.202 Y140.765 E0.07797
G1 X59.037 Y138.568 E0.07797
G1 X57.926 Y136.288 E0.07953
G1 X56.913 Y134.017 E0.07797
G1 X55.994 Y131.760 E0.07640
G1 X55.118 Y129.379 E0.07954
G1 X54.353 Y127.066 E0.07640
G1 X53.652 Y124.680 E0.07797
G1 X53.031 Y122.272 E0.07797
G1 X52.481 Y119.795 E0.07954
G1 X52.034 Y117.400 E0.07640
G1 X51.658 Y114.942 E0.07797
G1 X51.361 Y112.423 E0.07954
G1 X51.156 Y109.995 E0.07640
G1 X51.030 Y107.511 E0.07797
G1 X50.987 Y104.975 E0.07954
G1 X51.028 Y102.539 E0.07640
G1 X51.153 Y100.055 E0.07797
G1 X51.366 Y97.527 E0.07953
G1 X51.658 Y95.058 E0.07797
G1 X52.025 Y92.649 E0.07640
G1 X52.491 Y90.155 E0.07954
G1 X53.019 Y87.777 E0.07640
G1 X53.639 Y85.368 E0.07797
G1 X54.338 Y82.982 E0.07797
G1 X55.134 Y80.573 E0.07954
G1 X55.976 Y78.287 E0.07640
G1 X56.913 Y75.983 E0.07797
G1 X57.947 Y73.667 E0.07953
G1 X59.037 Y71.432 E0.07797
G1 X60.178 Y69.279 E0.07640
G1 X61.440 Y67.078 E0.07954
G1 X62.723 Y65.007 E0.07640
G1 X64.102 Y62.937 E0.07797
G1 X65.579 Y60.875 E0.07954
G1 X67.064 Y58.943 E0.07640
G1 X68.644 Y57.023 E0.07797
G1 X70.321 Y55.119 E0.07954
G1 X71.992 Y53.347 E0.07640
G1 X73.758 Y51.595 E0.07797
G1 X75.618 Y49.870 E0.07954
G1 X77.459 Y48.275 E0.07640
G1 X79.392 Y46.710 E0.07797
