; generated by Slic3r Prusa Edition 1.40.1+ on 2018-12-16 at 11:40:50

; 

; external perimeters extrusion width = 0.45mm
; perimeters extrusion width = 0.45mm
; infill extrusion width = 0.45mm
; solid infill extrusion width = 0.45mm
; top infill extrusion width = 0.40mm
; first layer extrusion width = 0.42mm

M107
M115 U3.3.1 ; tell printer latest fw version
M201 X1000 Y1000 Z1000 E9000 ; sets maximum accelerations, mm/sec^2
M203 X200 Y200 Z12 E120 ; sets maximum feedrates, mm/sec
M204 S1250 T1250 ; sets acceleration (S) and retract acceleration (T)
M205 X8 Y8 Z0.4 E1.5 ; sets the jerk limits, mm/sec
M205 S0 T0 ; sets the minimum extruding and travel feed rate, mm/sec
M83  ; extruder relative mode
M104 S230 ; set extruder temp
M140 S85 ; set bed temp
M190 S85 ; wait for bed temp
M109 S230 ; wait for extruder temp
G28 W ; home all without mesh bed level
G80 ; mesh bed leveling
G1 Y-3.0 F1000.0 ; go outside print area
G92 E0.0
G1 X60.0 E9.0  F1000.0 ; intro line
G1 X100.0 E12.5  F1000.0 ; intro line
G92 E0.0
M221 S95
M900 K45; Filament gcode
G21 ; set units to millimeters
G90 ; use absolute coordinates
M83 ; use relative distances for extrusion
;BEFORE_LAYER_CHANGE
G92 E0.0
;0.2


G1 E-0.80000 F2100.00000
G1 Z0.600 F10800.000
;AFTER_LAYER_CHANGE
;0.2
G1 X67.870 Y57.708
G1 Z0.200
G1 E0.80000 F2100.00000
M204 S1000
G1 F1800
G1 X69.961 Y55.291 E0.10019
G1 X73.011 Y52.108 E0.13824
G1 X75.312 Y49.941 E0.09911
G1 X77.249 Y48.253 E0.08054
G1 X80.674 Y45.540 E0.13702
G1 X83.300 Y43.668 E0.10110
G1 X86.988 Y41.319 E0.13709
G1 X89.767 Y39.737 E0.10026
G1 X93.700 Y37.766 E0.13793
G1 X96.648 Y36.466 E0.10103
G1 X100.736 Y34.919 E0.13705
G1 X103.776 Y33.934 E0.10019
G1 X108.030 Y32.806 E0.13801
G1 X111.153 Y32.137 E0.10015
G1 X115.502 Y31.450 E0.13804
G1 X118.676 Y31.102 E0.10011
G1 X121.240 Y30.928 E0.08058
G1 X126.232 Y30.843 E0.15655
G1 X129.460 Y30.974 E0.10128
G1 X133.842 Y31.361 E0.13794
G1 X137.003 Y31.817 E0.10012
G1 X141.298 Y32.646 E0.13716
G1 X144.423 Y33.427 E0.10100
G1 X148.612 Y34.692 E0.13719
G1 X151.032 Y35.552 E0.08055
G1 X153.989 Y36.738 E0.09988
G1 X157.962 Y38.561 E0.13705
G1 X160.243 Y39.742 E0.08055
G1 X163.012 Y41.319 E0.09991
G1 X166.732 Y43.689 E0.13829
G1 X169.325 Y45.539 E0.09987
G1 X172.774 Y48.272 E0.13798
G1 X175.172 Y50.382 E0.10018
G1 X178.309 Y53.439 E0.13733
G1 X180.475 Y55.777 E0.09991
G1 X182.149 Y57.731 E0.08066
G1 X184.832 Y61.179 E0.13702
G1 X186.682 Y63.820 E0.10109
G1 X188.999 Y67.529 E0.13711
G1 X190.557 Y70.321 E0.10025
G1 X192.493 Y74.267 E0.13783
G1 X193.759 Y77.206 E0.10032
G1 X195.281 Y81.331 E0.13787
G1 X196.240 Y84.379 E0.10018
G1 X197.331 Y88.640 E0.13790
G1 X197.970 Y91.746 E0.09945
G1 X198.624 Y96.123 E0.13874
G1 X198.943 Y99.277 E0.09941
G1 X199.096 Y101.844 E0.08061
G1 X199.156 Y105.026 E0.09981
G1 X199.033 Y109.395 E0.13703
G1 X198.836 Y111.957 E0.08055
G1 X198.462 Y115.122 E0.09993
G1 X197.737 Y119.471 E0.13827
G1 X197.043 Y122.581 E0.09989
G1 X195.878 Y126.824 E0.13796
G1 X194.868 Y129.855 E0.10020
G1 X193.281 Y133.941 E0.13742
G1 X191.960 Y136.870 E0.10073
G1 X189.956 Y140.785 E0.13792
G1 X188.351 Y143.550 E0.10024
G1 X185.971 Y147.216 E0.13704
G1 X184.077 Y149.826 E0.10112
G1 X181.333 Y153.230 E0.13707
G1 X179.629 Y155.152 E0.08055
G1 X177.435 Y157.442 E0.09943
G1 X174.234 Y160.456 E0.13785
G1 X171.800 Y162.526 E0.10019
G1 X168.304 Y165.200 E0.13800
G1 X165.678 Y167.007 E0.09993
G1 X161.920 Y169.313 E0.13827
G1 X159.124 Y170.841 E0.09989
G1 X156.821 Y171.985 E0.08062
G1 X152.820 Y173.739 E0.13698
G1 X149.843 Y174.874 E0.09992
G1 X147.409 Y175.692 E0.08050
G1 X143.200 Y176.886 E0.13718
G1 X140.063 Y177.613 E0.10097
G1 X135.756 Y178.369 E0.13710
G1 X132.584 Y178.771 E0.10025
G1 X128.196 Y179.083 E0.13794
G1 X124.982 Y179.159 E0.10079
G1 X121.804 Y179.083 E0.09965
G1 X117.416 Y178.771 E0.13794
G1 X114.248 Y178.369 E0.10014
G1 X109.915 Y177.609 E0.13793
G1 X106.801 Y176.886 E0.10022
G1 X102.568 Y175.685 E0.13797
G1 X99.545 Y174.649 E0.10019
G1 X95.483 Y173.032 E0.13709
G1 X92.556 Y171.682 E0.10106
G1 X88.658 Y169.644 E0.13793
G1 X85.907 Y168.015 E0.10023
G1 X82.261 Y165.604 E0.13705
G1 X79.667 Y163.688 E0.10111
G1 X76.287 Y160.915 E0.13709
G1 X74.379 Y159.195 E0.08055
G1 X72.116 Y156.989 E0.09907
G1 X69.121 Y153.755 E0.13821
G1 X67.072 Y151.303 E0.10018
G1 X64.428 Y147.784 E0.13801
G1 X62.644 Y145.144 E0.09992
G1 X60.370 Y141.365 E0.13828
G1 X58.866 Y138.557 E0.09988
G1 X57.742 Y136.245 E0.08062
G1 X56.022 Y132.228 E0.13699
G1 X54.912 Y129.242 E0.09991
G1 X54.114 Y126.798 E0.08062
G1 X52.957 Y122.581 E0.13708
G1 X52.257 Y119.438 E0.10096
G1 X51.538 Y115.125 E0.13711
G1 X51.163 Y111.950 E0.10024
G1 X50.888 Y107.559 E0.13795
G1 X50.839 Y104.363 E0.10020
G1 X50.943 Y101.168 E0.10024
G1 X51.293 Y96.783 E0.13794
G1 X51.721 Y93.618 E0.10013
G1 X52.513 Y89.316 E0.13714
G1 X53.268 Y86.184 E0.10101
G1 X54.497 Y81.985 E0.13718
G1 X55.336 Y79.557 E0.08055
G1 X56.497 Y76.590 E0.09989
G1 X58.286 Y72.602 E0.13704
G1 X59.448 Y70.311 E0.08055
G1 X61.001 Y67.528 E0.09992
G1 X63.339 Y63.789 E0.13827
G1 X65.167 Y61.180 E0.09988
G1 X67.833 Y57.755 E0.13608
G1 F8640
G1 X69.961 Y55.291 E-0.75168
G1 X69.985 Y55.265 E-0.00832
G1 E-0.04000 F2100.00000
G1 Z0.800 F10800.000
G1 X66.839 Y99.349
G1 Z0.200
G1 E0.80000 F2100.00000
G1 F1800
G1 X67.337 Y99.388 E0.01568
G1 X67.820 Y99.491 E0.01547
G1 X68.334 Y99.649 E0.01686
G1 X68.866 Y99.871 E0.01809
G1 X69.399 Y100.164 E0.01905
G1 X70.073 Y100.655 E0.02617
G1 X70.527 Y101.083 E0.01955
G1 X70.936 Y101.566 E0.01985
G1 X71.368 Y102.230 E0.02484
G1 X71.647 Y102.803 E0.01998
G1 X71.825 Y103.292 E0.01631
G1 X71.958 Y103.791 E0.01620
G1 X72.044 Y104.301 E0.01620
G1 X72.085 Y104.826 E0.01654
G1 X72.057 Y105.377 E0.01727
G1 X71.945 Y105.943 E0.01811
G1 X71.842 Y106.308 E0.01189
G1 X71.645 Y106.833 E0.01756
G1 X71.378 Y107.366 E0.01869
G1 X70.918 Y108.047 E0.02578
G1 X70.512 Y108.505 E0.01918
G1 X70.048 Y108.919 E0.01950
G1 X69.401 Y109.361 E0.02457
G1 X68.836 Y109.644 E0.01979
G1 X68.233 Y109.857 E0.02007
G1 X67.372 Y110.028 E0.02750
G1 X66.729 Y110.060 E0.02019
G1 X66.095 Y110.009 E0.01996
G1 X65.636 Y109.921 E0.01465
G1 X65.195 Y109.793 E0.01438
G1 X64.772 Y109.626 E0.01428
G1 X64.375 Y109.425 E0.01394
G1 X63.680 Y109.012 E0.02537
G1 X63.280 Y108.710 E0.01571
G1 X62.895 Y108.348 E0.01657
G1 X62.583 Y107.987 E0.01494
G1 X62.309 Y107.599 E0.01491
G1 X62.072 Y107.185 E0.01494
G1 X61.871 Y106.732 E0.01555
G1 X61.594 Y105.959 E0.02575
G1 X61.478 Y105.458 E0.01612
G1 X61.438 Y105.181 E0.00877
G1 X61.400 Y104.656 E0.01652
G1 X61.424 Y104.094 E0.01761
G1 X61.515 Y103.522 E0.01816
G1 X61.673 Y102.962 E0.01827
G1 X61.786 Y102.659 E0.01012
G1 X62.032 Y102.136 E0.01815
G1 X62.347 Y101.629 E0.01870
G1 X62.725 Y101.153 E0.01905
G1 X63.234 Y100.658 E0.02226
G1 X63.721 Y100.286 E0.01921
G1 X64.249 Y99.972 E0.01929
G1 X64.811 Y99.719 E0.01929
G1 X65.297 Y99.557 E0.01608
G1 X65.799 Y99.441 E0.01613
G1 X66.338 Y99.370 E0.01706
G1 X66.779 Y99.351 E0.01384
G1 X66.795 Y99.728 F10800.000
G1 F1800
G1 X67.283 Y99.762 E0.01534
G1 X67.725 Y99.857 E0.01418
G1 X68.205 Y100.004 E0.01576
G1 X68.702 Y100.212 E0.01688
G1 X69.196 Y100.483 E0.01767
G1 X69.832 Y100.946 E0.02466
G1 X70.253 Y101.343 E0.01814
G1 X70.633 Y101.792 E0.01845
G1 X71.039 Y102.416 E0.02336
G1 X71.299 Y102.951 E0.01864
G1 X71.465 Y103.405 E0.01516
G1 X71.589 Y103.871 E0.01512
G1 X71.669 Y104.347 E0.01512
G1 X71.707 Y104.832 E0.01525
G1 X71.682 Y105.331 E0.01567
G1 X71.578 Y105.855 E0.01677
G1 X71.483 Y106.191 E0.01092
G1 X71.299 Y106.682 E0.01644
G1 X71.052 Y107.175 E0.01729
G1 X70.619 Y107.815 E0.02424
G1 X70.244 Y108.238 E0.01772
G1 X69.815 Y108.621 E0.01804
G1 X69.209 Y109.035 E0.02300
G1 X68.688 Y109.296 E0.01826
G1 X68.133 Y109.493 E0.01849
G1 X67.326 Y109.653 E0.02578
G1 X66.735 Y109.682 E0.01855
G1 X66.146 Y109.635 E0.01854
G1 X65.724 Y109.554 E0.01345
G1 X65.317 Y109.436 E0.01329
G1 X64.926 Y109.282 E0.01318
G1 X64.557 Y109.095 E0.01299
G1 X63.890 Y108.698 E0.02431
G1 X63.524 Y108.422 E0.01440
G1 X63.168 Y108.086 E0.01532
G1 X62.880 Y107.755 E0.01377
G1 X62.627 Y107.396 E0.01376
G1 X62.409 Y107.015 E0.01377
G1 X62.221 Y106.592 E0.01452
G1 X61.956 Y105.852 E0.02463
G1 X61.849 Y105.388 E0.01494
G1 X61.778 Y104.650 E0.02325
G1 X61.800 Y104.132 E0.01626
G1 X61.884 Y103.603 E0.01678
G1 X62.031 Y103.079 E0.01708
G1 X62.133 Y102.806 E0.00914
G1 X62.364 Y102.316 E0.01697
G1 X62.656 Y101.846 E0.01733
G1 X63.005 Y101.407 E0.01761
G1 X63.480 Y100.944 E0.02079
G1 X63.932 Y100.599 E0.01782
G1 X64.424 Y100.307 E0.01794
G1 X64.948 Y100.071 E0.01801
G1 X65.400 Y99.921 E0.01493
G1 X65.866 Y99.812 E0.01502
G1 X66.371 Y99.746 E0.01595
G1 X66.735 Y99.730 E0.01142
G1 X67.000 Y99.385 F10800.000
G1 F8640
G1 X67.283 Y99.762 E-0.12677
G1 X67.725 Y99.857 E-0.10441
G1 X68.205 Y100.004 E-0.11606
G1 X68.702 Y100.212 E-0.12430
G1 X69.196 Y100.483 E-0.13016
G1 X69.750 Y100.887 E-0.15831
G1 E-0.04000 F2100.00000
G1 Z0.800 F10800.000
G1 X178.624 Y104.094
G1 Z0.200
G1 E0.80000 F2100.00000
G1 F1800
G1 X178.715 Y103.522 E0.01816
G1 X178.873 Y102.962 E0.01827
G1 X178.986 Y102.659 E0.01012
G1 X179.232 Y102.136 E0.01815
G1 X179.547 Y101.629 E0.01870
G1 X179.925 Y101.153 E0.01905
G1 X180.434 Y100.658 E0.02226
G1 X180.921 Y100.286 E0.01921
G1 X181.449 Y99.972 E0.01929
G1 X182.011 Y99.719 E0.01929
G1 X182.497 Y99.557 E0.01608
G1 X182.999 Y99.441 E0.01613
G1 X183.538 Y99.370 E0.01706
G1 X184.039 Y99.349 E0.01572
G1 X184.537 Y99.388 E0.01568
G1 X185.020 Y99.491 E0.01547
G1 X185.534 Y99.649 E0.01686
G1 X186.066 Y99.871 E0.01809
G1 X186.599 Y100.164 E0.01905
G1 X187.273 Y100.655 E0.02617
G1 X187.727 Y101.083 E0.01955
G1 X188.136 Y101.566 E0.01985
G1 X188.568 Y102.230 E0.02484
G1 X188.847 Y102.803 E0.01998
G1 X189.025 Y103.292 E0.01631
G1 X189.158 Y103.791 E0.01620
G1 X189.244 Y104.301 E0.01620
G1 X189.285 Y104.826 E0.01654
G1 X189.257 Y105.377 E0.01727
G1 X189.145 Y105.943 E0.01811
G1 X189.042 Y106.308 E0.01189
G1 X188.845 Y106.833 E0.01756
G1 X188.578 Y107.366 E0.01869
G1 X188.118 Y108.047 E0.02578
G1 X187.712 Y108.505 E0.01918
G1 X187.248 Y108.919 E0.01950
G1 X186.601 Y109.361 E0.02457
G1 X186.036 Y109.644 E0.01979
G1 X185.433 Y109.857 E0.02007
G1 X184.572 Y110.028 E0.02750
G1 X183.929 Y110.060 E0.02019
G1 X183.295 Y110.009 E0.01996
G1 X182.836 Y109.921 E0.01465
G1 X182.395 Y109.793 E0.01439
G1 X181.972 Y109.626 E0.01428
G1 X181.575 Y109.425 E0.01394
G1 X180.880 Y109.012 E0.02537
G1 X180.480 Y108.710 E0.01571
G1 X180.095 Y108.348 E0.01657
G1 X179.783 Y107.987 E0.01494
G1 X179.509 Y107.599 E0.01491
G1 X179.272 Y107.185 E0.01494
G1 X179.071 Y106.732 E0.01555
G1 X178.794 Y105.959 E0.02575
G1 X178.678 Y105.458 E0.01612
G1 X178.638 Y105.181 E0.00877
G1 X178.600 Y104.656 E0.01652
G1 X178.621 Y104.154 E0.01573
G1 X178.998 Y104.170 F10800.000
G1 F1800
G1 X179.084 Y103.603 E0.01797
G1 X179.231 Y103.079 E0.01708
G1 X179.333 Y102.806 E0.00914
G1 X179.564 Y102.316 E0.01697
G1 X179.856 Y101.846 E0.01733
G1 X180.205 Y101.407 E0.01761
G1 X180.680 Y100.944 E0.02079
G1 X181.132 Y100.599 E0.01782
G1 X181.624 Y100.307 E0.01794
G1 X182.148 Y100.071 E0.01801
G1 X182.600 Y99.921 E0.01493
G1 X183.066 Y99.812 E0.01502
G1 X183.571 Y99.746 E0.01595
G1 X184.032 Y99.726 E0.01447
G1 X184.483 Y99.762 E0.01419
G1 X184.925 Y99.857 E0.01418
G1 X185.405 Y100.004 E0.01576
G1 X185.902 Y100.212 E0.01688
G1 X186.396 Y100.483 E0.01767
G1 X187.032 Y100.946 E0.02466
G1 X187.453 Y101.343 E0.01814
G1 X187.833 Y101.792 E0.01845
G1 X188.239 Y102.416 E0.02336
G1 X188.499 Y102.951 E0.01864
G1 X188.665 Y103.405 E0.01516
G1 X188.789 Y103.871 E0.01512
G1 X188.869 Y104.347 E0.01512
G1 X188.907 Y104.832 E0.01525
G1 X188.882 Y105.331 E0.01567
G1 X188.778 Y105.855 E0.01677
G1 X188.683 Y106.191 E0.01092
G1 X188.499 Y106.682 E0.01644
G1 X188.252 Y107.175 E0.01729
G1 X187.819 Y107.815 E0.02424
G1 X187.444 Y108.238 E0.01772
G1 X187.015 Y108.621 E0.01804
G1 X186.409 Y109.035 E0.02300
G1 X185.888 Y109.296 E0.01826
G1 X185.333 Y109.493 E0.01849
G1 X184.526 Y109.653 E0.02578
G1 X183.935 Y109.682 E0.01855
G1 X183.346 Y109.635 E0.01854
G1 X182.924 Y109.554 E0.01345
G1 X182.517 Y109.436 E0.01329
G1 X182.126 Y109.282 E0.01318
G1 X181.757 Y109.095 E0.01299
G1 X181.090 Y108.698 E0.02431
G1 X180.724 Y108.422 E0.01440
G1 X180.368 Y108.086 E0.01532
G1 X180.080 Y107.755 E0.01377
G1 X179.827 Y107.396 E0.01376
G1 X179.609 Y107.015 E0.01377
G1 X179.421 Y106.592 E0.01452
G1 X179.156 Y105.852 E0.02463
G1 X179.049 Y105.388 E0.01494
G1 X179.013 Y105.141 E0.00785
G1 X178.978 Y104.650 E0.01542
G1 X178.996 Y104.230 E0.01318
G1 X178.672 Y103.938 F10800.000
G1 F8640
G1 X179.084 Y103.603 E-0.14609
G1 X179.231 Y103.079 E-0.12580
G1 X179.333 Y102.806 E-0.06734
G1 X179.564 Y102.316 E-0.12501
G1 X179.856 Y101.846 E-0.12763
G1 X180.205 Y101.407 E-0.12971
G1 X180.324 Y101.291 E-0.03842
G1 E-0.04000 F2100.00000
G1 Z0.800 F10800.000
G1 X195.498 Y104.183
G1 Z0.200
G1 E0.80000 F2100.00000
G1 F1800
G1 X195.503 Y106.005 E0.05712
G1 X195.427 Y108.426 E0.07596
G1 X195.268 Y110.836 E0.07575
G1 X195.026 Y113.250 E0.07606
G1 X194.819 Y114.847 E0.05050
G1 X194.439 Y117.243 E0.07606
G1 X194.295 Y118.031 E0.02509
G1 X193.806 Y120.406 E0.07606
G1 X193.436 Y121.974 E0.05050
G1 X192.811 Y124.318 E0.07606
G1 X192.588 Y125.086 E0.02509
G1 X191.857 Y127.398 E0.07601
G1 X191.048 Y129.681 E0.07596
G1 X190.467 Y131.183 E0.05050
G1 X189.529 Y133.417 E0.07596
G1 X188.514 Y135.618 E0.07601
G1 X188.161 Y136.339 E0.02514
G1 X187.428 Y137.776 E0.05060
G1 X186.265 Y139.901 E0.07596
G1 X185.029 Y141.987 E0.07601
G1 X184.605 Y142.665 E0.02509
G1 X183.274 Y144.693 E0.07606
G1 X182.350 Y146.017 E0.05060
G1 X181.880 Y146.666 E0.02514
G1 X180.413 Y148.598 E0.07606
G1 X179.402 Y149.853 E0.05050
G1 X177.829 Y151.695 E0.07596
G1 X176.193 Y153.483 E0.07601
G1 X175.639 Y154.061 E0.02509
G1 X173.921 Y155.774 E0.07606
G1 X172.749 Y156.878 E0.05050
G1 X170.938 Y158.488 E0.07596
G1 X169.073 Y160.035 E0.07601
G1 X168.444 Y160.533 E0.02514
G1 X167.161 Y161.513 E0.05060
G1 X165.192 Y162.930 E0.07606
G1 X164.532 Y163.382 E0.02509
G1 X162.500 Y164.707 E0.07606
G1 X161.127 Y165.548 E0.05050
G1 X159.025 Y166.754 E0.07596
G1 X156.885 Y167.885 E0.07590
G1 X154.705 Y168.944 E0.07601
G1 X153.977 Y169.277 E0.02509
G1 X151.749 Y170.236 E0.07606
G1 X150.248 Y170.831 E0.05060
G1 X149.498 Y171.114 E0.02514
G1 X147.211 Y171.917 E0.07601
G1 X144.899 Y172.640 E0.07596
G1 X143.345 Y173.078 E0.05060
G1 X142.570 Y173.282 E0.02514
G1 X140.212 Y173.846 E0.07601
G1 X137.838 Y174.328 E0.07596
G1 X136.251 Y174.603 E0.05050
G1 X133.850 Y174.949 E0.07606
G1 X133.056 Y175.045 E0.02509
G1 X130.643 Y175.280 E0.07601
G1 X128.225 Y175.433 E0.07596
G1 X125.810 Y175.502 E0.07574
G1 X123.385 Y175.488 E0.07606
G1 X121.775 Y175.433 E0.05050
G1 X119.357 Y175.280 E0.07596
G1 X116.944 Y175.045 E0.07601
G1 X116.150 Y174.949 E0.02509
G1 X113.749 Y174.603 E0.07606
G1 X112.162 Y174.328 E0.05050
G1 X109.788 Y173.846 E0.07596
G1 X107.430 Y173.282 E0.07601
G1 X105.101 Y172.640 E0.07575
G1 X102.789 Y171.917 E0.07596
G1 X100.502 Y171.114 E0.07601
G1 X98.251 Y170.236 E0.07574
G1 X96.023 Y169.277 E0.07606
G1 X95.295 Y168.944 E0.02509
G1 X93.113 Y167.884 E0.07606
G1 X91.685 Y167.140 E0.05050
G1 X89.567 Y165.957 E0.07606
G1 X88.878 Y165.551 E0.02509
G1 X86.817 Y164.273 E0.07601
G1 X84.804 Y162.927 E0.07596
G1 X83.488 Y161.992 E0.05060
G1 X82.843 Y161.516 E0.02514
G1 X80.925 Y160.033 E0.07601
G1 X79.060 Y158.487 E0.07596
G1 X77.850 Y157.424 E0.05050
G1 X76.075 Y155.771 E0.07606
G1 X75.502 Y155.212 E0.02509
G1 X73.804 Y153.480 E0.07606
G1 X72.710 Y152.298 E0.05050
G1 X71.116 Y150.474 E0.07596
G1 X69.584 Y148.594 E0.07601
G1 X69.092 Y147.961 E0.02514
G1 X68.123 Y146.670 E0.05060
G1 X66.725 Y144.692 E0.07596
G1 X65.395 Y142.665 E0.07601
G1 X64.971 Y141.985 E0.02514
G1 X64.140 Y140.601 E0.05060
G1 X62.953 Y138.490 E0.07596
G1 X61.839 Y136.340 E0.07590
G1 X60.799 Y134.150 E0.07601
G1 X60.472 Y133.418 E0.02514
G1 X59.838 Y131.934 E0.05060
G1 X58.950 Y129.677 E0.07606
G1 X58.674 Y128.925 E0.02509
G1 X57.890 Y126.630 E0.07606
G1 X57.414 Y125.091 E0.05050
G1 X56.763 Y122.758 E0.07596
G1 X56.194 Y120.405 E0.07590
