; generated by Slic3r 1.37.2.1-prusa3d on 2018-08-30 at 19:58:38

; 

; external perimeters extrusion width = 0.42mm
; perimeters extrusion width = 0.45mm
; infill extrusion width = 0.45mm
; solid infill extrusion width = 0.45mm
; top infill extrusion width = 0.42mm
; first layer extrusion width = 0.42mm

M107 ; disable fan
M115 U3.1.0 ; tell printer latest fw version
M83  ; extruder relative mode
M104 S230 ; set extruder temp
M140 S85 ; set bed temp
M190 S85 ; wait for bed temp
M109 S230 ; wait for extruder temp
G28 W ; home all without mesh bed level
G80 ; mesh bed leveling
G1 Y-3.0 F1000.0 ; go outside pritn area
G1 X60.0 E9.0  F1000.0 ; intro line
G1 X100.0 E12.5  F1000.0 ; intro line
G92 E0.0
M900 K45
G21 ; set units to millimeters
G90 ; use absolute coordinates
M83 ; use relative distances for extrusion
;BEFORE_LAYER_CHANGE
;0.2


G1 E-0.80000 F2100.00000 ; retract
G1 Z0.600 F7200.000 ; lift Z
;AFTER_LAYER_CHANGE
;0.2
G1 X101.839 Y105.733 F7200.000 ; move to first skirt point
G1 Z0.200 F7200.000 ; restore layer Z
G1 E0.80000 F2100.00000 ; unretract
M204 S1000 ; adjust acceleration
G1 F1800
G1 X101.723 Y104.999 E0.02331 ; skirt
G1 X101.781 Y103.782 E0.03819 ; skirt
G1 X101.955 Y102.572 E0.03833 ; skirt
G1 X102.242 Y101.387 E0.03821 ; skirt
G1 X102.658 Y100.193 E0.03964 ; skirt
G1 X103.148 Y99.123 E0.03690 ; skirt
G1 X103.784 Y98.028 E0.03972 ; skirt
G1 X104.810 Y96.654 E0.05376 ; skirt
G1 X105.649 Y95.765 E0.03833 ; skirt
G1 X106.643 Y94.900 E0.04131 ; skirt
G1 X123.604 Y82.176 E0.66482 ; skirt
G1 X124.267 Y81.839 E0.02331 ; skirt
G1 X125.005 Y81.723 E0.02343 ; skirt
G1 X126.218 Y81.781 E0.03807 ; skirt
G1 X127.428 Y81.955 E0.03833 ; skirt
G1 X128.613 Y82.242 E0.03821 ; skirt
G1 X129.807 Y82.658 E0.03964 ; skirt
G1 X130.877 Y83.148 E0.03690 ; skirt
G1 X131.972 Y83.784 E0.03972 ; skirt
G1 X133.346 Y84.810 E0.05376 ; skirt
G1 X134.235 Y85.649 E0.03833 ; skirt
G1 X135.100 Y86.643 E0.04131 ; skirt
G1 X147.824 Y103.604 E0.66482 ; skirt
G1 X148.161 Y104.267 E0.02331 ; skirt
G1 X148.277 Y105.001 E0.02331 ; skirt
G1 X148.219 Y106.218 E0.03820 ; skirt
G1 X148.045 Y107.428 E0.03833 ; skirt
G1 X147.758 Y108.613 E0.03821 ; skirt
G1 X147.342 Y109.807 E0.03965 ; skirt
G1 X146.852 Y110.877 E0.03690 ; skirt
G1 X146.216 Y111.972 E0.03972 ; skirt
G1 X145.190 Y113.346 E0.05376 ; skirt
G1 X144.351 Y114.235 E0.03833 ; skirt
G1 X143.357 Y115.100 E0.04132 ; skirt
G1 X126.396 Y127.824 E0.66481 ; skirt
G1 X125.733 Y128.161 E0.02331 ; skirt
G1 X124.999 Y128.277 E0.02331 ; skirt
G1 X123.782 Y128.219 E0.03820 ; skirt
G1 X122.572 Y128.045 E0.03833 ; skirt
G1 X121.387 Y127.758 E0.03821 ; skirt
G1 X120.193 Y127.342 E0.03965 ; skirt
G1 X119.123 Y126.852 E0.03690 ; skirt
G1 X118.028 Y126.216 E0.03972 ; skirt
G1 X116.654 Y125.190 E0.05376 ; skirt
G1 X115.765 Y124.351 E0.03833 ; skirt
G1 X114.900 Y123.357 E0.04132 ; skirt
G1 X102.176 Y106.396 E0.66481 ; skirt
G1 X101.866 Y105.787 E0.02143 ; skirt
G1 F5760
G1 X101.723 Y104.999 E-0.27735 ; wipe and retract
G1 F5760
G1 X101.781 Y103.782 E-0.42191 ; wipe and retract
G1 F5760
G1 X101.806 Y103.608 E-0.06074 ; wipe and retract
G1 E-0.04000 F2100.00000 ; retract
G1 Z0.800 F7200.000 ; lift Z
G1 X104.716 Y104.413 F7200.000 ; move to first perimeter point
G1 Z0.200 F7200.000 ; restore layer Z
G1 E0.80000 F2100.00000 ; unretract
G1 F1800
G1 X104.733 Y104.057 E0.01117 ; perimeter
G1 X104.786 Y103.606 E0.01426 ; perimeter
G1 X104.965 Y102.678 E0.02960 ; perimeter
G1 X105.228 Y101.779 E0.02938 ; perimeter
G1 X105.576 Y100.909 E0.02939 ; perimeter
G1 X105.996 Y100.092 E0.02880 ; perimeter
G1 X106.245 Y99.681 E0.01507 ; perimeter
G1 X106.795 Y98.906 E0.02980 ; perimeter
G1 X107.085 Y98.555 E0.01426 ; perimeter
G1 X107.735 Y97.871 E0.02960 ; perimeter
G1 X108.443 Y97.256 E0.02938 ; perimeter
G1 X109.205 Y96.712 E0.02938 ; perimeter
G1 X110.016 Y96.242 E0.02938 ; perimeter
G1 X110.867 Y95.851 E0.02938 ; perimeter
G1 X111.752 Y95.543 E0.02938 ; perimeter
G1 X112.669 Y95.318 E0.02960 ; perimeter
G1 X113.118 Y95.242 E0.01426 ; perimeter
G1 X114.057 Y95.150 E0.02960 ; perimeter
G1 X114.994 Y95.148 E0.02938 ; perimeter
G1 X115.934 Y95.235 E0.02960 ; perimeter
G1 X116.383 Y95.309 E0.01426 ; perimeter
G1 X117.301 Y95.529 E0.02960 ; perimeter
G1 X118.187 Y95.833 E0.02938 ; perimeter
G1 X119.047 Y96.222 E0.02960 ; perimeter
G1 X119.447 Y96.439 E0.01426 ; perimeter
G1 X120.243 Y96.947 E0.02960 ; perimeter
G1 X120.982 Y97.523 E0.02938 ; perimeter
G1 X121.662 Y98.168 E0.02938 ; perimeter
G1 X122.278 Y98.873 E0.02938 ; perimeter
G1 X122.825 Y99.634 E0.02938 ; perimeter
G1 X123.297 Y100.444 E0.02938 ; perimeter
G1 X123.888 Y101.725 E0.04422 ; perimeter
G1 X124.556 Y101.617 E0.02121 ; perimeter
G1 X125.587 Y101.551 E0.03240 ; perimeter
G1 X125.587 Y84.708 E0.52809 ; perimeter
G1 X125.930 Y84.731 E0.01077 ; perimeter
G1 X126.864 Y84.865 E0.02958 ; perimeter
G1 X127.774 Y85.086 E0.02938 ; perimeter
G1 X128.667 Y85.394 E0.02960 ; perimeter
G1 X129.085 Y85.573 E0.01426 ; perimeter
G1 X129.924 Y86.005 E0.02960 ; perimeter
G1 X130.713 Y86.511 E0.02938 ; perimeter
G1 X131.450 Y87.089 E0.02939 ; perimeter
G1 X132.116 Y87.722 E0.02880 ; perimeter
G1 X132.441 Y88.077 E0.01507 ; perimeter
G1 X133.025 Y88.817 E0.02958 ; perimeter
G1 X133.533 Y89.605 E0.02938 ; perimeter
G1 X133.964 Y90.437 E0.02938 ; perimeter
G1 X134.314 Y91.306 E0.02938 ; perimeter
G1 X134.579 Y92.205 E0.02938 ; perimeter
G1 X134.759 Y93.125 E0.02939 ; perimeter
G1 X134.849 Y94.039 E0.02880 ; perimeter
G1 X134.863 Y94.519 E0.01507 ; perimeter
G1 X134.820 Y95.462 E0.02958 ; perimeter
G1 X134.692 Y96.372 E0.02880 ; perimeter
G1 X134.593 Y96.842 E0.01507 ; perimeter
G1 X134.328 Y97.754 E0.02980 ; perimeter
G1 X134.170 Y98.181 E0.01426 ; perimeter
G1 X133.780 Y99.041 E0.02961 ; perimeter
G1 X133.324 Y99.838 E0.02880 ; perimeter
G1 X133.057 Y100.238 E0.01507 ; perimeter
G1 X132.477 Y100.982 E0.02958 ; perimeter
G1 X131.832 Y101.662 E0.02938 ; perimeter
G1 X131.127 Y102.278 E0.02938 ; perimeter
G1 X130.366 Y102.825 E0.02938 ; perimeter
G1 X129.556 Y103.297 E0.02938 ; perimeter
G1 X128.289 Y103.882 E0.04377 ; perimeter
G1 X128.406 Y104.788 E0.02865 ; perimeter
G1 X128.432 Y105.587 E0.02505 ; perimeter
G1 X145.284 Y105.587 E0.52840 ; perimeter
G1 X145.268 Y105.936 E0.01096 ; perimeter
G1 X145.138 Y106.846 E0.02880 ; perimeter
G1 X145.037 Y107.315 E0.01507 ; perimeter
G1 X144.770 Y108.227 E0.02980 ; perimeter
G1 X144.611 Y108.654 E0.01426 ; perimeter
G1 X144.219 Y109.513 E0.02960 ; perimeter
G1 X143.751 Y110.324 E0.02938 ; perimeter
G1 X143.209 Y111.088 E0.02938 ; perimeter
G1 X142.596 Y111.797 E0.02938 ; perimeter
G1 X141.918 Y112.445 E0.02938 ; perimeter
G1 X141.183 Y113.025 E0.02939 ; perimeter
G1 X140.411 Y113.523 E0.02880 ; perimeter
G1 X139.990 Y113.755 E0.01507 ; perimeter
G1 X139.133 Y114.149 E0.02958 ; perimeter
G1 X138.248 Y114.457 E0.02938 ; perimeter
G1 X137.338 Y114.680 E0.02938 ; perimeter
G1 X136.410 Y114.815 E0.02939 ; perimeter
G1 X135.493 Y114.862 E0.02880 ; perimeter
G1 X135.012 Y114.853 E0.01507 ; perimeter
G1 X134.073 Y114.766 E0.02958 ; perimeter
G1 X133.170 Y114.595 E0.02880 ; perimeter
G1 X132.705 Y114.473 E0.01507 ; perimeter
G1 X131.813 Y114.167 E0.02958 ; perimeter
G1 X130.959 Y113.780 E0.02938 ; perimeter
G1 X130.146 Y113.315 E0.02938 ; perimeter
G1 X129.381 Y112.774 E0.02938 ; perimeter
G1 X128.671 Y112.163 E0.02938 ; perimeter
G1 X128.021 Y111.487 E0.02938 ; perimeter
G1 X127.439 Y110.753 E0.02938 ; perimeter
G1 X126.926 Y109.961 E0.02958 ; perimeter
G1 X126.695 Y109.540 E0.01507 ; perimeter
G1 X126.112 Y108.275 E0.04365 ; perimeter
G1 X125.444 Y108.383 E0.02122 ; perimeter
G1 X124.413 Y108.449 E0.03240 ; perimeter
G1 X124.413 Y125.284 E0.52784 ; perimeter
G1 X124.064 Y125.268 E0.01096 ; perimeter
G1 X123.154 Y125.138 E0.02880 ; perimeter
G1 X122.685 Y125.037 E0.01507 ; perimeter
G1 X121.779 Y124.772 E0.02958 ; perimeter
G1 X120.909 Y124.424 E0.02938 ; perimeter
G1 X120.076 Y123.995 E0.02938 ; perimeter
G1 X119.287 Y123.489 E0.02939 ; perimeter
G1 X118.564 Y122.922 E0.02880 ; perimeter
G1 X118.207 Y122.600 E0.01507 ; perimeter
G1 X117.555 Y121.918 E0.02958 ; perimeter
G1 X116.975 Y121.183 E0.02938 ; perimeter
G1 X116.463 Y120.389 E0.02960 ; perimeter
G1 X116.245 Y119.991 E0.01426 ; perimeter
G1 X115.851 Y119.133 E0.02960 ; perimeter
G1 X115.543 Y118.248 E0.02938 ; perimeter
G1 X115.318 Y117.331 E0.02960 ; perimeter
G1 X115.242 Y116.882 E0.01426 ; perimeter
G1 X115.150 Y115.943 E0.02960 ; perimeter
G1 X115.148 Y115.006 E0.02938 ; perimeter
G1 X115.234 Y114.073 E0.02939 ; perimeter
G1 X115.405 Y113.170 E0.02880 ; perimeter
G1 X115.527 Y112.705 E0.01507 ; perimeter
G1 X115.833 Y111.813 E0.02958 ; perimeter
G1 X116.222 Y110.953 E0.02960 ; perimeter
G1 X116.439 Y110.553 E0.01426 ; perimeter
G1 X116.947 Y109.757 E0.02960 ; perimeter
G1 X117.523 Y109.018 E0.02938 ; perimeter
G1 X118.168 Y108.338 E0.02938 ; perimeter
G1 X118.873 Y107.722 E0.02938 ; perimeter
G1 X119.634 Y107.175 E0.02938 ; perimeter
G1 X120.444 Y106.703 E0.02938 ; perimeter
G1 X121.711 Y106.118 E0.04377 ; perimeter
G1 X121.594 Y105.212 E0.02865 ; perimeter
G1 X121.568 Y104.413 E0.02505 ; perimeter
G1 X104.776 Y104.413 E0.52652 ; perimeter
G1 F5760
G1 X104.733 Y104.057 E-0.12417 ; wipe and retract
G1 F5760
G1 X104.786 Y103.606 E-0.15749 ; wipe and retract
G1 F5760
G1 X104.965 Y102.678 E-0.32697 ; wipe and retract
G1 F5760
G1 X105.088 Y102.259 E-0.15137 ; wipe and retract
G1 E-0.04000 F2100.00000 ; retract
G1 Z0.800 F7200.000 ; lift Z
G1 X128.698 Y104.108 F7200.000 ; move to first perimeter point
G1 Z0.200 F7200.000 ; restore layer Z
G1 E0.80000 F2100.00000 ; unretract
G1 F1800
G1 X128.782 Y104.758 E0.02054 ; perimeter
G1 X128.797 Y105.210 E0.01417 ; perimeter
G1 X145.680 Y105.210 E0.52936 ; perimeter
G1 X145.644 Y105.972 E0.02392 ; perimeter
G1 X145.509 Y106.912 E0.02977 ; perimeter
G1 X145.403 Y107.408 E0.01592 ; perimeter
G1 X145.128 Y108.346 E0.03065 ; perimeter
G1 X144.960 Y108.798 E0.01510 ; perimeter
G1 X144.555 Y109.685 E0.03058 ; perimeter
G1 X144.069 Y110.528 E0.03051 ; perimeter
G1 X143.506 Y111.321 E0.03051 ; perimeter
G1 X142.869 Y112.057 E0.03051 ; perimeter
G1 X142.166 Y112.730 E0.03051 ; perimeter
G1 X141.402 Y113.332 E0.03051 ; perimeter
G1 X140.604 Y113.847 E0.02977 ; perimeter
G1 X140.160 Y114.092 E0.01592 ; perimeter
G1 X139.274 Y114.499 E0.03058 ; perimeter
G1 X138.355 Y114.819 E0.03051 ; perimeter
G1 X137.410 Y115.050 E0.03051 ; perimeter
G1 X136.447 Y115.191 E0.03051 ; perimeter
G1 X135.499 Y115.239 E0.02977 ; perimeter
G1 X134.991 Y115.230 E0.01592 ; perimeter
G1 X134.020 Y115.139 E0.03058 ; perimeter
G1 X133.087 Y114.963 E0.02977 ; perimeter
G1 X132.596 Y114.834 E0.01592 ; perimeter
G1 X131.674 Y114.518 E0.03058 ; perimeter
G1 X130.787 Y114.117 E0.03051 ; perimeter
G1 X129.943 Y113.633 E0.03051 ; perimeter
G1 X129.149 Y113.071 E0.03051 ; perimeter
G1 X128.411 Y112.437 E0.03051 ; perimeter
G1 X127.737 Y111.735 E0.03051 ; perimeter
G1 X127.133 Y110.973 E0.03051 ; perimeter
G1 X126.602 Y110.155 E0.03058 ; perimeter
G1 X126.358 Y109.709 E0.01592 ; perimeter
G1 X125.889 Y108.693 E0.03508 ; perimeter
G1 X125.486 Y108.758 E0.01281 ; perimeter
G1 X124.790 Y108.803 E0.02188 ; perimeter
G1 X124.790 Y125.680 E0.52916 ; perimeter
G1 X124.028 Y125.644 E0.02392 ; perimeter
G1 X123.088 Y125.509 E0.02977 ; perimeter
G1 X122.592 Y125.403 E0.01592 ; perimeter
G1 X121.656 Y125.128 E0.03058 ; perimeter
G1 X120.753 Y124.767 E0.03051 ; perimeter
G1 X119.887 Y124.322 E0.03051 ; perimeter
G1 X119.068 Y123.797 E0.03051 ; perimeter
G1 X118.321 Y123.211 E0.02977 ; perimeter
G1 X117.944 Y122.871 E0.01592 ; perimeter
G1 X117.270 Y122.166 E0.03058 ; perimeter
G1 X116.668 Y121.402 E0.03051 ; perimeter
G1 X116.139 Y120.582 E0.03058 ; perimeter
G1 X115.908 Y120.160 E0.01510 ; perimeter
G1 X115.501 Y119.274 E0.03058 ; perimeter
G1 X115.181 Y118.355 E0.03051 ; perimeter
G1 X114.949 Y117.407 E0.03058 ; perimeter
G1 X114.868 Y116.933 E0.01510 ; perimeter
G1 X114.773 Y115.962 E0.03058 ; perimeter
G1 X114.771 Y114.989 E0.03051 ; perimeter
G1 X114.861 Y114.020 E0.03051 ; perimeter
G1 X115.037 Y113.087 E0.02977 ; perimeter
G1 X115.166 Y112.596 E0.01592 ; perimeter
G1 X115.482 Y111.674 E0.03058 ; perimeter
G1 X115.884 Y110.785 E0.03058 ; perimeter
G1 X116.114 Y110.362 E0.01510 ; perimeter
G1 X116.638 Y109.539 E0.03058 ; perimeter
G1 X117.237 Y108.772 E0.03051 ; perimeter
G1 X117.906 Y108.066 E0.03051 ; perimeter
G1 X118.639 Y107.426 E0.03051 ; perimeter
G1 X119.429 Y106.858 E0.03051 ; perimeter
G1 X120.270 Y106.368 E0.03051 ; perimeter
G1 X121.302 Y105.892 E0.03565 ; perimeter
G1 X121.218 Y105.242 E0.02054 ; perimeter
G1 X121.203 Y104.790 E0.01417 ; perimeter
G1 X104.320 Y104.790 E0.52936 ; perimeter
G1 X104.357 Y104.026 E0.02399 ; perimeter
G1 X104.414 Y103.547 E0.01510 ; perimeter
G1 X104.598 Y102.590 E0.03058 ; perimeter
G1 X104.872 Y101.656 E0.03051 ; perimeter
G1 X105.233 Y100.752 E0.03051 ; perimeter
G1 X105.667 Y99.908 E0.02977 ; perimeter
G1 X105.929 Y99.474 E0.01592 ; perimeter
G1 X106.496 Y98.677 E0.03065 ; perimeter
G1 X106.802 Y98.305 E0.01510 ; perimeter
G1 X107.474 Y97.598 E0.03058 ; perimeter
G1 X108.209 Y96.960 E0.03051 ; perimeter
G1 X109.000 Y96.394 E0.03051 ; perimeter
G1 X109.842 Y95.907 E0.03051 ; perimeter
G1 X110.726 Y95.501 E0.03051 ; perimeter
G1 X111.645 Y95.181 E0.03051 ; perimeter
G1 X112.593 Y94.949 E0.03058 ; perimeter
G1 X113.067 Y94.868 E0.01510 ; perimeter
G1 X114.038 Y94.773 E0.03058 ; perimeter
G1 X115.011 Y94.771 E0.03051 ; perimeter
G1 X115.982 Y94.861 E0.03058 ; perimeter
G1 X116.458 Y94.939 E0.01510 ; perimeter
G1 X117.406 Y95.167 E0.03058 ; perimeter
G1 X118.326 Y95.482 E0.03051 ; perimeter
G1 X119.215 Y95.884 E0.03058 ; perimeter
G1 X119.638 Y96.114 E0.01510 ; perimeter
G1 X120.461 Y96.638 E0.03058 ; perimeter
G1 X121.228 Y97.237 E0.03051 ; perimeter
G1 X121.934 Y97.906 E0.03051 ; perimeter
G1 X122.574 Y98.639 E0.03051 ; perimeter
G1 X123.142 Y99.429 E0.03051 ; perimeter
G1 X123.632 Y100.270 E0.03051 ; perimeter
G1 X124.111 Y101.307 E0.03581 ; perimeter
G1 X124.514 Y101.242 E0.01280 ; perimeter
G1 X125.210 Y101.197 E0.02188 ; perimeter
G1 X125.210 Y84.315 E0.52932 ; perimeter
G1 X125.970 Y84.356 E0.02385 ; perimeter
G1 X126.935 Y84.495 E0.03058 ; perimeter
G1 X127.880 Y84.724 E0.03051 ; perimeter
G1 X128.802 Y85.042 E0.03058 ; perimeter
G1 X129.245 Y85.232 E0.01510 ; perimeter
G1 X130.113 Y85.678 E0.03058 ; perimeter
G1 X130.932 Y86.203 E0.03051 ; perimeter
G1 X131.697 Y86.804 E0.03051 ; perimeter
G1 X132.385 Y87.458 E0.02977 ; perimeter
G1 X132.728 Y87.832 E0.01592 ; perimeter
G1 X133.332 Y88.598 E0.03058 ; perimeter
G1 X133.859 Y89.415 E0.03051 ; perimeter
G1 X134.307 Y90.279 E0.03051 ; perimeter
G1 X134.670 Y91.182 E0.03051 ; perimeter
G1 X134.946 Y92.115 E0.03051 ; perimeter
G1 X135.132 Y93.070 E0.03051 ; perimeter
G1 X135.225 Y94.015 E0.02977 ; perimeter
G1 X135.240 Y94.522 E0.01592 ; perimeter
G1 X135.196 Y95.497 E0.03058 ; perimeter
G1 X135.064 Y96.437 E0.02977 ; perimeter
G1 X134.959 Y96.934 E0.01592 ; perimeter
G1 X134.686 Y97.872 E0.03065 ; perimeter
G1 X134.519 Y98.324 E0.01510 ; perimeter
G1 X134.117 Y99.213 E0.03059 ; perimeter
G1 X133.645 Y100.037 E0.02977 ; perimeter
G1 X133.363 Y100.459 E0.01592 ; perimeter
G1 X132.763 Y101.228 E0.03058 ; perimeter
G1 X132.094 Y101.934 E0.03051 ; perimeter
G1 X131.361 Y102.574 E0.03051 ; perimeter
G1 X130.571 Y103.142 E0.03051 ; perimeter
G1 X129.730 Y103.632 E0.03051 ; perimeter
G1 X128.753 Y104.083 E0.03377 ; perimeter
G1 X128.310 Y104.205 F7200.000 ; move inwards before travel
G1 F5760
G1 X128.782 Y104.758 E-0.23397 ; wipe and retract
G1 F5760
G1 X128.797 Y105.210 E-0.15658 ; wipe and retract
G1 F5760
G1 X129.863 Y105.210 E-0.36944 ; wipe and retract
G1 E-0.04000 F2100.00000 ; retract
G1 Z0.800 F7200.000 ; lift Z
G1 X128.311 Y105.345 F7200.000 ; move to first infill point
G1 Z0.200 F7200.000 ; restore layer Z
G1 E0.80000 F2100.00000 ; unretract
G1 F1800
G1 X124.847 Y101.881 E0.15527 ; infill
G1 X125.354 Y101.849 E0.01609 ; infill
G1 X128.095 Y104.590 E0.12289 ; infill
