; generated by Slic3r 1.37.2.1-prusa3d on 2018-09-03 at 14:57:57

; 

; external perimeters extrusion width = 0.42mm
; perimeters extrusion width = 0.45mm
; infill extrusion width = 0.45mm
; solid infill extrusion width = 0.45mm
; top infill extrusion width = 0.42mm
; first layer extrusion width = 0.42mm

M107 ; disable fan
M115 U3.1.0 ; tell printer latest fw version
M83  ; extruder relative mode
M104 S215 ; set extruder temp
M140 S55 ; set bed temp
M190 S55 ; wait for bed temp
M109 S215 ; wait for extruder temp
G28 W ; home all without mesh bed level
G80 ; mesh bed leveling
G1 Y-3.0 F1000.0 ; go outside pritn area
G1 X60.0 E9.0  F1000.0 ; intro line
G1 X100.0 E12.5  F1000.0 ; intro line
G92 E0.0
M900 K30
G21 ; set units to millimeters
G90 ; use absolute coordinates
M83 ; use relative distances for extrusion
;BEFORE_LAYER_CHANGE
;0.2


G1 E-0.80000 F2100.00000 ; retract
G1 Z0.600 F7200.000 ; lift Z
;AFTER_LAYER_CHANGE
;0.2
G1 X119.850 Y98.861 F7200.000 ; move to first skirt point
G1 Z0.200 F7200.000 ; restore layer Z
G1 E0.80000 F2100.00000 ; unretract
M204 S1000 ; adjust acceleration
G1 F1490
G1 X120.443 Y98.300 E0.02560 ; skirt
G1 X121.163 Y97.877 E0.02616 ; skirt
G1 X121.958 Y97.631 E0.02609 ; skirt
G1 X122.785 Y97.569 E0.02603 ; skirt
G1 X123.873 Y97.737 E0.03450 ; skirt
G1 X124.849 Y98.215 E0.03408 ; skirt
G1 X130.372 Y102.155 E0.21273 ; skirt
G1 X131.073 Y102.871 E0.03141 ; skirt
G1 X131.577 Y103.687 E0.03009 ; skirt
G1 X131.846 Y104.406 E0.02408 ; skirt
G1 X131.988 Y105.174 E0.02448 ; skirt
G1 X132.175 Y107.898 E0.08560 ; skirt
G1 X132.058 Y109.017 E0.03528 ; skirt
G1 X131.730 Y109.937 E0.03062 ; skirt
G1 X131.209 Y110.763 E0.03060 ; skirt
G1 X130.498 Y111.472 E0.03149 ; skirt
G1 X129.663 Y111.994 E0.03088 ; skirt
G1 X128.823 Y112.298 E0.02801 ; skirt
G1 X127.945 Y112.427 E0.02784 ; skirt
G1 X123.213 Y112.431 E0.14835 ; skirt
G1 X122.387 Y112.344 E0.02607 ; skirt
G1 X121.409 Y112.025 E0.03223 ; skirt
G1 X120.557 Y111.510 E0.03123 ; skirt
G1 X119.825 Y110.797 E0.03204 ; skirt
G1 X119.265 Y109.913 E0.03280 ; skirt
G1 X119.010 Y109.247 E0.02237 ; skirt
G1 X117.899 Y105.293 E0.12877 ; skirt
G1 X117.830 Y104.255 E0.03261 ; skirt
G1 X117.999 Y103.246 E0.03209 ; skirt
G1 X119.281 Y99.792 E0.11552 ; skirt
G1 X119.819 Y98.912 E0.03234 ; skirt
G1 X120.096 Y99.156 F7200.000 ; move to first skirt point
G1 F1490
G1 X120.638 Y98.625 E0.02380 ; skirt
G1 X121.295 Y98.231 E0.02402 ; skirt
G1 X122.025 Y98.002 E0.02396 ; skirt
G1 X122.785 Y97.946 E0.02391 ; skirt
G1 X123.757 Y98.096 E0.03085 ; skirt
G1 X124.631 Y98.523 E0.03051 ; skirt
G1 X130.121 Y102.436 E0.21138 ; skirt
G1 X130.736 Y103.053 E0.02731 ; skirt
G1 X131.220 Y103.815 E0.02832 ; skirt
G1 X131.477 Y104.487 E0.02254 ; skirt
G1 X131.611 Y105.190 E0.02243 ; skirt
G1 X131.797 Y107.880 E0.08454 ; skirt
G1 X131.710 Y108.846 E0.03044 ; skirt
G1 X131.411 Y109.731 E0.02927 ; skirt
G1 X130.942 Y110.492 E0.02803 ; skirt
G1 X130.320 Y111.131 E0.02798 ; skirt
G1 X129.534 Y111.638 E0.02932 ; skirt
G1 X128.744 Y111.929 E0.02637 ; skirt
G1 X127.930 Y112.050 E0.02582 ; skirt
G1 X123.229 Y112.054 E0.14740 ; skirt
G1 X122.537 Y111.989 E0.02177 ; skirt
G1 X121.640 Y111.716 E0.02943 ; skirt
G1 X120.819 Y111.236 E0.02979 ; skirt
G1 X120.133 Y110.579 E0.02980 ; skirt
G1 X119.621 Y109.784 E0.02963 ; skirt
G1 X119.373 Y109.147 E0.02146 ; skirt
G1 X118.285 Y105.301 E0.12531 ; skirt
G1 X118.202 Y104.376 E0.02912 ; skirt
G1 X118.337 Y103.439 E0.02968 ; skirt
G1 X119.619 Y99.961 E0.11622 ; skirt
G1 X120.065 Y99.208 E0.02745 ; skirt
G1 X120.357 Y99.434 F7200.000 ; move to first skirt point
G1 F1490
G1 X120.847 Y98.940 E0.02184 ; skirt
G1 X121.434 Y98.582 E0.02155 ; skirt
G1 X122.092 Y98.373 E0.02164 ; skirt
G1 X122.785 Y98.323 E0.02177 ; skirt
G1 X123.642 Y98.455 E0.02721 ; skirt
G1 X124.415 Y98.832 E0.02694 ; skirt
G1 X129.869 Y102.717 E0.20997 ; skirt
G1 X130.421 Y103.262 E0.02432 ; skirt
G1 X130.844 Y103.906 E0.02414 ; skirt
G1 X131.092 Y104.516 E0.02065 ; skirt
G1 X131.233 Y105.200 E0.02191 ; skirt
G1 X131.419 Y107.864 E0.08372 ; skirt
G1 X131.361 Y108.667 E0.02524 ; skirt
G1 X131.116 Y109.468 E0.02628 ; skirt
G1 X130.708 Y110.177 E0.02565 ; skirt
G1 X130.130 Y110.798 E0.02659 ; skirt
G1 X129.444 Y111.261 E0.02594 ; skirt
G1 X128.736 Y111.541 E0.02387 ; skirt
G1 X127.965 Y111.670 E0.02454 ; skirt
G1 X122.653 Y111.626 E0.16653 ; skirt
G1 X121.819 Y111.382 E0.02726 ; skirt
G1 X121.081 Y110.960 E0.02666 ; skirt
G1 X120.479 Y110.403 E0.02572 ; skirt
G1 X119.998 Y109.694 E0.02687 ; skirt
G1 X119.736 Y109.045 E0.02194 ; skirt
G1 X118.661 Y105.258 E0.12342 ; skirt
G1 X118.578 Y104.424 E0.02627 ; skirt
G1 X118.679 Y103.625 E0.02526 ; skirt
G1 X119.959 Y100.127 E0.11680 ; skirt
G1 X120.327 Y99.486 E0.02316 ; skirt
G1 F5760
G1 X120.847 Y98.940 E-0.26135 ; wipe and retract
G1 F5760
G1 X121.434 Y98.582 E-0.23807 ; wipe and retract
G1 F5760
G1 X122.092 Y98.373 E-0.23902 ; wipe and retract
G1 F5760
G1 X122.154 Y98.369 E-0.02156 ; wipe and retract
G1 E-0.04000 F2100.00000 ; retract
G1 Z0.800 F7200.000 ; lift Z
G1 X121.972 Y106.082 F7200.000 ; move to first perimeter point
G1 Z0.200 F7200.000 ; restore layer Z
G1 E0.80000 F2100.00000 ; unretract
G1 F1490
G1 X122.059 Y106.124 E0.00305 ; perimeter
G1 X122.695 Y106.760 E0.02821 ; perimeter
G1 X122.700 Y107.673 E0.02861 ; perimeter
G1 X122.786 Y108.044 E0.01195 ; perimeter
G1 X122.959 Y108.385 E0.01200 ; perimeter
G1 X123.180 Y108.648 E0.01075 ; perimeter
G1 X123.262 Y108.710 E0.00323 ; perimeter
G1 X123.043 Y108.675 E0.00694 ; perimeter
G1 X122.919 Y108.621 E0.00423 ; perimeter
G1 X122.779 Y108.519 E0.00543 ; perimeter
G1 X122.623 Y108.313 E0.00813 ; perimeter
G1 X121.988 Y106.139 E0.07100 ; perimeter
G1 F5760
G1 X122.059 Y106.124 E-0.02512 ; wipe and retract
G1 F5760
G1 X122.695 Y106.760 E-0.31158 ; wipe and retract
G1 F5760
G1 X122.700 Y107.673 E-0.31608 ; wipe and retract
G1 F5760
G1 X122.769 Y107.974 E-0.10721 ; wipe and retract
G1 E-0.04000 F2100.00000 ; retract
G1 Z0.800 F7200.000 ; lift Z
G1 X122.117 Y102.818 F7200.000 ; move to first perimeter point
G1 Z0.200 F7200.000 ; restore layer Z
G1 E0.80000 F2100.00000 ; unretract
G1 F1490
G1 X122.694 Y101.289 E0.05127 ; perimeter
G1 X122.694 Y102.241 E0.02986 ; perimeter
G1 X122.159 Y102.776 E0.02372 ; perimeter
G1 F5760
G1 X122.694 Y101.289 E-0.54746 ; wipe and retract
G1 F5760
G1 X122.694 Y101.902 E-0.21254 ; wipe and retract
G1 E-0.04000 F2100.00000 ; retract
G1 Z0.800 F7200.000 ; lift Z
G1 X125.714 Y103.616 F7200.000 ; move to first perimeter point
G1 Z0.200 F7200.000 ; restore layer Z
G1 E0.80000 F2100.00000 ; unretract
G1 F1490
G1 X125.735 Y103.529 E0.00279 ; perimeter
G1 X127.963 Y104.994 E0.08360 ; perimeter
G1 X128.125 Y105.146 E0.00698 ; perimeter
G1 X128.233 Y105.323 E0.00650 ; perimeter
G1 X128.269 Y105.428 E0.00347 ; perimeter
G1 X128.293 Y105.643 E0.00677 ; perimeter
G1 X128.198 Y105.569 E0.00377 ; perimeter
G1 X127.958 Y105.466 E0.00821 ; perimeter
G1 X125.755 Y104.935 E0.07103 ; perimeter
G1 X125.689 Y104.901 E0.00235 ; perimeter
G1 X125.619 Y104.846 E0.00278 ; perimeter
G1 X125.541 Y104.732 E0.00434 ; perimeter
G1 X125.508 Y104.615 E0.00380 ; perimeter
G1 X125.507 Y104.494 E0.00380 ; perimeter
G1 X125.701 Y103.674 E0.02641 ; perimeter
G1 X125.459 Y103.196 F7200.000 ; move to first perimeter point
G1 F1800
G1 X125.537 Y103.134 E0.00312 ; perimeter
G1 X125.631 Y103.102 E0.00312 ; perimeter
G1 X125.729 Y103.104 E0.00306 ; perimeter
G1 X125.851 Y103.154 E0.00413 ; perimeter
G1 X128.197 Y104.697 E0.08804 ; perimeter
G1 X128.421 Y104.906 E0.00961 ; perimeter
G1 X128.577 Y105.163 E0.00944 ; perimeter
G1 X128.635 Y105.335 E0.00570 ; perimeter
G1 X128.661 Y105.483 E0.00469 ; perimeter
G1 X128.831 Y108.079 E0.08159 ; perimeter
G1 X128.792 Y108.298 E0.00698 ; perimeter
G1 X128.687 Y108.546 E0.00843 ; perimeter
G1 X128.555 Y108.727 E0.00702 ; perimeter
G1 X128.349 Y108.906 E0.00855 ; perimeter
G1 X128.222 Y108.979 E0.00459 ; perimeter
G1 X127.934 Y109.073 E0.00951 ; perimeter
G1 X127.779 Y109.089 E0.00488 ; perimeter
G1 X123.193 Y109.087 E0.14380 ; perimeter
G1 X122.932 Y109.038 E0.00832 ; perimeter
G1 X122.731 Y108.951 E0.00686 ; perimeter
G1 X122.521 Y108.798 E0.00816 ; perimeter
G1 X122.350 Y108.597 E0.00828 ; perimeter
G1 X122.281 Y108.474 E0.00442 ; perimeter
G1 X122.211 Y108.291 E0.00614 ; perimeter
G1 X121.209 Y104.787 E0.11426 ; perimeter
G1 X121.173 Y104.601 E0.00594 ; perimeter
G1 X121.171 Y104.385 E0.00680 ; perimeter
G1 X121.239 Y104.084 E0.00967 ; perimeter
G1 X122.367 Y101.078 E0.10065 ; perimeter
G1 X122.430 Y100.993 E0.00334 ; perimeter
G1 X122.513 Y100.937 E0.00316 ; perimeter
G1 X122.604 Y100.912 E0.00295 ; perimeter
G1 X122.779 Y100.911 E0.00548 ; perimeter
G1 X122.879 Y100.930 E0.00319 ; perimeter
G1 X122.958 Y100.973 E0.00282 ; perimeter
G1 X123.019 Y101.039 E0.00282 ; perimeter
G1 X123.058 Y101.122 E0.00288 ; perimeter
G1 X123.071 Y102.397 E0.03997 ; perimeter
G1 X122.285 Y103.183 E0.03486 ; perimeter
G1 X122.127 Y103.250 E0.00537 ; perimeter
G1 X121.954 Y103.357 E0.00638 ; perimeter
G1 X121.680 Y103.617 E0.01185 ; perimeter
G1 X121.522 Y103.864 E0.00921 ; perimeter
G1 X121.431 Y104.092 E0.00769 ; perimeter
G1 X121.380 Y104.332 E0.00769 ; perimeter
G1 X121.375 Y104.618 E0.00898 ; perimeter
G1 X121.406 Y104.816 E0.00628 ; perimeter
G1 X121.480 Y105.046 E0.00757 ; perimeter
G1 X121.593 Y105.261 E0.00763 ; perimeter
G1 X121.744 Y105.457 E0.00774 ; perimeter
G1 X122.001 Y105.677 E0.01060 ; perimeter
G1 X122.281 Y105.813 E0.00976 ; perimeter
G1 X123.072 Y106.603 E0.03505 ; perimeter
G1 X123.077 Y107.629 E0.03216 ; perimeter
G1 X123.143 Y107.914 E0.00918 ; perimeter
G1 X123.276 Y108.176 E0.00920 ; perimeter
G1 X123.441 Y108.373 E0.00805 ; perimeter
G1 X123.675 Y108.549 E0.00920 ; perimeter
G1 X123.947 Y108.665 E0.00926 ; perimeter
G1 X124.230 Y108.709 E0.00897 ; perimeter
G1 X127.800 Y108.709 E0.11195 ; perimeter
G1 X127.967 Y108.676 E0.00532 ; perimeter
G1 X128.143 Y108.590 E0.00616 ; perimeter
G1 X128.290 Y108.458 E0.00621 ; perimeter
G1 X128.393 Y108.293 E0.00610 ; perimeter
G1 X128.441 Y108.146 E0.00484 ; perimeter
G1 X128.455 Y107.984 E0.00509 ; perimeter
G1 X128.346 Y106.419 E0.04919 ; perimeter
G1 X128.284 Y106.199 E0.00717 ; perimeter
G1 X128.146 Y106.006 E0.00746 ; perimeter
G1 X128.005 Y105.897 E0.00557 ; perimeter
G1 X127.839 Y105.825 E0.00569 ; perimeter
G1 X125.624 Y105.291 E0.07143 ; perimeter
G1 X125.483 Y105.220 E0.00496 ; perimeter
G1 X125.356 Y105.118 E0.00510 ; perimeter
G1 X125.271 Y105.018 E0.00412 ; perimeter
G1 X125.191 Y104.879 E0.00500 ; perimeter
G1 X125.131 Y104.670 E0.00684 ; perimeter
G1 X125.130 Y104.451 E0.00684 ; perimeter
G1 X125.405 Y103.284 E0.03760 ; perimeter
G1 X125.428 Y103.247 E0.00136 ; perimeter
G1 X125.557 Y103.212 F7200.000 ; move inwards before travel
G1 F5760
G1 X125.537 Y103.134 E-0.05449 ; wipe and retract
G1 F5760
G1 X125.631 Y103.102 E-0.03449 ; wipe and retract
G1 F5760
G1 X125.729 Y103.104 E-0.03384 ; wipe and retract
G1 F5760
G1 X125.851 Y103.154 E-0.04558 ; wipe and retract
G1 F5760
G1 X127.278 Y104.092 E-0.59160 ; wipe and retract
G1 E-0.04000 F2100.00000 ; retract
G1 Z0.800 F7200.000 ; lift Z
G1 X126.094 Y104.901 F7200.000 ; move to first infill point
G1 Z0.200 F7200.000 ; restore layer Z
G1 E0.80000 F2100.00000 ; unretract
G1 F1490
G1 X125.799 Y104.606 E0.01402 ; infill
G1 X125.790 Y104.575 E0.00108 ; infill
G1 X125.886 Y104.121 E0.01557 ; infill
G1 X126.847 Y105.082 E0.04565 ; infill
G1 X127.257 Y104.943 F7200.000 ; move to first infill point
G1 F1490
G1 X127.596 Y105.089 E0.00561 ; infill
G1 F1490
G1 X127.934 Y105.236 E0.00312 ; infill
G1 X128.386 Y105.981 F7200.000 ; move to first infill point
G1 F1490
G1 X128.471 Y106.069 E0.00015 ; infill
G1 X128.494 Y106.168 E0.00012 ; infill
G1 F5760
G1 X128.471 Y106.069 E-0.03495 ; wipe and retract
G1 F5760
G1 X128.386 Y105.981 E-0.04242 ; wipe and retract
G1 E-0.72263 F2100.00000 ; retract
G1 Z0.800 F7200.000 ; lift Z
G1 X123.925 Y108.876 F7200.000 ; move to first infill point
G1 Z0.200 F7200.000 ; restore layer Z
G1 E0.80000 F2100.00000 ; unretract
G1 F1490
G1 X123.428 Y108.807 E0.00037 ; infill
G1 X123.481 Y108.650 F7200.000 ; move to first infill point
G1 F1490
G1 X123.534 Y108.800 E0.00203 ; infill
G1 X123.924 Y108.889 E0.00511 ; infill
G1 F5760
G1 X123.534 Y108.800 E-0.13855 ; wipe and retract
G1 F5760
G1 X123.481 Y108.650 E-0.05518 ; wipe and retract
G1 E-0.60627 F2100.00000 ; retract
G1 Z0.800 F7200.000 ; lift Z
G1 X122.487 Y107.118 F7200.000 ; move to first infill point
G1 Z0.200 F7200.000 ; restore layer Z
G1 E0.80000 F2100.00000 ; unretract
G1 F1490
G1 X122.437 Y106.769 E0.00115 ; infill
G1 F5760
G1 X122.487 Y107.118 E-0.12233 ; wipe and retract
G1 E-0.67767 F2100.00000 ; retract
G1 Z0.800 F7200.000 ; lift Z
G1 X121.780 Y103.235 F7200.000 ; move to first infill point
G1 Z0.200 F7200.000 ; restore layer Z
G1 E0.80000 F2100.00000 ; unretract
G1 F1490
G1 X121.982 Y102.956 E0.00084 ; infill
G1 X122.117 Y103.043 F7200.000 ; move to first infill point
G1 F1490
G1 X121.836 Y103.029 E0.00142 ; infill
M106 S255 ; enable fan
;BEFORE_LAYER_CHANGE
;0.35


G1 F5760
G1 X122.117 Y103.043 E-0.09735 ; wipe and retract
G1 E-0.70265 F2100.00000 ; retract
G1 Z0.800 F7200.000 ; lift Z
;AFTER_LAYER_CHANGE
;0.35
M104 S210 ; set temperature
G1 X119.850 Y98.861 F7200.000 ; move to first skirt point
G1 Z0.350 F7200.000 ; restore layer Z
G1 E0.80000 F2100.00000 ; unretract
G1 F900
G1 X120.443 Y98.300 E0.01975 ; skirt
G1 X121.163 Y97.877 E0.02018 ; skirt
G1 X121.958 Y97.631 E0.02012 ; skirt
G1 X122.785 Y97.569 E0.02008 ; skirt
G1 X123.873 Y97.737 E0.02661 ; skirt
G1 X124.849 Y98.215 E0.02629 ; skirt
G1 X130.372 Y102.155 E0.16408 ; skirt
G1 X131.073 Y102.871 E0.02423 ; skirt
G1 X131.577 Y103.687 E0.02321 ; skirt
G1 X131.846 Y104.406 E0.01857 ; skirt
G1 X131.988 Y105.174 E0.01889 ; skirt
G1 X132.175 Y107.898 E0.06603 ; skirt
G1 X132.058 Y109.017 E0.02721 ; skirt
G1 X131.730 Y109.937 E0.02362 ; skirt
G1 X131.209 Y110.763 E0.02361 ; skirt
G1 X130.498 Y111.472 E0.02429 ; skirt
G1 X129.663 Y111.994 E0.02382 ; skirt
G1 X128.823 Y112.298 E0.02161 ; skirt
G1 X127.945 Y112.427 E0.02147 ; skirt
G1 X123.213 Y112.431 E0.11443 ; skirt
G1 X122.387 Y112.344 E0.02011 ; skirt
G1 X121.409 Y112.025 E0.02486 ; skirt
G1 X120.557 Y111.510 E0.02409 ; skirt
G1 X119.825 Y110.797 E0.02472 ; skirt
G1 X119.265 Y109.913 E0.02530 ; skirt
G1 X119.010 Y109.247 E0.01725 ; skirt
G1 X117.899 Y105.293 E0.09933 ; skirt
G1 X117.830 Y104.255 E0.02515 ; skirt
G1 X117.999 Y103.246 E0.02475 ; skirt
G1 X119.281 Y99.792 E0.08911 ; skirt
G1 X119.819 Y98.912 E0.02494 ; skirt
G1 F5760
G1 X120.443 Y98.300 E-0.30289 ; wipe and retract
G1 F5760
G1 X121.163 Y97.877 E-0.28898 ; wipe and retract
G1 F5760
G1 X121.626 Y97.734 E-0.16814 ; wipe and retract
G1 E-0.04000 F2100.00000 ; retract
G1 Z0.950 F7200.000 ; lift Z
G1 X121.950 Y105.913 F7200.000 ; move to first perimeter point
G1 Z0.350 F7200.000 ; restore layer Z
G1 E0.80000 F2100.00000 ; unretract
M204 S800 ; adjust acceleration
G1 F900
G1 X122.130 Y105.994 E0.00513 ; perimeter
G1 X122.669 Y106.533 E0.01988 ; perimeter
G1 X122.674 Y107.676 E0.02977 ; perimeter
G1 X122.761 Y108.053 E0.01010 ; perimeter
G1 X122.938 Y108.400 E0.01013 ; perimeter
G1 X123.170 Y108.673 E0.00934 ; perimeter
G1 X123.051 Y108.650 E0.00316 ; perimeter
G1 X122.932 Y108.599 E0.00336 ; perimeter
G1 X122.797 Y108.500 E0.00436 ; perimeter
G1 X122.646 Y108.302 E0.00650 ; perimeter
G1 X121.967 Y105.970 E0.06328 ; perimeter
M204 S1000 ; adjust acceleration
G1 F5760
G1 X122.130 Y105.994 E-0.05711 ; wipe and retract
G1 F5760
G1 X122.669 Y106.533 E-0.26421 ; wipe and retract
G1 F5760
G1 X122.674 Y107.676 E-0.39575 ; wipe and retract
G1 F5760
G1 X122.702 Y107.796 E-0.04293 ; wipe and retract
G1 E-0.04000 F2100.00000 ; retract
G1 Z0.950 F7200.000 ; lift Z
G1 X122.060 Y103.041 F7200.000 ; move to first perimeter point
G1 Z0.350 F7200.000 ; restore layer Z
G1 E0.80000 F2100.00000 ; unretract
M204 S800 ; adjust acceleration
G1 F900
G1 X122.668 Y101.421 E0.04509 ; perimeter
G1 X122.668 Y102.468 E0.02728 ; perimeter
