; generated by Slic3r 1.37.2.1-prusa3d on 2018-09-03 at 18:48:23

; 

; external perimeters extrusion width = 0.42mm
; perimeters extrusion width = 0.45mm
; infill extrusion width = 0.45mm
; solid infill extrusion width = 0.45mm
; top infill extrusion width = 0.42mm
; first layer extrusion width = 0.42mm

M107 ; disable fan
M115 U3.1.0 ; tell printer latest fw version
M83  ; extruder relative mode
M104 S215 ; set extruder temp
M140 S55 ; set bed temp
M190 S55 ; wait for bed temp
M109 S215 ; wait for extruder temp
G28 W ; home all without mesh bed level
G80 ; mesh bed leveling
G1 Y-3.0 F1000.0 ; go outside pritn area
G1 X60.0 E9.0  F1000.0 ; intro line
G1 X100.0 E12.5  F1000.0 ; intro line
G92 E0.0
M900 K30
G21 ; set units to millimeters
G90 ; use absolute coordinates
M83 ; use relative distances for extrusion
;BEFORE_LAYER_CHANGE
;0.2


G1 E-0.80000 F2100.00000 ; retract
G1 Z0.600 F7200.000 ; lift Z
;AFTER_LAYER_CHANGE
;0.2
G1 X112.335 Y91.064 F7200.000 ; move to first skirt point
G1 Z0.200 F7200.000 ; restore layer Z
G1 E0.80000 F2100.00000 ; unretract
M204 S1000 ; adjust acceleration
G1 F1800
G1 X112.921 Y90.517 E0.02514 ; skirt
G1 X113.618 Y90.131 E0.02498 ; skirt
G1 X114.396 Y89.925 E0.02522 ; skirt
G1 X125.580 Y89.896 E0.35068 ; skirt
G1 X126.461 Y90.018 E0.02788 ; skirt
G1 X127.273 Y90.373 E0.02779 ; skirt
G1 X132.738 Y94.251 E0.21011 ; skirt
G1 X133.597 Y95.086 E0.03756 ; skirt
G1 X134.173 Y96.134 E0.03750 ; skirt
G1 X134.402 Y97.107 E0.03133 ; skirt
G1 X134.594 Y99.944 E0.08917 ; skirt
G1 X134.592 Y111.180 E0.35228 ; skirt
G1 X134.477 Y112.019 E0.02655 ; skirt
G1 X134.195 Y112.803 E0.02613 ; skirt
G1 X133.633 Y113.670 E0.03240 ; skirt
G1 X132.848 Y114.382 E0.03323 ; skirt
G1 X131.934 Y114.857 E0.03232 ; skirt
G1 X130.931 Y115.085 E0.03223 ; skirt
G1 X115.365 Y115.103 E0.48807 ; skirt
G1 X114.522 Y114.992 E0.02666 ; skirt
G1 X113.726 Y114.711 E0.02647 ; skirt
G1 X113.136 Y114.367 E0.02140 ; skirt
G1 X112.610 Y113.927 E0.02152 ; skirt
G1 X112.165 Y113.403 E0.02154 ; skirt
G1 X111.816 Y112.812 E0.02153 ; skirt
G1 X111.580 Y112.204 E0.02044 ; skirt
G1 X110.559 Y108.631 E0.11652 ; skirt
G1 X110.419 Y107.848 E0.02495 ; skirt
G1 X110.423 Y96.063 E0.36953 ; skirt
G1 X110.621 Y95.127 E0.02999 ; skirt
G1 X111.899 Y91.742 E0.11346 ; skirt
G1 X112.303 Y91.115 E0.02337 ; skirt
G1 X112.618 Y91.321 F7200.000 ; move to first skirt point
G1 F1800
G1 X113.163 Y90.807 E0.02349 ; skirt
G1 X113.790 Y90.469 E0.02234 ; skirt
G1 X114.496 Y90.293 E0.02281 ; skirt
G1 X125.580 Y90.273 E0.34752 ; skirt
G1 X126.365 Y90.383 E0.02485 ; skirt
G1 X127.091 Y90.704 E0.02489 ; skirt
G1 X132.521 Y94.559 E0.20882 ; skirt
G1 X133.301 Y95.320 E0.03415 ; skirt
G1 X133.825 Y96.281 E0.03433 ; skirt
G1 X134.028 Y97.154 E0.02809 ; skirt
G1 X134.217 Y99.944 E0.08768 ; skirt
G1 X134.215 Y111.163 E0.35176 ; skirt
G1 X134.110 Y111.932 E0.02433 ; skirt
G1 X133.847 Y112.656 E0.02416 ; skirt
G1 X133.336 Y113.438 E0.02930 ; skirt
G1 X132.610 Y114.089 E0.03056 ; skirt
G1 X131.776 Y114.513 E0.02934 ; skirt
G1 X130.835 Y114.715 E0.03017 ; skirt
G1 X115.376 Y114.726 E0.48472 ; skirt
G1 X114.607 Y114.625 E0.02432 ; skirt
G1 X113.874 Y114.364 E0.02437 ; skirt
G1 X113.347 Y114.055 E0.01917 ; skirt
G1 X112.865 Y113.649 E0.01976 ; skirt
G1 X112.464 Y113.172 E0.01954 ; skirt
G1 X112.144 Y112.625 E0.01988 ; skirt
G1 X110.922 Y108.529 E0.13403 ; skirt
G1 X110.793 Y107.801 E0.02318 ; skirt
G1 X110.798 Y96.098 E0.36694 ; skirt
G1 X110.980 Y95.241 E0.02744 ; skirt
G1 X112.246 Y91.890 E0.11233 ; skirt
G1 X112.585 Y91.371 E0.01944 ; skirt
G1 F5760
G1 X113.163 Y90.807 E-0.27968 ; wipe and retract
G1 F5760
G1 X113.790 Y90.469 E-0.24678 ; wipe and retract
G1 F5760
G1 X114.445 Y90.306 E-0.23354 ; wipe and retract
G1 E-0.04000 F2100.00000 ; retract
G1 Z0.800 F7200.000 ; lift Z
G1 X114.177 Y98.032 F7200.000 ; move to first perimeter point
G1 Z0.200 F7200.000 ; restore layer Z
G1 E0.80000 F2100.00000 ; unretract
G1 F1800
G1 X114.264 Y98.074 E0.00305 ; perimeter
G1 X114.900 Y98.710 E0.02821 ; perimeter
G1 X114.905 Y99.623 E0.02861 ; perimeter
G1 X114.991 Y99.994 E0.01195 ; perimeter
G1 X115.164 Y100.335 E0.01200 ; perimeter
G1 X115.385 Y100.598 E0.01075 ; perimeter
G1 X115.467 Y100.660 E0.00323 ; perimeter
G1 X115.249 Y100.625 E0.00694 ; perimeter
G1 X115.125 Y100.571 E0.00423 ; perimeter
G1 X114.984 Y100.469 E0.00543 ; perimeter
G1 X114.828 Y100.263 E0.00813 ; perimeter
G1 X114.193 Y98.089 E0.07100 ; perimeter
G1 F5760
G1 X114.264 Y98.074 E-0.02512 ; wipe and retract
G1 F5760
G1 X114.900 Y98.710 E-0.31158 ; wipe and retract
G1 F5760
G1 X114.905 Y99.623 E-0.31608 ; wipe and retract
G1 F5760
G1 X114.975 Y99.924 E-0.10721 ; wipe and retract
G1 E-0.04000 F2100.00000 ; retract
G1 Z0.800 F7200.000 ; lift Z
G1 X114.322 Y94.768 F7200.000 ; move to first perimeter point
G1 Z0.200 F7200.000 ; restore layer Z
G1 E0.80000 F2100.00000 ; unretract
G1 F1800
G1 X114.899 Y93.239 E0.05127 ; perimeter
G1 X114.899 Y94.191 E0.02986 ; perimeter
G1 X114.364 Y94.726 E0.02372 ; perimeter
G1 F5760
G1 X114.899 Y93.239 E-0.54746 ; wipe and retract
G1 F5760
G1 X114.899 Y93.852 E-0.21254 ; wipe and retract
G1 E-0.04000 F2100.00000 ; retract
G1 Z0.800 F7200.000 ; lift Z
G1 X117.920 Y95.566 F7200.000 ; move to first perimeter point
G1 Z0.200 F7200.000 ; restore layer Z
G1 E0.80000 F2100.00000 ; unretract
G1 F1800
G1 X117.940 Y95.479 E0.00279 ; perimeter
G1 X120.168 Y96.944 E0.08360 ; perimeter
G1 X120.330 Y97.096 E0.00698 ; perimeter
G1 X120.438 Y97.273 E0.00650 ; perimeter
G1 X120.474 Y97.378 E0.00347 ; perimeter
G1 X120.498 Y97.593 E0.00677 ; perimeter
G1 X120.404 Y97.519 E0.00377 ; perimeter
G1 X120.163 Y97.416 E0.00821 ; perimeter
G1 X117.960 Y96.885 E0.07103 ; perimeter
G1 X117.894 Y96.851 E0.00235 ; perimeter
G1 X117.825 Y96.796 E0.00278 ; perimeter
G1 X117.746 Y96.682 E0.00434 ; perimeter
G1 X117.713 Y96.565 E0.00380 ; perimeter
G1 X117.712 Y96.444 E0.00380 ; perimeter
G1 X117.906 Y95.624 E0.02641 ; perimeter
G1 X117.664 Y95.146 F7200.000 ; move to first perimeter point
G1 F1800
G1 X117.742 Y95.084 E0.00312 ; perimeter
G1 X117.836 Y95.052 E0.00312 ; perimeter
G1 X117.934 Y95.054 E0.00306 ; perimeter
G1 X118.056 Y95.104 E0.00413 ; perimeter
G1 X120.402 Y96.647 E0.08804 ; perimeter
G1 X120.626 Y96.856 E0.00961 ; perimeter
G1 X120.782 Y97.113 E0.00944 ; perimeter
G1 X120.840 Y97.285 E0.00570 ; perimeter
G1 X120.866 Y97.433 E0.00469 ; perimeter
G1 X121.036 Y100.029 E0.08159 ; perimeter
G1 X120.997 Y100.248 E0.00698 ; perimeter
G1 X120.892 Y100.496 E0.00843 ; perimeter
G1 X120.760 Y100.677 E0.00702 ; perimeter
G1 X120.554 Y100.856 E0.00855 ; perimeter
G1 X120.428 Y100.929 E0.00459 ; perimeter
G1 X120.139 Y101.023 E0.00951 ; perimeter
G1 X119.984 Y101.039 E0.00488 ; perimeter
G1 X115.398 Y101.037 E0.14380 ; perimeter
G1 X115.137 Y100.988 E0.00832 ; perimeter
G1 X114.937 Y100.901 E0.00686 ; perimeter
G1 X114.726 Y100.748 E0.00816 ; perimeter
G1 X114.555 Y100.546 E0.00828 ; perimeter
G1 X114.486 Y100.424 E0.00442 ; perimeter
G1 X114.416 Y100.241 E0.00614 ; perimeter
G1 X113.415 Y96.737 E0.11426 ; perimeter
G1 X113.378 Y96.551 E0.00594 ; perimeter
G1 X113.376 Y96.335 E0.00680 ; perimeter
G1 X113.444 Y96.034 E0.00967 ; perimeter
G1 X114.572 Y93.028 E0.10065 ; perimeter
G1 X114.635 Y92.943 E0.00334 ; perimeter
G1 X114.719 Y92.887 E0.00316 ; perimeter
G1 X114.809 Y92.862 E0.00295 ; perimeter
G1 X114.984 Y92.861 E0.00548 ; perimeter
G1 X115.084 Y92.880 E0.00319 ; perimeter
G1 X115.163 Y92.923 E0.00282 ; perimeter
G1 X115.224 Y92.989 E0.00282 ; perimeter
G1 X115.263 Y93.072 E0.00288 ; perimeter
G1 X115.276 Y94.347 E0.03997 ; perimeter
G1 X114.490 Y95.133 E0.03486 ; perimeter
G1 X114.332 Y95.200 E0.00537 ; perimeter
G1 X114.159 Y95.307 E0.00638 ; perimeter
G1 X113.885 Y95.567 E0.01185 ; perimeter
G1 X113.727 Y95.814 E0.00921 ; perimeter
G1 X113.636 Y96.042 E0.00769 ; perimeter
G1 X113.585 Y96.282 E0.00769 ; perimeter
G1 X113.580 Y96.568 E0.00898 ; perimeter
G1 X113.611 Y96.766 E0.00628 ; perimeter
G1 X113.685 Y96.996 E0.00757 ; perimeter
G1 X113.798 Y97.211 E0.00763 ; perimeter
G1 X113.949 Y97.407 E0.00774 ; perimeter
G1 X114.206 Y97.627 E0.01060 ; perimeter
G1 X114.486 Y97.763 E0.00976 ; perimeter
G1 X115.277 Y98.553 E0.03505 ; perimeter
G1 X115.282 Y99.579 E0.03216 ; perimeter
G1 X115.348 Y99.864 E0.00918 ; perimeter
G1 X115.481 Y100.126 E0.00920 ; perimeter
G1 X115.646 Y100.323 E0.00805 ; perimeter
G1 X115.880 Y100.499 E0.00920 ; perimeter
G1 X116.152 Y100.615 E0.00926 ; perimeter
G1 X116.435 Y100.659 E0.00897 ; perimeter
G1 X120.005 Y100.659 E0.11195 ; perimeter
G1 X120.172 Y100.626 E0.00532 ; perimeter
G1 X120.348 Y100.540 E0.00616 ; perimeter
G1 X120.495 Y100.408 E0.00621 ; perimeter
G1 X120.599 Y100.243 E0.00610 ; perimeter
G1 X120.646 Y100.096 E0.00484 ; perimeter
G1 X120.660 Y99.934 E0.00509 ; perimeter
G1 X120.551 Y98.369 E0.04919 ; perimeter
G1 X120.489 Y98.149 E0.00717 ; perimeter
G1 X120.351 Y97.956 E0.00746 ; perimeter
G1 X120.211 Y97.847 E0.00557 ; perimeter
G1 X120.044 Y97.775 E0.00569 ; perimeter
G1 X117.829 Y97.241 E0.07143 ; perimeter
G1 X117.688 Y97.170 E0.00496 ; perimeter
G1 X117.561 Y97.068 E0.00510 ; perimeter
G1 X117.476 Y96.968 E0.00412 ; perimeter
G1 X117.397 Y96.829 E0.00500 ; perimeter
G1 X117.336 Y96.620 E0.00684 ; perimeter
G1 X117.335 Y96.401 E0.00684 ; perimeter
G1 X117.610 Y95.234 E0.03760 ; perimeter
G1 X117.633 Y95.197 E0.00136 ; perimeter
G1 X117.762 Y95.162 F7200.000 ; move inwards before travel
G1 F5760
G1 X117.742 Y95.084 E-0.05449 ; wipe and retract
G1 F5760
G1 X117.836 Y95.052 E-0.03449 ; wipe and retract
G1 F5760
G1 X117.934 Y95.054 E-0.03384 ; wipe and retract
G1 F5760
G1 X118.056 Y95.104 E-0.04558 ; wipe and retract
G1 F5760
G1 X119.483 Y96.042 E-0.59160 ; wipe and retract
G1 E-0.04000 F2100.00000 ; retract
G1 Z0.800 F7200.000 ; lift Z
G1 X118.300 Y96.851 F7200.000 ; move to first infill point
G1 Z0.200 F7200.000 ; restore layer Z
G1 E0.80000 F2100.00000 ; unretract
G1 F1800
G1 X118.004 Y96.556 E0.01402 ; infill
G1 X117.995 Y96.525 E0.00108 ; infill
G1 X118.091 Y96.071 E0.01557 ; infill
G1 X119.052 Y97.032 E0.04565 ; infill
G1 X119.463 Y96.893 F7200.000 ; move to first infill point
G1 F1800
G1 X119.801 Y97.039 E0.00561 ; infill
G1 F1800
G1 X120.139 Y97.186 E0.00312 ; infill
G1 X120.591 Y97.931 F7200.000 ; move to first infill point
G1 F1800
G1 X120.676 Y98.019 E0.00015 ; infill
G1 X120.699 Y98.118 E0.00012 ; infill
G1 F5760
G1 X120.676 Y98.019 E-0.03495 ; wipe and retract
G1 F5760
G1 X120.591 Y97.931 E-0.04242 ; wipe and retract
G1 E-0.72263 F2100.00000 ; retract
G1 Z0.800 F7200.000 ; lift Z
G1 X116.130 Y100.826 F7200.000 ; move to first infill point
G1 Z0.200 F7200.000 ; restore layer Z
G1 E0.80000 F2100.00000 ; unretract
G1 F1800
G1 X115.633 Y100.757 E0.00037 ; infill
G1 X115.686 Y100.600 F7200.000 ; move to first infill point
G1 F1800
G1 X115.739 Y100.750 E0.00203 ; infill
G1 X116.129 Y100.839 E0.00511 ; infill
G1 F5760
G1 X115.739 Y100.750 E-0.13855 ; wipe and retract
G1 F5760
G1 X115.686 Y100.600 E-0.05518 ; wipe and retract
G1 E-0.60627 F2100.00000 ; retract
G1 Z0.800 F7200.000 ; lift Z
G1 X114.692 Y99.068 F7200.000 ; move to first infill point
G1 Z0.200 F7200.000 ; restore layer Z
G1 E0.80000 F2100.00000 ; unretract
G1 F1800
G1 X114.642 Y98.719 E0.00115 ; infill
G1 F5760
G1 X114.692 Y99.068 E-0.12233 ; wipe and retract
G1 E-0.67767 F2100.00000 ; retract
G1 Z0.800 F7200.000 ; lift Z
G1 X113.985 Y95.185 F7200.000 ; move to first infill point
G1 Z0.200 F7200.000 ; restore layer Z
G1 E0.80000 F2100.00000 ; unretract
G1 F1800
G1 X114.187 Y94.906 E0.00084 ; infill
G1 X114.322 Y94.993 F7200.000 ; move to first infill point
G1 F1800
G1 X114.041 Y94.979 E0.00142 ; infill
G1 F5760
G1 X114.322 Y94.993 E-0.09735 ; wipe and retract
G1 E-0.70265 F2100.00000 ; retract
G1 Z0.800 F7200.000 ; lift Z
G1 X114.177 Y109.132 F7200.000 ; move to first perimeter point
G1 Z0.200 F7200.000 ; restore layer Z
G1 E0.80000 F2100.00000 ; unretract
G1 F1800
G1 X114.264 Y109.174 E0.00305 ; perimeter
G1 X114.900 Y109.810 E0.02821 ; perimeter
G1 X114.905 Y110.723 E0.02861 ; perimeter
G1 X114.991 Y111.094 E0.01195 ; perimeter
G1 X115.164 Y111.435 E0.01200 ; perimeter
G1 X115.385 Y111.698 E0.01075 ; perimeter
G1 X115.467 Y111.760 E0.00323 ; perimeter
G1 X115.249 Y111.725 E0.00694 ; perimeter
G1 X115.125 Y111.671 E0.00423 ; perimeter
G1 X114.984 Y111.569 E0.00543 ; perimeter
G1 X114.828 Y111.363 E0.00813 ; perimeter
G1 X114.193 Y109.189 E0.07100 ; perimeter
G1 F5760
G1 X114.264 Y109.174 E-0.02512 ; wipe and retract
G1 F5760
G1 X114.900 Y109.810 E-0.31158 ; wipe and retract
G1 F5760
G1 X114.905 Y110.723 E-0.31608 ; wipe and retract
G1 F5760
G1 X114.975 Y111.024 E-0.10721 ; wipe and retract
G1 E-0.04000 F2100.00000 ; retract
G1 Z0.800 F7200.000 ; lift Z
G1 X114.322 Y105.868 F7200.000 ; move to first perimeter point
G1 Z0.200 F7200.000 ; restore layer Z
G1 E0.80000 F2100.00000 ; unretract
G1 F1800
G1 X114.899 Y104.339 E0.05127 ; perimeter
G1 X114.899 Y105.291 E0.02986 ; perimeter
G1 X114.364 Y105.826 E0.02372 ; perimeter
G1 F5760
G1 X114.899 Y104.339 E-0.54746 ; wipe and retract
G1 F5760
G1 X114.899 Y104.952 E-0.21254 ; wipe and retract
G1 E-0.04000 F2100.00000 ; retract
G1 Z0.800 F7200.000 ; lift Z
G1 X117.920 Y106.666 F7200.000 ; move to first perimeter point
G1 Z0.200 F7200.000 ; restore layer Z
G1 E0.80000 F2100.00000 ; unretract
G1 F1800
G1 X117.940 Y106.579 E0.00279 ; perimeter
G1 X120.168 Y108.044 E0.08360 ; perimeter
G1 X120.330 Y108.196 E0.00698 ; perimeter
G1 X120.438 Y108.373 E0.00650 ; perimeter
G1 X120.474 Y108.478 E0.00347 ; perimeter
G1 X120.498 Y108.693 E0.00677 ; perimeter
G1 X120.404 Y108.619 E0.00377 ; perimeter
G1 X120.163 Y108.516 E0.00821 ; perimeter
G1 X117.960 Y107.985 E0.07103 ; perimeter
G1 X117.894 Y107.951 E0.00235 ; perimeter
G1 X117.825 Y107.896 E0.00278 ; perimeter
G1 X117.746 Y107.782 E0.00434 ; perimeter
G1 X117.713 Y107.665 E0.00380 ; perimeter
G1 X117.712 Y107.544 E0.00380 ; perimeter
G1 X117.906 Y106.724 E0.02641 ; perimeter
G1 X117.664 Y106.246 F7200.000 ; move to first perimeter point
G1 F1800
G1 X117.742 Y106.184 E0.00312 ; perimeter
G1 X117.836 Y106.152 E0.00312 ; perimeter
G1 X117.934 Y106.154 E0.00306 ; perimeter
G1 X118.056 Y106.204 E0.00413 ; perimeter
G1 X120.402 Y107.747 E0.08804 ; perimeter
G1 X120.626 Y107.956 E0.00961 ; perimeter
G1 X120.782 Y108.213 E0.00944 ; perimeter
G1 X120.840 Y108.385 E0.00570 ; perimeter
G1 X120.866 Y108.533 E0.00469 ; perimeter
G1 X121.036 Y111.129 E0.08159 ; perimeter
G1 X120.997 Y111.348 E0.00698 ; perimeter
G1 X120.892 Y111.596 E0.00843 ; perimeter
G1 X120.760 Y111.777 E0.00702 ; perimeter
G1 X120.554 Y111.956 E0.00855 ; perimeter
G1 X120.428 Y112.029 E0.00459 ; perimeter
G1 X120.139 Y112.123 E0.00951 ; perimeter
G1 X119.984 Y112.139 E0.00488 ; perimeter
G1 X115.398 Y112.137 E0.14380 ; perimeter
G1 X115.137 Y112.088 E0.00832 ; perimeter
G1 X114.937 Y112.001 E0.00686 ; perimeter
G1 X114.726 Y111.848 E0.00816 ; perimeter
G1 X114.555 Y111.647 E0.00828 ; perimeter
G1 X114.486 Y111.524 E0.00442 ; perimeter
G1 X114.416 Y111.341 E0.00614 ; perimeter
G1 X113.415 Y107.837 E0.11426 ; perimeter
G1 X113.378 Y107.651 E0.00594 ; perimeter
G1 X113.376 Y107.435 E0.00680 ; perimeter
G1 X113.444 Y107.134 E0.00967 ; perimeter
G1 X114.572 Y104.128 E0.10065 ; perimeter
G1 X114.635 Y104.043 E0.00334 ; perimeter
G1 X114.719 Y103.987 E0.00316 ; perimeter
G1 X114.809 Y103.962 E0.00295 ; perimeter
G1 X114.984 Y103.961 E0.00548 ; perimeter
G1 X115.084 Y103.980 E0.00319 ; perimeter
G1 X115.163 Y104.023 E0.00282 ; perimeter
G1 X115.224 Y104.089 E0.00282 ; perimeter
G1 X115.263 Y104.172 E0.00288 ; perimeter
G1 X115.276 Y105.447 E0.03997 ; perimeter
G1 X114.490 Y106.233 E0.03486 ; perimeter
G1 X114.332 Y106.300 E0.00537 ; perimeter
G1 X114.159 Y106.407 E0.00638 ; perimeter
G1 X113.885 Y106.667 E0.01185 ; perimeter
G1 X113.727 Y106.914 E0.00921 ; perimeter
G1 X113.636 Y107.142 E0.00769 ; perimeter
G1 X113.585 Y107.382 E0.00769 ; perimeter
G1 X113.580 Y107.668 E0.00898 ; perimeter
G1 X113.611 Y107.866 E0.00628 ; perimeter
