; generated by Slic3r 1.37.2.1-prusa3d on 2018-09-09 at 18:55:03

; 

; external perimeters extrusion width = 0.42mm
; perimeters extrusion width = 0.45mm
; infill extrusion width = 0.45mm
; solid infill extrusion width = 0.45mm
; top infill extrusion width = 0.42mm
; first layer extrusion width = 0.42mm

M107 ; disable fan
M115 U3.1.0 ; tell printer latest fw version
M83  ; extruder relative mode
M104 S230 ; set extruder temp
M140 S85 ; set bed temp
M190 S85 ; wait for bed temp
M109 S230 ; wait for extruder temp
G28 W ; home all without mesh bed level
G80 ; mesh bed leveling
G1 Y-3.0 F1000.0 ; go outside pritn area
G1 X60.0 E9.0  F1000.0 ; intro line
G1 X100.0 E12.5  F1000.0 ; intro line
G92 E0.0
M900 K45
G21 ; set units to millimeters
G90 ; use absolute coordinates
M83 ; use relative distances for extrusion
;BEFORE_LAYER_CHANGE
;0.2


G1 E-0.80000 F2100.00000 ; retract
G1 Z0.600 F7200.000 ; lift Z
;AFTER_LAYER_CHANGE
;0.2
G1 X90.760 Y41.395 F7200.000 ; move to first skirt point
G1 Z0.200 F7200.000 ; restore layer Z
G1 E0.80000 F2100.00000 ; unretract
M204 S1000 ; adjust acceleration
G1 F1800
G1 X91.467 Y39.998 E0.04911 ; skirt
G1 X92.163 Y38.958 E0.03924 ; skirt
G1 X93.185 Y37.775 E0.04900 ; skirt
G1 X94.113 Y36.934 E0.03927 ; skirt
G1 X95.128 Y36.199 E0.03928 ; skirt
G1 X96.475 Y35.454 E0.04827 ; skirt
G1 X98.387 Y34.753 E0.06384 ; skirt
G1 X100.360 Y34.405 E0.06282 ; skirt
G1 X110.104 Y34.358 E0.30553 ; skirt
G1 X148.423 Y34.360 E1.20147 ; skirt
G1 X150.475 Y34.511 E0.06450 ; skirt
G1 X152.058 Y34.882 E0.05100 ; skirt
G1 X153.584 Y35.483 E0.05139 ; skirt
G1 X154.969 Y36.265 E0.04990 ; skirt
G1 X156.286 Y37.274 E0.05200 ; skirt
G1 X157.437 Y38.456 E0.05176 ; skirt
G1 X158.394 Y39.771 E0.05097 ; skirt
G1 X159.158 Y41.211 E0.05113 ; skirt
G1 X159.699 Y42.686 E0.04924 ; skirt
G1 X159.988 Y44.031 E0.04313 ; skirt
G1 X160.107 Y45.765 E0.05450 ; skirt
G1 X160.084 Y165.026 E3.73935 ; skirt
G1 X159.846 Y166.737 E0.05414 ; skirt
G1 X159.375 Y168.273 E0.05039 ; skirt
G1 X158.494 Y170.055 E0.06232 ; skirt
G1 X157.525 Y171.434 E0.05284 ; skirt
G1 X156.380 Y172.639 E0.05213 ; skirt
G1 X155.060 Y173.675 E0.05260 ; skirt
G1 X153.637 Y174.491 E0.05143 ; skirt
G1 X151.793 Y175.194 E0.06188 ; skirt
G1 X150.107 Y175.540 E0.05397 ; skirt
G1 X148.360 Y175.638 E0.05485 ; skirt
G1 X102.245 Y175.639 E1.44593 ; skirt
G1 X100.059 Y175.553 E0.06858 ; skirt
G1 X98.473 Y175.260 E0.05058 ; skirt
G1 X96.952 Y174.746 E0.05032 ; skirt
G1 X95.278 Y173.887 E0.05902 ; skirt
G1 X93.970 Y172.941 E0.05062 ; skirt
G1 X92.828 Y171.840 E0.04973 ; skirt
G1 X91.687 Y170.349 E0.05886 ; skirt
G1 X90.919 Y168.955 E0.04992 ; skirt
G1 X90.357 Y167.490 E0.04918 ; skirt
G1 X90.008 Y165.934 E0.05001 ; skirt
G1 X89.893 Y163.967 E0.06179 ; skirt
G1 X89.891 Y45.860 E3.70315 ; skirt
G1 X90.007 Y44.076 E0.05605 ; skirt
G1 X90.261 Y42.835 E0.03971 ; skirt
G1 X90.740 Y41.452 E0.04590 ; skirt
G1 F5760
G1 X91.467 Y39.998 E-0.56307 ; wipe and retract
G1 F5760
G1 X91.783 Y39.525 E-0.19693 ; wipe and retract
G1 E-0.04000 F2100.00000 ; retract
G1 Z0.800 F7200.000 ; lift Z
G1 X135.177 Y162.712 F7200.000 ; move to first perimeter point
G1 Z0.200 F7200.000 ; restore layer Z
G1 E0.80000 F2100.00000 ; unretract
G1 F1800
G1 X135.798 Y162.552 E0.02010 ; perimeter
G1 X136.139 Y162.501 E0.01080 ; perimeter
G1 X136.725 Y162.472 E0.01841 ; perimeter
G1 X145.444 Y162.499 E0.27339 ; perimeter
G1 X145.851 Y162.527 E0.01278 ; perimeter
G1 X146.266 Y162.594 E0.01318 ; perimeter
G1 X146.850 Y162.756 E0.01902 ; perimeter
G1 X147.240 Y162.912 E0.01316 ; perimeter
G1 X147.614 Y163.102 E0.01315 ; perimeter
G1 X148.121 Y163.434 E0.01900 ; perimeter
G1 X148.445 Y163.700 E0.01315 ; perimeter
G1 X148.740 Y163.990 E0.01297 ; perimeter
G1 X149.008 Y164.305 E0.01296 ; perimeter
G1 X149.250 Y164.647 E0.01313 ; perimeter
G1 X149.539 Y165.165 E0.01861 ; perimeter
G1 X149.707 Y165.563 E0.01354 ; perimeter
G1 X149.833 Y165.957 E0.01298 ; perimeter
G1 X149.924 Y166.361 E0.01296 ; perimeter
G1 X149.979 Y166.776 E0.01315 ; perimeter
G1 X149.993 Y167.382 E0.01900 ; perimeter
G1 X149.957 Y167.800 E0.01315 ; perimeter
G1 X149.885 Y168.207 E0.01297 ; perimeter
G1 X149.775 Y168.612 E0.01317 ; perimeter
G1 X149.551 Y169.183 E0.01921 ; perimeter
G1 X149.251 Y169.724 E0.01941 ; perimeter
G1 X148.887 Y170.217 E0.01922 ; perimeter
G1 X148.596 Y170.529 E0.01337 ; perimeter
G1 X148.133 Y170.930 E0.01921 ; perimeter
G1 X147.615 Y171.269 E0.01941 ; perimeter
G1 X147.059 Y171.537 E0.01935 ; perimeter
G1 X146.533 Y171.714 E0.01738 ; perimeter
G1 X145.876 Y171.842 E0.02099 ; perimeter
G1 X145.522 Y171.871 E0.01114 ; perimeter
G1 X144.957 Y171.875 E0.01773 ; perimeter
G1 X136.522 Y171.850 E0.26446 ; perimeter
G1 X136.174 Y171.827 E0.01094 ; perimeter
G1 X135.523 Y171.712 E0.02072 ; perimeter
G1 X135.176 Y171.610 E0.01134 ; perimeter
G1 X134.592 Y171.371 E0.01978 ; perimeter
G1 X134.288 Y171.207 E0.01084 ; perimeter
G1 X133.759 Y170.846 E0.02008 ; perimeter
G1 X133.276 Y170.409 E0.02041 ; perimeter
G1 X132.860 Y169.909 E0.02041 ; perimeter
G1 X132.522 Y169.365 E0.02007 ; perimeter
G1 X132.370 Y169.054 E0.01085 ; perimeter
G1 X132.152 Y168.452 E0.02010 ; perimeter
G1 X132.017 Y167.815 E0.02040 ; perimeter
G1 X131.972 Y167.176 E0.02007 ; perimeter
G1 X131.983 Y166.831 E0.01085 ; perimeter
G1 X132.070 Y166.206 E0.01978 ; perimeter
G1 X132.153 Y165.870 E0.01085 ; perimeter
G1 X132.371 Y165.268 E0.02007 ; perimeter
G1 X132.674 Y164.692 E0.02041 ; perimeter
G1 X133.054 Y164.164 E0.02041 ; perimeter
G1 X133.497 Y163.701 E0.02008 ; perimeter
G1 X133.760 Y163.477 E0.01084 ; perimeter
G1 X134.280 Y163.121 E0.01977 ; perimeter
G1 X134.585 Y162.956 E0.01085 ; perimeter
G1 X135.122 Y162.735 E0.01820 ; perimeter
G1 X135.265 Y163.083 F7200.000 ; move to first perimeter point
G1 F1800
G1 X135.873 Y162.922 E0.01970 ; perimeter
G1 X136.175 Y162.877 E0.00960 ; perimeter
G1 X136.734 Y162.850 E0.01752 ; perimeter
G1 X145.430 Y162.876 E0.27268 ; perimeter
G1 X145.807 Y162.902 E0.01185 ; perimeter
G1 X146.185 Y162.963 E0.01199 ; perimeter
G1 X146.729 Y163.114 E0.01771 ; perimeter
G1 X147.084 Y163.256 E0.01198 ; perimeter
G1 X147.425 Y163.429 E0.01198 ; perimeter
G1 X147.898 Y163.738 E0.01771 ; perimeter
G1 X148.193 Y163.981 E0.01198 ; perimeter
G1 X148.464 Y164.247 E0.01192 ; perimeter
G1 X148.710 Y164.537 E0.01191 ; perimeter
G1 X148.931 Y164.848 E0.01197 ; perimeter
G1 X149.200 Y165.331 E0.01733 ; perimeter
G1 X149.353 Y165.694 E0.01236 ; perimeter
G1 X149.469 Y166.056 E0.01192 ; perimeter
G1 X149.552 Y166.427 E0.01191 ; perimeter
G1 X149.602 Y166.805 E0.01198 ; perimeter
G1 X149.615 Y167.370 E0.01771 ; perimeter
G1 X149.582 Y167.751 E0.01198 ; perimeter
G1 X149.516 Y168.125 E0.01191 ; perimeter
G1 X149.417 Y168.494 E0.01199 ; perimeter
G1 X149.209 Y169.022 E0.01778 ; perimeter
G1 X148.934 Y169.520 E0.01785 ; perimeter
G1 X148.596 Y169.976 E0.01779 ; perimeter
G1 X148.334 Y170.258 E0.01206 ; perimeter
G1 X147.905 Y170.628 E0.01778 ; perimeter
G1 X147.429 Y170.941 E0.01785 ; perimeter
G1 X146.916 Y171.187 E0.01783 ; perimeter
G1 X146.437 Y171.348 E0.01586 ; perimeter
G1 X145.824 Y171.468 E0.01957 ; perimeter
G1 X145.505 Y171.494 E0.01004 ; perimeter
G1 X144.956 Y171.497 E0.01722 ; perimeter
G1 X136.535 Y171.473 E0.26403 ; perimeter
G1 X136.219 Y171.452 E0.00993 ; perimeter
G1 X135.609 Y171.344 E0.01943 ; perimeter
G1 X135.301 Y171.254 E0.01007 ; perimeter
G1 X134.754 Y171.029 E0.01854 ; perimeter
G1 X134.484 Y170.884 E0.00961 ; perimeter
G1 X133.992 Y170.549 E0.01864 ; perimeter
G1 X133.549 Y170.147 E0.01876 ; perimeter
G1 X133.166 Y169.687 E0.01876 ; perimeter
G1 X132.852 Y169.183 E0.01864 ; perimeter
G1 X132.718 Y168.907 E0.00961 ; perimeter
G1 X132.515 Y168.348 E0.01865 ; perimeter
G1 X132.391 Y167.762 E0.01876 ; perimeter
G1 X132.349 Y167.169 E0.01864 ; perimeter
G1 X132.360 Y166.863 E0.00961 ; perimeter
G1 X132.441 Y166.277 E0.01854 ; perimeter
G1 X132.515 Y165.980 E0.00961 ; perimeter
G1 X132.716 Y165.420 E0.01864 ; perimeter
G1 X132.995 Y164.891 E0.01876 ; perimeter
G1 X133.345 Y164.405 E0.01876 ; perimeter
G1 X133.756 Y163.975 E0.01864 ; perimeter
G1 X133.989 Y163.777 E0.00961 ; perimeter
G1 X134.477 Y163.443 E0.01853 ; perimeter
G1 X134.747 Y163.297 E0.00962 ; perimeter
G1 X135.210 Y163.106 E0.01571 ; perimeter
G1 X135.348 Y162.692 F7200.000 ; move inwards before travel
G1 F5760
G1 X135.873 Y162.922 E-0.23823 ; wipe and retract
G1 F5760
G1 X136.175 Y162.877 E-0.10601 ; wipe and retract
G1 F5760
G1 X136.734 Y162.850 E-0.19356 ; wipe and retract
G1 F5760
G1 X137.375 Y162.852 E-0.22220 ; wipe and retract
G1 E-0.04000 F2100.00000 ; retract
G1 Z0.800 F7200.000 ; lift Z
G1 X135.210 Y172.274 F7200.000 ; move to first perimeter point
G1 Z0.200 F7200.000 ; restore layer Z
G1 E0.80000 F2100.00000 ; unretract
G1 F1800
G1 X102.214 Y172.274 E1.03459 ; perimeter
G1 X101.038 Y172.258 E0.03687 ; perimeter
G1 X100.404 Y172.211 E0.01992 ; perimeter
G1 X99.811 Y172.120 E0.01882 ; perimeter
G1 X99.257 Y171.992 E0.01783 ; perimeter
G1 X98.724 Y171.826 E0.01750 ; perimeter
G1 X98.218 Y171.632 E0.01697 ; perimeter
G1 X97.465 Y171.270 E0.02622 ; perimeter
G1 X96.992 Y170.993 E0.01717 ; perimeter
G1 X96.531 Y170.679 E0.01748 ; perimeter
G1 X96.094 Y170.333 E0.01750 ; perimeter
G1 X95.695 Y169.971 E0.01690 ; perimeter
G1 X95.321 Y169.582 E0.01691 ; perimeter
G1 X94.966 Y169.160 E0.01730 ; perimeter
G1 X94.639 Y168.715 E0.01730 ; perimeter
G1 X94.344 Y168.249 E0.01730 ; perimeter
G1 X94.080 Y167.764 E0.01730 ; perimeter
G1 X93.855 Y167.276 E0.01685 ; perimeter
G1 X93.576 Y166.509 E0.02561 ; perimeter
G1 X93.440 Y166.005 E0.01637 ; perimeter
G1 X93.344 Y165.486 E0.01654 ; perimeter
G1 X93.269 Y164.664 E0.02587 ; perimeter
G1 X93.258 Y163.962 E0.02202 ; perimeter
G1 X93.256 Y45.863 E3.70292 ; perimeter
G1 X93.281 Y45.119 E0.02332 ; perimeter
G1 X93.384 Y44.261 E0.02711 ; perimeter
G1 X93.508 Y43.716 E0.01754 ; perimeter
G1 X93.664 Y43.209 E0.01661 ; perimeter
G1 X93.862 Y42.698 E0.01719 ; perimeter
G1 X94.102 Y42.186 E0.01773 ; perimeter
G1 X94.376 Y41.688 E0.01782 ; perimeter
G1 X94.687 Y41.208 E0.01793 ; perimeter
G1 X95.029 Y40.754 E0.01783 ; perimeter
G1 X95.400 Y40.327 E0.01773 ; perimeter
G1 X95.797 Y39.927 E0.01766 ; perimeter
G1 X96.455 Y39.373 E0.02698 ; perimeter
G1 X97.168 Y38.892 E0.02695 ; perimeter
G1 X97.661 Y38.619 E0.01766 ; perimeter
G1 X98.170 Y38.381 E0.01762 ; perimeter
G1 X98.978 Y38.085 E0.02698 ; perimeter
G1 X99.520 Y37.937 E0.01763 ; perimeter
G1 X100.065 Y37.828 E0.01741 ; perimeter
G1 X100.611 Y37.760 E0.01726 ; perimeter
G1 X101.366 Y37.730 E0.02370 ; perimeter
G1 X147.793 Y37.723 E1.45568 ; perimeter
G1 X148.754 Y37.730 E0.03012 ; perimeter
G1 X149.648 Y37.792 E0.02811 ; perimeter
G1 X150.206 Y37.879 E0.01772 ; perimeter
G1 X150.772 Y38.011 E0.01821 ; perimeter
G1 X151.325 Y38.184 E0.01816 ; perimeter
G1 X151.866 Y38.397 E0.01822 ; perimeter
G1 X152.391 Y38.648 E0.01826 ; perimeter
G1 X152.873 Y38.921 E0.01737 ; perimeter
G1 X153.337 Y39.224 E0.01735 ; perimeter
G1 X153.814 Y39.587 E0.01882 ; perimeter
G1 X154.263 Y39.985 E0.01881 ; perimeter
G1 X154.666 Y40.398 E0.01809 ; perimeter
G1 X155.039 Y40.839 E0.01810 ; perimeter
G1 X155.379 Y41.305 E0.01809 ; perimeter
G1 X155.685 Y41.794 E0.01809 ; perimeter
G1 X155.955 Y42.302 E0.01804 ; perimeter
G1 X156.203 Y42.860 E0.01917 ; perimeter
G1 X156.464 Y43.611 E0.02493 ; perimeter
G1 X156.600 Y44.162 E0.01779 ; perimeter
G1 X156.688 Y44.753 E0.01872 ; perimeter
G1 X156.734 Y45.409 E0.02064 ; perimeter
G1 X156.744 Y46.407 E0.03130 ; perimeter
G1 X156.743 Y164.102 E3.69022 ; perimeter
G1 X156.724 Y164.842 E0.02322 ; perimeter
G1 X156.664 Y165.439 E0.01883 ; perimeter
G1 X156.556 Y166.030 E0.01883 ; perimeter
G1 X156.418 Y166.543 E0.01664 ; perimeter
G1 X156.242 Y167.045 E0.01670 ; perimeter
G1 X156.012 Y167.574 E0.01807 ; perimeter
G1 X155.589 Y168.355 E0.02786 ; perimeter
G1 X155.268 Y168.847 E0.01841 ; perimeter
G1 X154.914 Y169.312 E0.01835 ; perimeter
G1 X154.529 Y169.747 E0.01820 ; perimeter
G1 X154.113 Y170.153 E0.01823 ; perimeter
G1 X153.668 Y170.529 E0.01825 ; perimeter
G1 X153.198 Y170.872 E0.01826 ; perimeter
G1 X152.704 Y171.181 E0.01827 ; perimeter
G1 X152.199 Y171.449 E0.01792 ; perimeter
G1 X151.686 Y171.676 E0.01758 ; perimeter
G1 X151.137 Y171.877 E0.01833 ; perimeter
G1 X150.552 Y172.043 E0.01907 ; perimeter
G1 X149.971 Y172.162 E0.01859 ; perimeter
G1 X149.400 Y172.231 E0.01802 ; perimeter
G1 X148.329 Y172.274 E0.03363 ; perimeter
G1 X135.270 Y172.274 E0.40944 ; perimeter
G1 X135.270 Y172.651 F7200.000 ; move to first perimeter point
G1 F1800
G1 X102.211 Y172.651 E1.03655 ; perimeter
G1 X101.021 Y172.635 E0.03732 ; perimeter
G1 X100.362 Y172.586 E0.02073 ; perimeter
G1 X99.740 Y172.491 E0.01972 ; perimeter
G1 X99.158 Y172.356 E0.01872 ; perimeter
G1 X98.600 Y172.183 E0.01833 ; perimeter
G1 X98.069 Y171.979 E0.01784 ; perimeter
G1 X97.287 Y171.604 E0.02718 ; perimeter
G1 X96.790 Y171.312 E0.01807 ; perimeter
G1 X96.308 Y170.983 E0.01830 ; perimeter
G1 X95.850 Y170.621 E0.01832 ; perimeter
G1 X95.432 Y170.241 E0.01770 ; perimeter
G1 X95.040 Y169.835 E0.01770 ; perimeter
G1 X94.669 Y169.393 E0.01809 ; perimeter
G1 X94.328 Y168.928 E0.01809 ; perimeter
G1 X94.019 Y168.441 E0.01810 ; perimeter
G1 X93.743 Y167.934 E0.01809 ; perimeter
G1 X93.506 Y167.420 E0.01774 ; perimeter
G1 X93.216 Y166.623 E0.02660 ; perimeter
G1 X93.072 Y166.088 E0.01734 ; perimeter
G1 X92.970 Y165.538 E0.01757 ; perimeter
G1 X92.892 Y164.684 E0.02687 ; perimeter
G1 X92.881 Y163.965 E0.02256 ; perimeter
G1 X92.879 Y45.856 E3.70321 ; perimeter
G1 X92.904 Y45.094 E0.02391 ; perimeter
G1 X93.013 Y44.189 E0.02858 ; perimeter
G1 X93.144 Y43.618 E0.01836 ; perimeter
G1 X93.308 Y43.086 E0.01746 ; perimeter
G1 X93.515 Y42.550 E0.01800 ; perimeter
G1 X93.766 Y42.015 E0.01853 ; perimeter
G1 X94.053 Y41.494 E0.01863 ; perimeter
G1 X94.378 Y40.992 E0.01876 ; perimeter
G1 X94.736 Y40.517 E0.01866 ; perimeter
G1 X95.124 Y40.070 E0.01855 ; perimeter
G1 X95.542 Y39.650 E0.01859 ; perimeter
G1 X96.228 Y39.072 E0.02813 ; perimeter
G1 X96.971 Y38.571 E0.02810 ; perimeter
G1 X97.489 Y38.283 E0.01859 ; perimeter
G1 X98.025 Y38.033 E0.01853 ; perimeter
G1 X98.863 Y37.725 E0.02799 ; perimeter
G1 X99.433 Y37.570 E0.01854 ; perimeter
G1 X100.004 Y37.455 E0.01826 ; perimeter
G1 X100.580 Y37.384 E0.01819 ; perimeter
G1 X101.358 Y37.352 E0.02442 ; perimeter
G1 X147.794 Y37.346 E1.45597 ; perimeter
G1 X148.768 Y37.353 E0.03053 ; perimeter
G1 X149.690 Y37.417 E0.02898 ; perimeter
G1 X150.278 Y37.509 E0.01866 ; perimeter
G1 X150.871 Y37.647 E0.01909 ; perimeter
G1 X151.450 Y37.828 E0.01902 ; perimeter
G1 X152.016 Y38.051 E0.01907 ; perimeter
G1 X152.565 Y38.314 E0.01908 ; perimeter
G1 X153.069 Y38.598 E0.01815 ; perimeter
G1 X153.554 Y38.915 E0.01816 ; perimeter
G1 X154.054 Y39.296 E0.01968 ; perimeter
G1 X154.523 Y39.712 E0.01968 ; perimeter
G1 X154.945 Y40.144 E0.01894 ; perimeter
G1 X155.335 Y40.605 E0.01894 ; perimeter
G1 X155.692 Y41.093 E0.01894 ; perimeter
G1 X156.012 Y41.605 E0.01894 ; perimeter
G1 X156.294 Y42.137 E0.01887 ; perimeter
G1 X156.554 Y42.722 E0.02007 ; perimeter
G1 X156.826 Y43.504 E0.02598 ; perimeter
G1 X156.970 Y44.089 E0.01889 ; perimeter
G1 X157.063 Y44.712 E0.01973 ; perimeter
G1 X157.111 Y45.394 E0.02145 ; perimeter
G1 X157.121 Y46.405 E0.03171 ; perimeter
G1 X157.120 Y164.106 E3.69043 ; perimeter
G1 X157.100 Y164.865 E0.02380 ; perimeter
G1 X157.038 Y165.492 E0.01975 ; perimeter
G1 X156.924 Y166.113 E0.01980 ; perimeter
G1 X156.779 Y166.654 E0.01757 ; perimeter
G1 X156.593 Y167.183 E0.01758 ; perimeter
G1 X156.351 Y167.739 E0.01900 ; perimeter
G1 X155.914 Y168.548 E0.02885 ; perimeter
G1 X155.577 Y169.065 E0.01933 ; perimeter
G1 X155.205 Y169.552 E0.01921 ; perimeter
G1 X154.802 Y170.007 E0.01907 ; perimeter
G1 X154.366 Y170.432 E0.01908 ; perimeter
G1 X153.901 Y170.825 E0.01909 ; perimeter
G1 X153.409 Y171.184 E0.01910 ; perimeter
G1 X152.892 Y171.508 E0.01912 ; perimeter
G1 X152.364 Y171.788 E0.01876 ; perimeter
G1 X151.827 Y172.026 E0.01840 ; perimeter
