; generated by Slic3r 1.37.2.1-prusa3d on 2018-09-01 at 15:55:16

; 

; external perimeters extrusion width = 0.42mm
; perimeters extrusion width = 0.45mm
; infill extrusion width = 0.45mm
; solid infill extrusion width = 0.45mm
; top infill extrusion width = 0.42mm
; first layer extrusion width = 0.42mm

M107 ; disable fan
M115 U3.1.0 ; tell printer latest fw version
M83  ; extruder relative mode
M104 S215 ; set extruder temp
M140 S55 ; set bed temp
M190 S55 ; wait for bed temp
M109 S215 ; wait for extruder temp
G28 W ; home all without mesh bed level
G80 ; mesh bed leveling
G1 Y-3.0 F1000.0 ; go outside pritn area
G1 X60.0 E9.0  F1000.0 ; intro line
G1 X100.0 E12.5  F1000.0 ; intro line
G92 E0.0
M900 K30
G21 ; set units to millimeters
G90 ; use absolute coordinates
M83 ; use relative distances for extrusion
;BEFORE_LAYER_CHANGE
;0.2


G1 E-0.80000 F2100.00000 ; retract
G1 Z0.600 F7200.000 ; lift Z
;AFTER_LAYER_CHANGE
;0.2
G1 X155.339 Y148.637 F7200.000 ; move to first skirt point
G1 Z0.200 F7200.000 ; restore layer Z
G1 E0.80000 F2100.00000 ; unretract
M204 S1000 ; adjust acceleration
G1 F1800
G1 X154.728 Y149.073 E0.02355 ; skirt
G1 X154.060 Y149.290 E0.02201 ; skirt
G1 X149.957 Y149.868 E0.12994 ; skirt
G1 X104.332 Y149.378 E1.43060 ; skirt
G1 X103.768 Y149.300 E0.01787 ; skirt
G1 X103.234 Y149.088 E0.01799 ; skirt
G1 X102.768 Y148.755 E0.01799 ; skirt
G1 X102.396 Y148.322 E0.01787 ; skirt
G1 X98.120 Y141.430 E0.25433 ; skirt
G1 X77.957 Y107.184 E1.24603 ; skirt
G1 X77.717 Y106.331 E0.02778 ; skirt
G1 X77.487 Y101.738 E0.14420 ; skirt
G1 X77.559 Y101.096 E0.02024 ; skirt
G1 X77.799 Y100.501 E0.02012 ; skirt
G1 X101.871 Y65.351 E1.33579 ; skirt
G1 X102.379 Y64.840 E0.02260 ; skirt
G1 X104.683 Y63.280 E0.08724 ; skirt
G1 X107.607 Y61.924 E0.10106 ; skirt
G1 X108.291 Y61.764 E0.02201 ; skirt
G1 X111.217 Y61.631 E0.09185 ; skirt
G1 X155.992 Y61.949 E1.40393 ; skirt
G1 X156.621 Y62.056 E0.02000 ; skirt
G1 X157.199 Y62.327 E0.02000 ; skirt
G1 X157.681 Y62.738 E0.01989 ; skirt
G1 X158.040 Y63.266 E0.02000 ; skirt
G1 X177.688 Y102.964 E1.38880 ; skirt
G1 X177.877 Y103.513 E0.01823 ; skirt
G1 X177.926 Y104.096 E0.01835 ; skirt
G1 X177.853 Y104.597 E0.01585 ; skirt
G1 X177.674 Y105.074 E0.01597 ; skirt
G1 X155.782 Y148.035 E1.51182 ; skirt
G1 X155.375 Y148.588 E0.02155 ; skirt
G1 F5760
G1 X154.728 Y149.073 E-0.27994 ; wipe and retract
G1 F5760
G1 X154.060 Y149.290 E-0.24317 ; wipe and retract
G1 F5760
G1 X153.383 Y149.385 E-0.23688 ; wipe and retract
G1 E-0.04000 F2100.00000 ; retract
G1 Z0.800 F7200.000 ; lift Z
G1 X152.416 Y146.057 F7200.000 ; move to first perimeter point
G1 Z0.200 F7200.000 ; restore layer Z
G1 E0.80000 F2100.00000 ; unretract
G1 F1800
G1 X150.305 Y146.367 E0.06689 ; perimeter
G1 X147.175 Y143.465 E0.13383 ; perimeter
G1 X141.409 Y140.707 E0.20041 ; perimeter
G1 X138.423 Y140.449 E0.09398 ; perimeter
G1 X137.314 Y139.572 E0.04431 ; perimeter
G1 X136.704 Y138.309 E0.04400 ; perimeter
G1 X136.579 Y136.782 E0.04802 ; perimeter
G1 X135.864 Y136.462 E0.02455 ; perimeter
G1 X135.175 Y136.193 E0.02319 ; perimeter
G1 X134.134 Y136.277 E0.03276 ; perimeter
G1 X133.166 Y136.942 E0.03683 ; perimeter
G1 X131.287 Y138.994 E0.08721 ; perimeter
G1 X129.531 Y137.557 E0.07114 ; perimeter
G1 X128.761 Y135.020 E0.08315 ; perimeter
G1 X127.108 Y130.099 E0.16275 ; perimeter
G1 X125.177 Y127.865 E0.09258 ; perimeter
G1 X124.412 Y127.323 E0.02941 ; perimeter
G1 X124.231 Y127.418 E0.00642 ; perimeter
G1 X123.820 Y129.778 E0.07511 ; perimeter
G1 X122.394 Y131.406 E0.06786 ; perimeter
G1 X120.652 Y132.498 E0.06447 ; perimeter
G1 X119.820 Y134.710 E0.07409 ; perimeter
G1 X120.070 Y136.848 E0.06751 ; perimeter
G1 X117.952 Y136.594 E0.06690 ; perimeter
G1 X117.925 Y136.254 E0.01070 ; perimeter
G1 X116.974 Y136.363 E0.03003 ; perimeter
G1 X116.033 Y138.245 E0.06596 ; perimeter
G1 X114.684 Y138.095 E0.04254 ; perimeter
G1 X114.476 Y137.738 E0.01297 ; perimeter
G1 X113.889 Y137.803 E0.01851 ; perimeter
G1 X113.100 Y139.525 E0.05938 ; perimeter
G1 X112.968 Y141.636 E0.06632 ; perimeter
G1 X111.620 Y141.786 E0.04254 ; perimeter
G1 X109.383 Y143.002 E0.07982 ; perimeter
G1 X107.159 Y145.940 E0.11557 ; perimeter
G1 X105.492 Y145.940 E0.05227 ; perimeter
G1 X105.589 Y144.087 E0.05819 ; perimeter
G1 X103.686 Y139.463 E0.15677 ; perimeter
G1 X101.439 Y139.256 E0.07075 ; perimeter
G1 X101.906 Y137.027 E0.07138 ; perimeter
G1 X102.426 Y135.526 E0.04983 ; perimeter
G1 X99.523 Y133.350 E0.11374 ; perimeter
G1 X100.843 Y130.157 E0.10833 ; perimeter
G1 X100.615 Y129.044 E0.03564 ; perimeter
G1 X99.694 Y128.628 E0.03167 ; perimeter
G1 X98.348 Y127.466 E0.05577 ; perimeter
G1 X99.553 Y126.317 E0.05221 ; perimeter
G1 X99.797 Y125.918 E0.01466 ; perimeter
G1 X99.651 Y124.973 E0.02998 ; perimeter
G1 X97.027 Y123.116 E0.10080 ; perimeter
G1 X96.965 Y121.751 E0.04282 ; perimeter
G1 X104.544 Y115.250 E0.31308 ; perimeter
G1 X108.074 Y111.562 E0.16007 ; perimeter
G1 X107.842 Y109.518 E0.06449 ; perimeter
G1 X106.570 Y108.333 E0.05451 ; perimeter
G1 X104.605 Y109.315 E0.06889 ; perimeter
G1 X102.499 Y111.482 E0.09474 ; perimeter
G1 X101.106 Y110.925 E0.04707 ; perimeter
G1 X99.557 Y111.025 E0.04864 ; perimeter
G1 X96.065 Y112.582 E0.11989 ; perimeter
G1 X94.050 Y110.630 E0.08798 ; perimeter
G1 X90.112 Y110.630 E0.12349 ; perimeter
G1 X83.336 Y105.355 E0.26923 ; perimeter
G1 X81.099 Y105.151 E0.07043 ; perimeter
G1 X80.983 Y102.827 E0.07297 ; perimeter
G1 X82.985 Y102.975 E0.06293 ; perimeter
G1 X87.903 Y99.354 E0.19151 ; perimeter
G1 X87.281 Y97.941 E0.04842 ; perimeter
G1 X88.375 Y97.030 E0.04463 ; perimeter
G1 X90.972 Y95.876 E0.08912 ; perimeter
G1 X93.081 Y94.191 E0.08462 ; perimeter
G1 X93.996 Y91.394 E0.09227 ; perimeter
G1 X94.413 Y89.451 E0.06233 ; perimeter
G1 X96.035 Y89.064 E0.05230 ; perimeter
G1 X100.785 Y88.830 E0.14911 ; perimeter
G1 X101.292 Y88.857 E0.01590 ; perimeter
G1 X101.292 Y87.575 E0.04018 ; perimeter
G1 X104.328 Y87.809 E0.09548 ; perimeter
G1 X107.707 Y90.137 E0.12864 ; perimeter
G1 X110.028 Y90.664 E0.07463 ; perimeter
G1 X112.794 Y90.292 E0.08752 ; perimeter
G1 X114.934 Y88.968 E0.07890 ; perimeter
G1 X115.885 Y86.369 E0.08678 ; perimeter
G1 X114.995 Y83.964 E0.08037 ; perimeter
G1 X112.570 Y79.553 E0.15783 ; perimeter
G1 X108.351 Y74.882 E0.19736 ; perimeter
G1 X104.839 Y70.904 E0.16639 ; perimeter
G1 X103.936 Y69.014 E0.06568 ; perimeter
G1 X104.634 Y67.463 E0.05334 ; perimeter
G1 X106.425 Y66.249 E0.06783 ; perimeter
G1 X108.717 Y65.195 E0.07911 ; perimeter
G1 X110.417 Y65.195 E0.05329 ; perimeter
G1 X111.247 Y65.076 E0.02630 ; perimeter
G1 X112.362 Y65.167 E0.03508 ; perimeter
G1 X114.713 Y75.500 E0.33223 ; perimeter
G1 X117.488 Y80.898 E0.19033 ; perimeter
G1 X120.334 Y83.434 E0.11952 ; perimeter
G1 X121.753 Y84.117 E0.04936 ; perimeter
G1 X122.822 Y84.216 E0.03369 ; perimeter
G1 X123.634 Y82.817 E0.05072 ; perimeter
G1 X124.987 Y77.037 E0.18613 ; perimeter
G1 X127.077 Y76.366 E0.06884 ; perimeter
G1 X127.800 Y74.831 E0.05319 ; perimeter
G1 X128.359 Y71.741 E0.09845 ; perimeter
G1 X131.196 Y68.868 E0.12660 ; perimeter
G1 X132.209 Y68.207 E0.03792 ; perimeter
G1 X135.073 Y68.352 E0.08990 ; perimeter
G1 X139.111 Y66.036 E0.14596 ; perimeter
G1 X141.759 Y67.616 E0.09669 ; perimeter
G1 X142.213 Y67.757 E0.01490 ; perimeter
G1 X143.373 Y67.876 E0.03657 ; perimeter
G1 X145.354 Y66.760 E0.07129 ; perimeter
G1 X147.711 Y67.004 E0.07429 ; perimeter
G1 X148.950 Y67.502 E0.04188 ; perimeter
G1 X152.398 Y67.435 E0.10811 ; perimeter
G1 X155.116 Y65.962 E0.09695 ; perimeter
G1 X155.487 Y68.107 E0.06826 ; perimeter
G1 X153.965 Y69.665 E0.06826 ; perimeter
G1 X153.935 Y72.725 E0.09597 ; perimeter
G1 X155.107 Y73.285 E0.04072 ; perimeter
G1 X150.799 Y78.459 E0.21108 ; perimeter
G1 X152.185 Y79.202 E0.04931 ; perimeter
G1 X149.065 Y84.387 E0.18973 ; perimeter
G1 X149.616 Y85.203 E0.03087 ; perimeter
G1 X160.205 Y86.746 E0.33550 ; perimeter
G1 X160.397 Y89.941 E0.10039 ; perimeter
G1 X162.217 Y91.335 E0.07186 ; perimeter
G1 X164.638 Y91.909 E0.07803 ; perimeter
G1 X164.940 Y96.023 E0.12932 ; perimeter
G1 X173.202 Y103.342 E0.34607 ; perimeter
G1 X166.827 Y104.468 E0.20299 ; perimeter
G1 X165.772 Y105.146 E0.03929 ; perimeter
G1 X162.494 Y105.146 E0.10280 ; perimeter
G1 X160.826 Y107.663 E0.09468 ; perimeter
G1 X157.073 Y108.127 E0.11856 ; perimeter
G1 X155.911 Y110.232 E0.07540 ; perimeter
G1 X147.476 Y110.809 E0.26508 ; perimeter
G1 X147.212 Y112.420 E0.05118 ; perimeter
G1 X147.499 Y113.480 E0.03443 ; perimeter
G1 X157.438 Y123.576 E0.44419 ; perimeter
G1 X156.772 Y124.967 E0.04838 ; perimeter
G1 X150.375 Y127.882 E0.22041 ; perimeter
G1 X150.399 Y128.967 E0.03400 ; perimeter
G1 X152.278 Y132.266 E0.11905 ; perimeter
G1 X151.185 Y133.358 E0.04842 ; perimeter
G1 X152.938 Y136.718 E0.11884 ; perimeter
G1 X151.022 Y138.865 E0.09025 ; perimeter
G1 X152.404 Y145.998 E0.22779 ; perimeter
G1 X151.971 Y145.741 F7200.000 ; move to first perimeter point
G1 F1800
G1 X150.429 Y145.967 E0.04885 ; perimeter
G1 X147.389 Y143.150 E0.12996 ; perimeter
G1 X141.510 Y140.337 E0.20435 ; perimeter
G1 X138.568 Y140.083 E0.09259 ; perimeter
G1 X137.616 Y139.330 E0.03804 ; perimeter
G1 X137.074 Y138.208 E0.03908 ; perimeter
G1 X136.937 Y136.529 E0.05281 ; perimeter
G1 X136.010 Y136.114 E0.03183 ; perimeter
G1 X135.232 Y135.810 E0.02621 ; perimeter
G1 X134.003 Y135.909 E0.03864 ; perimeter
G1 X132.917 Y136.656 E0.04133 ; perimeter
G1 X131.250 Y138.476 E0.07738 ; perimeter
G1 X129.858 Y137.338 E0.05636 ; perimeter
G1 X129.120 Y134.905 E0.07973 ; perimeter
G1 X127.442 Y129.909 E0.16525 ; perimeter
G1 X125.432 Y127.584 E0.09634 ; perimeter
G1 X124.442 Y126.882 E0.03808 ; perimeter
G1 X123.891 Y127.170 E0.01949 ; perimeter
G1 X123.466 Y129.609 E0.07763 ; perimeter
G1 X122.147 Y131.116 E0.06281 ; perimeter
G1 X120.344 Y132.246 E0.06672 ; perimeter
G1 X119.435 Y134.662 E0.08095 ; perimeter
G1 X119.640 Y136.417 E0.05538 ; perimeter
G1 X118.304 Y136.257 E0.04219 ; perimeter
G1 X118.271 Y135.834 E0.01328 ; perimeter
G1 X116.728 Y136.012 E0.04871 ; perimeter
G1 X115.813 Y137.841 E0.06411 ; perimeter
G1 X114.914 Y137.741 E0.02835 ; perimeter
G1 X114.678 Y137.336 E0.01471 ; perimeter
G1 X113.635 Y137.452 E0.03289 ; perimeter
G1 X112.729 Y139.431 E0.06827 ; perimeter
G1 X112.612 Y141.296 E0.05858 ; perimeter
G1 X111.505 Y141.419 E0.03492 ; perimeter
G1 X109.132 Y142.709 E0.08469 ; perimeter
G1 X106.971 Y145.563 E0.11224 ; perimeter
G1 X105.889 Y145.563 E0.03393 ; perimeter
G1 X105.970 Y144.022 E0.04839 ; perimeter
G1 X103.948 Y139.109 E0.16659 ; perimeter
G1 X101.895 Y138.919 E0.06464 ; perimeter
G1 X102.270 Y137.128 E0.05737 ; perimeter
G1 X102.873 Y135.389 E0.05771 ; perimeter
G1 X99.984 Y133.224 E0.11320 ; perimeter
G1 X101.235 Y130.195 E0.10277 ; perimeter
G1 X100.946 Y128.779 E0.04530 ; perimeter
G1 X99.899 Y128.307 E0.03600 ; perimeter
G1 X98.909 Y127.452 E0.04103 ; perimeter
G1 X99.849 Y126.556 E0.04073 ; perimeter
G1 X100.190 Y125.997 E0.02054 ; perimeter
G1 X99.999 Y124.757 E0.03932 ; perimeter
G1 X97.395 Y122.914 E0.10004 ; perimeter
G1 X97.350 Y121.918 E0.03128 ; perimeter
G1 X104.803 Y115.524 E0.30790 ; perimeter
G1 X108.469 Y111.695 E0.16620 ; perimeter
G1 X108.201 Y109.338 E0.07440 ; perimeter
G1 X106.636 Y107.878 E0.06709 ; perimeter
G1 X104.379 Y109.006 E0.07911 ; perimeter
G1 X102.405 Y111.038 E0.08883 ; perimeter
G1 X101.166 Y110.543 E0.04182 ; perimeter
G1 X99.466 Y110.653 E0.05344 ; perimeter
G1 X96.145 Y112.134 E0.11402 ; perimeter
G1 X94.203 Y110.253 E0.08478 ; perimeter
G1 X90.241 Y110.253 E0.12422 ; perimeter
G1 X83.481 Y104.989 E0.26864 ; perimeter
G1 X81.460 Y104.806 E0.06363 ; perimeter
G1 X81.381 Y103.235 E0.04931 ; perimeter
G1 X83.096 Y103.362 E0.05392 ; perimeter
G1 X88.370 Y99.479 E0.20536 ; perimeter
G1 X87.741 Y98.049 E0.04898 ; perimeter
G1 X88.576 Y97.353 E0.03408 ; perimeter
G1 X91.170 Y96.201 E0.08900 ; perimeter
G1 X93.404 Y94.416 E0.08967 ; perimeter
G1 X94.360 Y91.493 E0.09643 ; perimeter
G1 X94.731 Y89.762 E0.05549 ; perimeter
G1 X96.089 Y89.439 E0.04375 ; perimeter
G1 X100.785 Y89.208 E0.14742 ; perimeter
G1 X101.669 Y89.254 E0.02776 ; perimeter
G1 X101.669 Y87.982 E0.03987 ; perimeter
G1 X104.198 Y88.177 E0.07953 ; perimeter
G1 X107.552 Y90.488 E0.12773 ; perimeter
G1 X110.010 Y91.047 E0.07904 ; perimeter
G1 X112.924 Y90.655 E0.09217 ; perimeter
G1 X115.243 Y89.220 E0.08551 ; perimeter
G1 X116.286 Y86.368 E0.09522 ; perimeter
G1 X115.339 Y83.807 E0.08560 ; perimeter
G1 X112.879 Y79.333 E0.16009 ; perimeter
G1 X108.632 Y74.631 E0.19867 ; perimeter
G1 X105.156 Y70.694 E0.16467 ; perimeter
G1 X104.351 Y69.009 E0.05854 ; perimeter
G1 X104.934 Y67.715 E0.04450 ; perimeter
G1 X106.611 Y66.578 E0.06351 ; perimeter
G1 X108.800 Y65.572 E0.07555 ; perimeter
G1 X110.444 Y65.572 E0.05155 ; perimeter
G1 X111.259 Y65.455 E0.02581 ; perimeter
G1 X112.056 Y65.521 E0.02508 ; perimeter
G1 X114.355 Y75.630 E0.32506 ; perimeter
G1 X117.185 Y81.133 E0.19402 ; perimeter
G1 X120.123 Y83.750 E0.12338 ; perimeter
G1 X121.650 Y84.486 E0.05315 ; perimeter
G1 X123.027 Y84.614 E0.04337 ; perimeter
G1 X123.989 Y82.958 E0.06004 ; perimeter
G1 X125.305 Y77.331 E0.18120 ; perimeter
G1 X127.349 Y76.674 E0.06729 ; perimeter
G1 X128.162 Y74.947 E0.05988 ; perimeter
G1 X128.709 Y71.923 E0.09635 ; perimeter
G1 X131.436 Y69.162 E0.12168 ; perimeter
G1 X132.312 Y68.590 E0.03281 ; perimeter
G1 X135.164 Y68.734 E0.08953 ; perimeter
G1 X139.107 Y66.473 E0.14252 ; perimeter
G1 X141.604 Y67.962 E0.09117 ; perimeter
G1 X142.137 Y68.129 E0.01749 ; perimeter
G1 X143.454 Y68.263 E0.04152 ; perimeter
G1 X145.435 Y67.148 E0.07129 ; perimeter
G1 X147.620 Y67.374 E0.06887 ; perimeter
G1 X148.881 Y67.881 E0.04262 ; perimeter
G1 X152.497 Y67.811 E0.11339 ; perimeter
G1 X154.834 Y66.544 E0.08335 ; perimeter
G1 X155.082 Y67.982 E0.04574 ; perimeter
G1 X153.590 Y69.510 E0.06697 ; perimeter
G1 X153.556 Y72.962 E0.10826 ; perimeter
G1 X154.507 Y73.417 E0.03306 ; perimeter
G1 X150.213 Y78.572 E0.21038 ; perimeter
G1 X151.657 Y79.347 E0.05138 ; perimeter
G1 X148.618 Y84.398 E0.18485 ; perimeter
G1 X149.397 Y85.552 E0.04364 ; perimeter
G1 X159.847 Y87.074 E0.33111 ; perimeter
G1 X160.031 Y90.136 E0.09617 ; perimeter
G1 X162.051 Y91.683 E0.07978 ; perimeter
G1 X164.282 Y92.212 E0.07189 ; perimeter
G1 X164.576 Y96.203 E0.12547 ; perimeter
G1 X172.368 Y103.106 E0.32640 ; perimeter
G1 X166.687 Y104.110 E0.18089 ; perimeter
G1 X165.662 Y104.768 E0.03819 ; perimeter
G1 X162.291 Y104.768 E0.10568 ; perimeter
G1 X160.608 Y107.310 E0.09559 ; perimeter
G1 X156.836 Y107.777 E0.11915 ; perimeter
G1 X155.680 Y109.870 E0.07499 ; perimeter
G1 X147.153 Y110.454 E0.26800 ; perimeter
G1 X146.827 Y112.440 E0.06311 ; perimeter
G1 X147.161 Y113.674 E0.04009 ; perimeter
G1 X156.983 Y123.652 E0.43900 ; perimeter
G1 X156.491 Y124.681 E0.03579 ; perimeter
G1 X149.992 Y127.642 E0.22391 ; perimeter
G1 X150.024 Y129.070 E0.04478 ; perimeter
G1 X151.808 Y132.203 E0.11302 ; perimeter
G1 X150.723 Y133.286 E0.04808 ; perimeter
G1 X152.483 Y136.661 E0.11935 ; perimeter
G1 X150.616 Y138.754 E0.08794 ; perimeter
G1 X151.959 Y145.682 E0.22128 ; perimeter
G1 X152.002 Y146.140 F7200.000 ; move inwards before travel
G1 F5760
G1 X150.429 Y145.967 E-0.53910 ; wipe and retract
G1 F5760
G1 X149.961 Y145.534 E-0.22090 ; wipe and retract
G1 E-0.04000 F2100.00000 ; retract
G1 Z0.800 F7200.000 ; lift Z
G1 X122.564 Y83.716 F7200.000 ; move to first perimeter point
G1 Z0.200 F7200.000 ; restore layer Z
G1 E0.80000 F2100.00000 ; unretract
G1 F1800
G1 X123.189 Y82.640 E0.03900 ; perimeter
G1 X124.586 Y76.667 E0.19233 ; perimeter
G1 X126.736 Y75.977 E0.07080 ; perimeter
G1 X127.344 Y74.685 E0.04478 ; perimeter
G1 X127.918 Y71.512 E0.10110 ; perimeter
G1 X130.894 Y68.498 E0.13280 ; perimeter
G1 X132.079 Y67.726 E0.04435 ; perimeter
G1 X134.957 Y67.871 E0.09034 ; perimeter
G1 X139.117 Y65.487 E0.15035 ; perimeter
G1 X141.954 Y67.180 E0.10357 ; perimeter
G1 X142.309 Y67.290 E0.01165 ; perimeter
G1 X143.272 Y67.389 E0.03036 ; perimeter
G1 X145.253 Y66.273 E0.07130 ; perimeter
G1 X147.826 Y66.539 E0.08111 ; perimeter
