; generated by Slic3r 1.37.2.1-prusa3d on 2018-09-10 at 19:33:16

; 

; external perimeters extrusion width = 0.45mm
; perimeters extrusion width = 0.45mm
; infill extrusion width = 0.45mm
; solid infill extrusion width = 0.45mm
; top infill extrusion width = 0.40mm
; first layer extrusion width = 0.42mm

M107 ; disable fan
M115 U3.1.1-RC5 ; tell printer latest fw version
M83  ; extruder relative mode
M104 S215 ; set extruder temp
M140 S60 ; set bed temp
M190 S60 ; wait for bed temp
M109 S215 ; wait for extruder temp
G28 W ; home all without mesh bed level
G80 ; mesh bed leveling
G1 Y-3.0 F1000.0 ; go outside print area
G92 E0.0
G1 X60.0 E9.0  F1000.0 ; intro line
G1 X100.0 E12.5  F1000.0 ; intro line
G92 E0.0
M221 S95
M900 K30
G21 ; set units to millimeters
G90 ; use absolute coordinates
M83 ; use relative distances for extrusion
;BEFORE_LAYER_CHANGE
;0.2


G1 E-0.80000 F2100.00000 ; retract
G1 Z0.600 F12000.000 ; lift Z
;AFTER_LAYER_CHANGE
;0.2
G1 X94.227 Y74.194 F12000.000 ; move to first skirt point
G1 Z0.200 F12000.000 ; restore layer Z
G1 E0.80000 F2100.00000 ; unretract
M204 S1000 ; adjust acceleration
G1 F1800
G1 X94.929 Y73.360 E0.03417 ; skirt
G1 X95.721 Y72.600 E0.03442 ; skirt
G1 X96.589 Y71.928 E0.03442 ; skirt
G1 X97.523 Y71.352 E0.03442 ; skirt
G1 X98.513 Y70.877 E0.03442 ; skirt
G1 X99.548 Y70.509 E0.03442 ; skirt
G1 X100.615 Y70.253 E0.03442 ; skirt
G1 X101.704 Y70.111 E0.03442 ; skirt
G1 X147.508 Y70.080 E1.43617 ; skirt
G1 X149.368 Y70.250 E0.05856 ; skirt
G1 X151.175 Y70.753 E0.05881 ; skirt
G1 X152.862 Y71.573 E0.05881 ; skirt
G1 X154.367 Y72.678 E0.05856 ; skirt
G1 X155.651 Y74.035 E0.05856 ; skirt
G1 X156.674 Y75.607 E0.05881 ; skirt
G1 X157.395 Y77.330 E0.05856 ; skirt
G1 X157.796 Y79.162 E0.05881 ; skirt
G1 X157.877 Y80.440 E0.04015 ; skirt
G1 X157.871 Y129.909 E1.55105 ; skirt
G1 X157.694 Y131.481 E0.04961 ; skirt
G1 X157.279 Y133.016 E0.04986 ; skirt
G1 X156.633 Y134.469 E0.04986 ; skirt
G1 X155.773 Y135.806 E0.04986 ; skirt
G1 X155.032 Y136.680 E0.03591 ; skirt
G1 X154.194 Y137.472 E0.03616 ; skirt
G1 X153.273 Y138.166 E0.03616 ; skirt
G1 X152.280 Y138.753 E0.03616 ; skirt
G1 X151.228 Y139.227 E0.03616 ; skirt
G1 X150.131 Y139.581 E0.03616 ; skirt
G1 X149.000 Y139.811 E0.03616 ; skirt
G1 X147.852 Y139.914 E0.03616 ; skirt
G1 X102.078 Y139.911 E1.43519 ; skirt
G1 X100.515 Y139.728 E0.04936 ; skirt
G1 X98.997 Y139.310 E0.04936 ; skirt
G1 X97.560 Y138.668 E0.04936 ; skirt
G1 X96.236 Y137.816 E0.04936 ; skirt
G1 X95.357 Y137.070 E0.03616 ; skirt
G1 X94.565 Y136.230 E0.03616 ; skirt
G1 X93.872 Y135.308 E0.03616 ; skirt
G1 X93.282 Y134.308 E0.03641 ; skirt
G1 X92.810 Y133.256 E0.03616 ; skirt
G1 X92.456 Y132.150 E0.03641 ; skirt
G1 X92.229 Y131.019 E0.03616 ; skirt
G1 X92.128 Y129.870 E0.03616 ; skirt
G1 X92.130 Y80.068 E1.56152 ; skirt
G1 X92.310 Y78.496 E0.04961 ; skirt
G1 X92.727 Y76.969 E0.04961 ; skirt
G1 X93.371 Y75.524 E0.04961 ; skirt
G1 X94.194 Y74.244 E0.04773 ; skirt
G1 F9600
G1 X94.929 Y73.360 E-0.23885 ; wipe and retract
G1 F9600
G1 X95.721 Y72.600 E-0.22813 ; wipe and retract
G1 F9600
G1 X96.589 Y71.928 E-0.22813 ; wipe and retract
G1 F9600
G1 X96.855 Y71.764 E-0.06490 ; wipe and retract
G1 E-0.04000 F2100.00000 ; retract
G1 Z0.800 F12000.000 ; lift Z
G1 X136.139 Y103.929 F12000.000 ; move to first brim point
G1 Z0.200 F12000.000 ; restore layer Z
G1 E0.80000 F2100.00000 ; unretract
G1 F1800
G1 X136.288 Y105.074 E0.03619 ; brim
G1 X136.175 Y106.065 E0.03126 ; brim
G1 X148.520 Y106.097 E0.38707 ; brim
G1 X150.164 Y106.450 E0.05273 ; brim
G1 X151.685 Y107.110 E0.05198 ; brim
G1 X154.173 Y109.269 E0.10328 ; brim
G1 X155.425 Y111.418 E0.07799 ; brim
G1 X155.984 Y113.803 E0.07681 ; brim
G1 X155.984 Y130.220 E0.51474 ; brim
G1 X155.401 Y132.726 E0.08068 ; brim
G1 X154.064 Y134.962 E0.08170 ; brim
G1 X152.659 Y136.312 E0.06110 ; brim
G1 X151.041 Y137.297 E0.05938 ; brim
G1 X148.186 Y138.027 E0.09238 ; brim
G1 X101.823 Y138.027 E1.45370 ; brim
G1 X99.317 Y137.443 E0.08068 ; brim
G1 X97.080 Y136.106 E0.08170 ; brim
G1 X95.730 Y134.701 E0.06110 ; brim
G1 X94.746 Y133.083 E0.05938 ; brim
G1 X94.016 Y130.229 E0.09238 ; brim
G1 X94.016 Y113.890 E0.51230 ; brim
G1 X94.444 Y111.774 E0.06769 ; brim
G1 X95.434 Y109.786 E0.06963 ; brim
G1 X97.679 Y107.522 E0.09995 ; brim
G1 X99.495 Y106.572 E0.06426 ; brim
G1 X101.447 Y106.102 E0.06296 ; brim
G1 X113.863 Y106.065 E0.38929 ; brim
G1 X113.713 Y104.932 E0.03583 ; brim
G1 X113.825 Y103.938 E0.03135 ; brim
G1 X101.471 Y103.898 E0.38735 ; brim
G1 X98.915 Y103.190 E0.08315 ; brim
G1 X97.109 Y102.043 E0.06708 ; brim
G1 X95.640 Y100.493 E0.06698 ; brim
G1 X94.511 Y98.413 E0.07421 ; brim
G1 X94.016 Y96.125 E0.07339 ; brim
G1 X94.016 Y79.780 E0.51247 ; brim
G1 X94.599 Y77.274 E0.08068 ; brim
G1 X95.936 Y75.038 E0.08170 ; brim
G1 X97.341 Y73.688 E0.06110 ; brim
G1 X98.959 Y72.703 E0.05938 ; brim
G1 X101.814 Y71.973 E0.09239 ; brim
G1 X148.161 Y71.977 E1.45317 ; brim
G1 X149.897 Y72.284 E0.05529 ; brim
G1 X151.547 Y72.948 E0.05577 ; brim
G1 X153.647 Y74.589 E0.08355 ; brim
G1 X155.091 Y76.592 E0.07743 ; brim
G1 X155.876 Y78.943 E0.07771 ; brim
G1 X155.985 Y96.124 E0.53873 ; brim
G1 X155.414 Y98.608 E0.07990 ; brim
G1 X154.237 Y100.659 E0.07414 ; brim
G1 X152.686 Y102.206 E0.06869 ; brim
G1 X150.835 Y103.296 E0.06736 ; brim
G1 X148.719 Y103.876 E0.06881 ; brim
G1 X136.199 Y103.929 E0.39255 ; brim
G1 X135.710 Y103.554 F12000.000 ; move to first brim point
G1 F1800
G1 X135.911 Y105.098 E0.04883 ; brim
G1 X135.748 Y106.441 E0.04240 ; brim
G1 X148.461 Y106.470 E0.39860 ; brim
G1 X150.032 Y106.804 E0.05034 ; brim
G1 X151.508 Y107.445 E0.05048 ; brim
G1 X153.864 Y109.486 E0.09773 ; brim
G1 X155.065 Y111.532 E0.07440 ; brim
G1 X155.607 Y113.825 E0.07386 ; brim
G1 X155.607 Y130.198 E0.51336 ; brim
G1 X155.041 Y132.610 E0.07771 ; brim
G1 X153.754 Y134.746 E0.07816 ; brim
G1 X152.414 Y136.025 E0.05810 ; brim
G1 X150.870 Y136.960 E0.05659 ; brim
G1 X148.163 Y137.650 E0.08759 ; brim
G1 X101.845 Y137.650 E1.45227 ; brim
G1 X99.432 Y137.083 E0.07771 ; brim
G1 X97.297 Y135.797 E0.07816 ; brim
G1 X96.017 Y134.456 E0.05810 ; brim
G1 X95.083 Y132.912 E0.05659 ; brim
G1 X94.393 Y130.206 E0.08759 ; brim
G1 X94.393 Y113.909 E0.51096 ; brim
G1 X94.808 Y111.874 E0.06512 ; brim
G1 X95.757 Y109.982 E0.06636 ; brim
G1 X97.925 Y107.809 E0.09624 ; brim
G1 X99.606 Y106.932 E0.05944 ; brim
G1 X101.470 Y106.479 E0.06016 ; brim
G1 X114.293 Y106.441 E0.40203 ; brim
G1 X114.090 Y104.907 E0.04852 ; brim
G1 X114.252 Y103.562 E0.04246 ; brim
G1 X101.546 Y103.528 E0.39837 ; brim
G1 X99.092 Y102.856 E0.07977 ; brim
G1 X97.365 Y101.766 E0.06402 ; brim
G1 X95.958 Y100.290 E0.06394 ; brim
G1 X94.873 Y98.305 E0.07092 ; brim
G1 X94.393 Y96.104 E0.07063 ; brim
G1 X94.393 Y79.802 E0.51114 ; brim
G1 X94.959 Y77.390 E0.07771 ; brim
G1 X96.246 Y75.254 E0.07816 ; brim
G1 X97.586 Y73.975 E0.05810 ; brim
G1 X99.130 Y73.040 E0.05659 ; brim
G1 X101.837 Y72.350 E0.08760 ; brim
G1 X148.144 Y72.354 E1.45191 ; brim
G1 X149.811 Y72.651 E0.05310 ; brim
G1 X151.380 Y73.287 E0.05309 ; brim
G1 X153.392 Y74.868 E0.08023 ; brim
G1 X154.767 Y76.788 E0.07403 ; brim
G1 X155.509 Y79.033 E0.07412 ; brim
G1 X155.608 Y96.104 E0.53528 ; brim
G1 X155.053 Y98.495 E0.07696 ; brim
G1 X153.953 Y100.410 E0.06925 ; brim
G1 X152.473 Y101.894 E0.06570 ; brim
G1 X150.710 Y102.940 E0.06427 ; brim
G1 X148.692 Y103.499 E0.06566 ; brim
G1 X135.770 Y103.554 E0.40515 ; brim
G1 X135.281 Y103.179 F12000.000 ; move to first brim point
G1 F1800
G1 X135.533 Y105.123 E0.06145 ; brim
G1 X135.320 Y106.817 E0.05356 ; brim
G1 X148.402 Y106.843 E0.41019 ; brim
G1 X149.934 Y107.169 E0.04912 ; brim
G1 X151.331 Y107.779 E0.04779 ; brim
G1 X153.555 Y109.705 E0.09225 ; brim
G1 X154.705 Y111.648 E0.07080 ; brim
G1 X155.230 Y113.847 E0.07089 ; brim
G1 X155.230 Y130.176 E0.51197 ; brim
G1 X154.681 Y132.494 E0.07471 ; brim
G1 X153.445 Y134.528 E0.07460 ; brim
G1 X152.170 Y135.737 E0.05511 ; brim
G1 X150.699 Y136.622 E0.05381 ; brim
G1 X148.140 Y137.273 E0.08281 ; brim
G1 X101.867 Y137.273 E1.45085 ; brim
G1 X99.548 Y136.723 E0.07471 ; brim
G1 X97.515 Y135.488 E0.07460 ; brim
G1 X96.306 Y134.212 E0.05511 ; brim
G1 X95.420 Y132.742 E0.05381 ; brim
G1 X94.770 Y130.182 E0.08281 ; brim
G1 X94.770 Y113.928 E0.50962 ; brim
G1 X95.173 Y111.975 E0.06253 ; brim
G1 X96.080 Y110.179 E0.06309 ; brim
G1 X98.125 Y108.130 E0.09077 ; brim
G1 X99.760 Y107.278 E0.05780 ; brim
G1 X101.537 Y106.851 E0.05731 ; brim
G1 X114.723 Y106.817 E0.41344 ; brim
G1 X114.467 Y104.882 E0.06120 ; brim
G1 X114.680 Y103.186 E0.05359 ; brim
G1 X101.620 Y103.157 E0.40948 ; brim
G1 X99.269 Y102.521 E0.07639 ; brim
G1 X97.621 Y101.488 E0.06097 ; brim
G1 X96.276 Y100.086 E0.06091 ; brim
G1 X95.235 Y98.197 E0.06761 ; brim
G1 X94.770 Y96.084 E0.06786 ; brim
G1 X94.770 Y79.824 E0.50980 ; brim
G1 X95.319 Y77.506 E0.07471 ; brim
G1 X96.555 Y75.472 E0.07460 ; brim
G1 X97.830 Y74.263 E0.05511 ; brim
G1 X99.301 Y73.378 E0.05381 ; brim
G1 X101.861 Y72.727 E0.08282 ; brim
G1 X148.127 Y72.731 E1.45064 ; brim
G1 X149.724 Y73.019 E0.05090 ; brim
G1 X151.213 Y73.626 E0.05040 ; brim
G1 X153.137 Y75.147 E0.07691 ; brim
G1 X154.443 Y76.983 E0.07063 ; brim
G1 X155.141 Y79.121 E0.07054 ; brim
G1 X155.231 Y96.084 E0.53185 ; brim
G1 X154.692 Y98.382 E0.07401 ; brim
G1 X153.667 Y100.162 E0.06440 ; brim
G1 X152.259 Y101.583 E0.06273 ; brim
G1 X150.584 Y102.584 E0.06119 ; brim
G1 X148.665 Y103.122 E0.06249 ; brim
G1 X135.341 Y103.179 E0.41774 ; brim
G1 X134.853 Y102.803 F12000.000 ; move to first brim point
G1 F1800
G1 X135.156 Y105.146 E0.07408 ; brim
G1 X134.889 Y107.194 E0.06473 ; brim
G1 X148.344 Y107.216 E0.42185 ; brim
G1 X149.801 Y107.522 E0.04670 ; brim
G1 X151.154 Y108.113 E0.04629 ; brim
G1 X153.247 Y109.924 E0.08678 ; brim
G1 X154.345 Y111.765 E0.06720 ; brim
G1 X154.853 Y113.870 E0.06789 ; brim
G1 X154.853 Y130.153 E0.51056 ; brim
G1 X154.321 Y132.377 E0.07169 ; brim
G1 X153.138 Y134.309 E0.07104 ; brim
G1 X151.927 Y135.448 E0.05213 ; brim
G1 X150.530 Y136.284 E0.05105 ; brim
G1 X148.116 Y136.896 E0.07806 ; brim
G1 X101.889 Y136.896 E1.44941 ; brim
G1 X99.666 Y136.364 E0.07169 ; brim
G1 X97.734 Y135.180 E0.07104 ; brim
G1 X96.594 Y133.969 E0.05213 ; brim
G1 X95.758 Y132.572 E0.05105 ; brim
G1 X95.147 Y130.159 E0.07806 ; brim
G1 X95.147 Y113.948 E0.50828 ; brim
G1 X95.536 Y112.077 E0.05992 ; brim
G1 X96.403 Y110.377 E0.05982 ; brim
G1 X98.326 Y108.451 E0.08536 ; brim
G1 X99.871 Y107.639 E0.05472 ; brim
G1 X101.603 Y107.223 E0.05587 ; brim
G1 X115.153 Y107.193 E0.42484 ; brim
G1 X114.844 Y104.857 E0.07388 ; brim
G1 X115.110 Y102.810 E0.06474 ; brim
G1 X101.694 Y102.787 E0.42067 ; brim
G1 X99.444 Y102.186 E0.07301 ; brim
G1 X97.876 Y101.209 E0.05793 ; brim
G1 X96.593 Y99.881 E0.05788 ; brim
G1 X95.597 Y98.088 E0.06429 ; brim
G1 X95.147 Y96.063 E0.06506 ; brim
G1 X95.147 Y79.847 E0.50845 ; brim
G1 X95.679 Y77.623 E0.07169 ; brim
G1 X96.862 Y75.691 E0.07104 ; brim
G1 X98.073 Y74.552 E0.05213 ; brim
G1 X99.470 Y73.716 E0.05105 ; brim
G1 X101.884 Y73.104 E0.07807 ; brim
G1 X148.110 Y73.108 E1.44938 ; brim
G1 X149.600 Y73.375 E0.04747 ; brim
G1 X151.045 Y73.965 E0.04893 ; brim
G1 X152.881 Y75.425 E0.07355 ; brim
G1 X154.118 Y77.176 E0.06723 ; brim
G1 X154.773 Y79.209 E0.06697 ; brim
G1 X154.853 Y96.063 E0.52845 ; brim
G1 X154.332 Y98.268 E0.07104 ; brim
G1 X153.354 Y99.951 E0.06104 ; brim
G1 X152.009 Y101.299 E0.05971 ; brim
G1 X150.413 Y102.247 E0.05818 ; brim
G1 X148.589 Y102.752 E0.05937 ; brim
G1 X134.913 Y102.803 E0.42881 ; brim
G1 X134.424 Y102.427 F12000.000 ; move to first brim point
G1 F1800
G1 X134.779 Y105.170 E0.08671 ; brim
G1 X134.458 Y107.570 E0.07593 ; brim
G1 X148.286 Y107.589 E0.43358 ; brim
G1 X149.669 Y107.875 E0.04427 ; brim
G1 X150.977 Y108.447 E0.04478 ; brim
G1 X152.939 Y110.144 E0.08131 ; brim
G1 X154.007 Y111.933 E0.06535 ; brim
G1 X154.476 Y113.892 E0.06315 ; brim
G1 X154.476 Y130.131 E0.50918 ; brim
G1 X153.984 Y132.207 E0.06688 ; brim
G1 X152.860 Y134.053 E0.06776 ; brim
G1 X151.715 Y135.135 E0.04940 ; brim
G1 X150.360 Y135.947 E0.04953 ; brim
G1 X148.093 Y136.518 E0.07330 ; brim
G1 X101.911 Y136.518 E1.44800 ; brim
G1 X99.836 Y136.026 E0.06688 ; brim
G1 X97.990 Y134.902 E0.06776 ; brim
G1 X96.907 Y133.758 E0.04940 ; brim
G1 X96.096 Y132.402 E0.04953 ; brim
G1 X95.524 Y130.136 E0.07330 ; brim
G1 X95.524 Y113.968 E0.50693 ; brim
G1 X95.900 Y112.180 E0.05728 ; brim
G1 X96.724 Y110.576 E0.05655 ; brim
G1 X98.527 Y108.771 E0.07997 ; brim
G1 X100.025 Y107.984 E0.05307 ; brim
G1 X101.669 Y107.595 E0.05296 ; brim
G1 X115.583 Y107.570 E0.43628 ; brim
G1 X115.221 Y104.833 E0.08655 ; brim
G1 X115.542 Y102.433 E0.07592 ; brim
G1 X101.766 Y102.416 E0.43194 ; brim
G1 X99.618 Y101.851 E0.06964 ; brim
G1 X98.130 Y100.929 E0.05488 ; brim
G1 X96.911 Y99.676 E0.05482 ; brim
G1 X95.940 Y97.929 E0.06264 ; brim
G1 X95.524 Y96.043 E0.06058 ; brim
G1 X95.524 Y79.869 E0.50713 ; brim
G1 X96.016 Y77.793 E0.06688 ; brim
G1 X97.140 Y75.947 E0.06776 ; brim
G1 X98.285 Y74.865 E0.04940 ; brim
G1 X99.640 Y74.053 E0.04953 ; brim
G1 X101.907 Y73.481 E0.07331 ; brim
G1 X148.093 Y73.485 E1.44812 ; brim
G1 X149.513 Y73.743 E0.04525 ; brim
G1 X150.877 Y74.303 E0.04622 ; brim
G1 X152.625 Y75.703 E0.07021 ; brim
G1 X153.768 Y77.319 E0.06209 ; brim
G1 X154.406 Y79.297 E0.06515 ; brim
G1 X154.476 Y96.042 E0.52502 ; brim
G1 X153.972 Y98.152 E0.06804 ; brim
G1 X153.041 Y99.739 E0.05767 ; brim
G1 X151.760 Y101.015 E0.05670 ; brim
G1 X150.244 Y101.909 E0.05518 ; brim
G1 X148.514 Y102.381 E0.05625 ; brim
G1 X134.484 Y102.427 E0.43990 ; brim
G1 X133.911 Y102.052 F12000.000 ; move to first brim point
G1 F1800
G1 X134.042 Y102.418 E0.01221 ; brim
G1 X134.402 Y105.193 E0.08774 ; brim
G1 X134.108 Y107.336 E0.06782 ; brim
G1 X133.889 Y107.947 E0.02033 ; brim
G1 X148.228 Y107.962 E0.44960 ; brim
G1 X149.572 Y108.241 E0.04303 ; brim
G1 X150.799 Y108.781 E0.04203 ; brim
G1 X152.631 Y110.364 E0.07592 ; brim
G1 X153.647 Y112.051 E0.06174 ; brim
G1 X154.099 Y113.914 E0.06013 ; brim
G1 X154.099 Y130.109 E0.50777 ; brim
G1 X153.624 Y132.090 E0.06387 ; brim
G1 X152.583 Y133.796 E0.06267 ; brim
G1 X151.471 Y134.847 E0.04796 ; brim
G1 X150.191 Y135.608 E0.04671 ; brim
G1 X148.070 Y136.141 E0.06857 ; brim
G1 X101.934 Y136.141 E1.44657 ; brim
G1 X99.953 Y135.666 E0.06387 ; brim
G1 X98.247 Y134.625 E0.06267 ; brim
G1 X97.196 Y133.514 E0.04796 ; brim
G1 X96.434 Y132.233 E0.04671 ; brim
G1 X95.901 Y130.112 E0.06857 ; brim
G1 X95.901 Y113.987 E0.50560 ; brim
G1 X96.247 Y112.330 E0.05309 ; brim
G1 X97.046 Y110.774 E0.05483 ; brim
G1 X98.728 Y109.091 E0.07461 ; brim
G1 X100.135 Y108.345 E0.04993 ; brim
G1 X101.734 Y107.967 E0.05151 ; brim
G1 X116.074 Y107.946 E0.44961 ; brim
G1 X115.972 Y107.634 E0.01030 ; brim
G1 X115.598 Y104.809 E0.08935 ; brim
G1 X115.892 Y102.664 E0.06788 ; brim
G1 X116.110 Y102.056 E0.02023 ; brim
G1 X101.837 Y102.045 E0.44751 ; brim
G1 X99.791 Y101.514 E0.06628 ; brim
G1 X98.382 Y100.648 E0.05184 ; brim
G1 X97.227 Y99.469 E0.05177 ; brim
G1 X96.302 Y97.820 E0.05928 ; brim
G1 X95.901 Y96.022 E0.05776 ; brim
G1 X95.901 Y79.891 E0.50577 ; brim
G1 X96.376 Y77.910 E0.06387 ; brim
G1 X97.417 Y76.204 E0.06267 ; brim
G1 X98.529 Y75.153 E0.04796 ; brim
G1 X99.809 Y74.392 E0.04671 ; brim
G1 X101.930 Y73.859 E0.06858 ; brim
G1 X148.076 Y73.862 E1.44685 ; brim
G1 X149.425 Y74.110 E0.04301 ; brim
G1 X150.707 Y74.641 E0.04350 ; brim
G1 X152.367 Y75.979 E0.06686 ; brim
G1 X153.443 Y77.512 E0.05871 ; brim
G1 X154.038 Y79.383 E0.06158 ; brim
G1 X154.099 Y96.020 E0.52164 ; brim
G1 X153.612 Y98.036 E0.06502 ; brim
G1 X152.730 Y99.525 E0.05428 ; brim
G1 X151.512 Y100.730 E0.05370 ; brim
G1 X150.076 Y101.570 E0.05217 ; brim
G1 X148.440 Y102.011 E0.05314 ; brim
G1 X133.971 Y102.051 E0.45365 ; brim
G1 X133.339 Y101.676 F12000.000 ; move to first brim point
G1 F1800
G1 X133.672 Y102.496 E0.02774 ; brim
G1 X134.025 Y105.167 E0.08450 ; brim
G1 X133.738 Y107.264 E0.06633 ; brim
G1 X133.343 Y108.323 E0.03546 ; brim
G1 X148.172 Y108.335 E0.46494 ; brim
G1 X149.439 Y108.594 E0.04055 ; brim
G1 X150.622 Y109.114 E0.04051 ; brim
