; generated by Slic3r Prusa Edition 1.41.0+ on 2018-09-06 at 19:24:24

; 

; external perimeters extrusion width = 0.45mm
; perimeters extrusion width = 0.45mm
; infill extrusion width = 0.45mm
; solid infill extrusion width = 0.45mm
; top infill extrusion width = 0.40mm
; first layer extrusion width = 0.42mm

M201 X9000 Y9000 Z500 E10000 ; sets maximum accelerations, mm/sec^2
M203 X500 Y500 Z12 E120 ; sets maximum feedrates, mm/sec
M204 P1500 R1500 T1500 ; sets acceleration (P, T) and retract acceleration (R), mm/sec^2
M205 X10.00 Y10.00 Z0.20 E2.50 ; sets the jerk limits, mm/sec
M205 S0 T0 ; sets the minimum extruding and travel feed rate, mm/sec
M107
M115 U3.3.1 ; tell printer latest fw version
M201 X1000 Y1000 Z1000 E9000 ; sets maximum accelerations, mm/sec^2
M203 X200 Y200 Z12 E120 ; sets maximum feedrates, mm/sec
M204 S1250 T1250 ; sets acceleration (S) and retract acceleration (T)
M205 X8 Y8 Z0.4 E1.5 ; sets the jerk limits, mm/sec
M205 S0 T0 ; sets the minimum extruding and travel feed rate, mm/sec
M83  ; extruder relative mode
M104 S215 ; set extruder temp
M140 S60 ; set bed temp
M190 S60 ; wait for bed temp
M109 S215 ; wait for extruder temp
G28 W ; home all without mesh bed level
G80 ; mesh bed leveling
G1 Y-3.0 F1000.0 ; go outside print area
G92 E0.0
G1 X60.0 E9.0  F1000.0 ; intro line
G1 X100.0 E12.5  F1000.0 ; intro line
G92 E0.0
M221 S95
M900 K30; Filament gcode
G21 ; set units to millimeters
G90 ; use absolute coordinates
M83 ; use relative distances for extrusion
;BEFORE_LAYER_CHANGE
G92 E0.0
;0.2


G1 E-0.80000 F2100.00000
G1 Z0.600 F10800.000
;AFTER_LAYER_CHANGE
;0.2
G1 X95.385 Y88.260
G1 Z0.200
G1 E0.80000 F2100.00000
M204 S1000
G1 F1200
G1 X96.439 Y87.331 E0.04404
G1 X117.922 Y72.897 E0.81149
G1 X119.303 Y72.138 E0.04941
G1 X121.377 Y71.337 E0.06971
G1 X122.788 Y71.034 E0.04526
G1 X125.004 Y70.829 E0.06978
G1 X127.189 Y71.031 E0.06880
G1 X128.571 Y71.322 E0.04428
G1 X130.622 Y72.104 E0.06881
G1 X131.950 Y72.814 E0.04721
G1 X153.419 Y87.225 E0.81073
G1 X154.331 Y87.983 E0.03720
G1 X155.142 Y88.838 E0.03695
G1 X155.851 Y89.789 E0.03720
G1 X156.443 Y90.817 E0.03720
G1 X156.890 Y91.857 E0.03549
G1 X157.216 Y92.941 E0.03549
G1 X157.418 Y94.055 E0.03549
G1 X157.492 Y95.176 E0.03524
G1 X157.491 Y131.432 E1.13678
G1 X157.320 Y133.124 E0.05332
G1 X156.865 Y134.762 E0.05332
G1 X156.291 Y136.027 E0.04355
G1 X155.547 Y137.200 E0.04355
G1 X154.648 Y138.259 E0.04355
G1 X153.610 Y139.182 E0.04355
G1 X152.455 Y139.953 E0.04355
G1 X151.204 Y140.557 E0.04355
G1 X149.881 Y140.981 E0.04355
G1 X148.513 Y141.217 E0.04355
G1 X147.507 Y141.268 E0.03157
G1 X102.383 Y141.268 E1.41483
G1 X100.675 Y141.100 E0.05380
G1 X99.014 Y140.641 E0.05405
G1 X97.769 Y140.078 E0.04282
G1 X96.614 Y139.351 E0.04282
G1 X95.568 Y138.473 E0.04282
G1 X94.651 Y137.460 E0.04282
G1 X93.881 Y136.332 E0.04282
G1 X93.269 Y135.103 E0.04306
G1 X92.834 Y133.809 E0.04282
G1 X92.579 Y132.467 E0.04282
G1 X92.507 Y131.298 E0.03671
G1 X92.508 Y95.143 E1.13362
G1 X92.677 Y93.443 E0.05356
G1 X93.135 Y91.790 E0.05380
G1 X93.717 Y90.511 E0.04404
G1 X94.471 Y89.327 E0.04404
G1 X95.346 Y88.305 E0.04216
G1 F8640
G1 X96.439 Y87.331 E-0.33804
G1 X97.956 Y86.312 E-0.42196
G1 E-0.04000 F2100.00000
G1 Z0.800 F10800.000
G1 X137.175 Y85.677
G1 Z0.200
G1 E0.80000 F2100.00000
G1 F1200
G1 X148.720 Y85.715 E0.36199
G1 X150.750 Y86.189 E0.06538
G1 X152.833 Y87.237 E0.07310
G1 X154.652 Y88.824 E0.07570
G1 X156.111 Y90.909 E0.07980
G1 X157.116 Y94.436 E0.11499
G1 X157.111 Y111.050 E0.52091
G1 X156.623 Y113.350 E0.07372
G1 X157.116 Y115.462 E0.06798
G1 X157.116 Y132.010 E0.51888
G1 X156.454 Y134.875 E0.09219
G1 X155.116 Y137.189 E0.08380
G1 X153.161 Y139.082 E0.08533
G1 X150.809 Y140.340 E0.08362
G1 X148.225 Y140.891 E0.08287
G1 X101.766 Y140.891 E1.45669
G1 X98.901 Y140.230 E0.09219
G1 X96.587 Y138.891 E0.08381
G1 X94.724 Y136.978 E0.08373
G1 X93.454 Y134.635 E0.08358
G1 X92.893 Y132.079 E0.08202
G1 X92.884 Y115.548 E0.51835
G1 X93.365 Y113.276 E0.07280
G1 X92.884 Y111.004 E0.07280
G1 X92.884 Y94.541 E0.51618
G1 X93.545 Y91.678 E0.09215
G1 X94.932 Y89.301 E0.08628
G1 X96.691 Y87.579 E0.07718
G1 X98.848 Y86.344 E0.07791
G1 X101.212 Y85.726 E0.07662
G1 X112.871 Y85.679 E0.36556
G1 X112.632 Y83.734 E0.06143
G1 X113.061 Y80.765 E0.09407
G1 X114.209 Y77.951 E0.09530
G1 X116.202 Y75.308 E0.10378
G1 X118.741 Y73.331 E0.10091
G1 X121.331 Y72.186 E0.08877
G1 X123.784 Y71.697 E0.07845
G1 X126.038 Y71.688 E0.07068
G1 X128.531 Y72.144 E0.07944
G1 X130.945 Y73.150 E0.08200
G1 X133.767 Y75.276 E0.11077
G1 X135.680 Y77.758 E0.09827
G1 X136.904 Y80.638 E0.09809
G1 X137.369 Y84.138 E0.11073
G1 X137.182 Y85.617 E0.04674
G1 X136.744 Y86.053 F10800.000
G1 F1200
G1 X148.697 Y86.092 E0.37476
G1 X150.641 Y86.550 E0.06265
G1 X152.641 Y87.562 E0.07027
G1 X154.386 Y89.092 E0.07276
G1 X155.783 Y91.099 E0.07667
G1 X156.739 Y94.462 E0.10964
G1 X156.734 Y111.030 E0.51947
G1 X156.236 Y113.354 E0.07453
G1 X156.738 Y115.484 E0.06860
G1 X156.738 Y131.989 E0.51750
G1 X156.093 Y134.762 E0.08928
G1 X154.803 Y136.976 E0.08035
G1 X152.959 Y138.763 E0.08050
G1 X150.704 Y139.977 E0.08031
G1 X148.204 Y140.514 E0.08016
G1 X101.787 Y140.514 E1.45538
G1 X99.014 Y139.869 E0.08928
G1 X96.800 Y138.579 E0.08035
G1 X95.013 Y136.735 E0.08050
G1 X93.798 Y134.480 E0.08032
G1 X93.266 Y132.020 E0.07892
G1 X93.262 Y115.567 E0.51584
G1 X93.751 Y113.276 E0.07347
G1 X93.262 Y110.984 E0.07347
G1 X93.262 Y94.563 E0.51487
G1 X93.906 Y91.791 E0.08924
G1 X95.215 Y89.552 E0.08131
G1 X96.901 Y87.893 E0.07416
G1 X98.968 Y86.702 E0.07482
G1 X101.237 Y86.103 E0.07358
G1 X113.299 Y86.054 E0.37819
G1 X113.009 Y83.762 E0.07244
G1 X113.419 Y80.885 E0.09111
G1 X114.526 Y78.158 E0.09227
G1 X116.488 Y75.555 E0.10221
G1 X118.954 Y73.643 E0.09784
G1 X121.463 Y72.539 E0.08596
G1 X123.839 Y72.071 E0.07594
G1 X125.988 Y72.063 E0.06738
G1 X128.405 Y72.500 E0.07699
G1 X130.778 Y73.489 E0.08062
G1 X133.484 Y75.527 E0.10621
G1 X135.342 Y77.928 E0.09521
G1 X136.546 Y80.761 E0.09651
G1 X136.992 Y84.162 E0.10755
G1 X136.752 Y85.993 E0.05789
G1 X136.312 Y86.428 F10800.000
G1 F1200
G1 X148.673 Y86.469 E0.38757
G1 X150.532 Y86.912 E0.05990
G1 X152.448 Y87.887 E0.06743
G1 X154.120 Y89.359 E0.06982
G1 X155.455 Y91.288 E0.07355
G1 X156.361 Y94.488 E0.10430
G1 X156.357 Y111.010 E0.51802
G1 X155.849 Y113.358 E0.07534
G1 X156.361 Y115.506 E0.06922
G1 X156.361 Y131.967 E0.51612
G1 X155.733 Y134.648 E0.08634
G1 X154.491 Y136.763 E0.07689
G1 X152.717 Y138.473 E0.07728
G1 X150.550 Y139.632 E0.07705
G1 X148.185 Y140.137 E0.07582
G1 X101.809 Y140.137 E1.45407
G1 X99.128 Y139.509 E0.08634
G1 X97.013 Y138.267 E0.07689
G1 X95.303 Y136.492 E0.07728
G1 X94.144 Y134.326 E0.07705
G1 X93.639 Y131.961 E0.07582
G1 X93.639 Y115.588 E0.51336
G1 X94.136 Y113.276 E0.07415
G1 X93.639 Y110.964 E0.07415
G1 X93.639 Y94.585 E0.51355
G1 X94.267 Y91.905 E0.08631
G1 X95.497 Y89.803 E0.07637
G1 X97.111 Y88.207 E0.07115
G1 X99.090 Y87.060 E0.07173
G1 X101.263 Y86.480 E0.07052
G1 X113.729 Y86.430 E0.39084
G1 X113.386 Y83.789 E0.08349
G1 X113.777 Y81.004 E0.08816
G1 X114.842 Y78.365 E0.08922
G1 X116.773 Y75.802 E0.10063
G1 X119.166 Y73.956 E0.09475
G1 X121.595 Y72.893 E0.08314
G1 X123.894 Y72.444 E0.07345
G1 X125.939 Y72.437 E0.06412
G1 X128.279 Y72.856 E0.07453
G1 X130.611 Y73.828 E0.07923
G1 X133.202 Y75.778 E0.10166
G1 X135.005 Y78.099 E0.09214
G1 X136.189 Y80.885 E0.09492
G1 X136.614 Y84.185 E0.10434
G1 X136.320 Y86.369 E0.06908
G1 X135.879 Y86.804 F10800.000
G1 F1200
G1 X148.650 Y86.846 E0.40042
G1 X150.422 Y87.273 E0.05715
G1 X152.217 Y88.186 E0.06315
G1 X153.853 Y89.627 E0.06835
G1 X155.127 Y91.476 E0.07041
G1 X155.984 Y94.514 E0.09898
G1 X155.979 Y110.990 E0.51659
G1 X155.517 Y113.148 E0.06920
G1 X155.450 Y113.313 E0.00560
G1 X155.984 Y115.528 E0.07144
G1 X155.984 Y131.945 E0.51472
G1 X155.373 Y134.533 E0.08339
G1 X154.180 Y136.548 E0.07342
G1 X152.475 Y138.182 E0.07406
G1 X150.396 Y139.287 E0.07380
G1 X148.165 Y139.760 E0.07152
G1 X101.831 Y139.760 E1.45276
G1 X99.243 Y139.149 E0.08339
G1 X97.228 Y137.956 E0.07342
G1 X95.593 Y136.251 E0.07406
G1 X94.489 Y134.172 E0.07380
G1 X94.016 Y131.941 E0.07152
G1 X94.016 Y115.608 E0.51211
G1 X94.522 Y113.276 E0.07483
G1 X94.016 Y110.944 E0.07483
G1 X94.016 Y94.607 E0.51222
G1 X94.627 Y92.019 E0.08338
G1 X95.780 Y90.053 E0.07148
G1 X97.322 Y88.520 E0.06816
G1 X99.213 Y87.417 E0.06864
G1 X101.290 Y86.857 E0.06744
G1 X114.159 Y86.805 E0.40352
G1 X113.763 Y83.815 E0.09457
G1 X114.136 Y81.123 E0.08521
G1 X115.158 Y78.572 E0.08616
G1 X117.059 Y76.050 E0.09903
G1 X119.377 Y74.269 E0.09163
G1 X121.726 Y73.247 E0.08033
G1 X123.948 Y72.818 E0.07096
G1 X125.890 Y72.811 E0.06089
G1 X128.154 Y73.212 E0.07209
G1 X130.404 Y74.143 E0.07635
G1 X132.955 Y76.064 E0.10011
G1 X134.692 Y78.310 E0.08903
G1 X135.819 Y80.959 E0.09025
G1 X136.237 Y84.208 E0.10274
G1 X135.887 Y86.744 E0.08027
G1 X135.359 Y87.179 F10800.000
G1 F1200
G1 X148.626 Y87.223 E0.41598
G1 X150.311 Y87.634 E0.05438
G1 X151.986 Y88.485 E0.05889
G1 X153.586 Y89.894 E0.06686
G1 X154.799 Y91.663 E0.06725
G1 X155.607 Y94.540 E0.09369
G1 X155.602 Y110.969 E0.51514
G1 X155.153 Y113.047 E0.06666
G1 X155.053 Y113.277 E0.00786
G1 X155.607 Y115.551 E0.07338
G1 X155.607 Y131.922 E0.51331
G1 X155.013 Y134.418 E0.08043
G1 X153.900 Y136.294 E0.06840
G1 X152.273 Y137.863 E0.07085
G1 X150.291 Y138.924 E0.07050
G1 X148.145 Y139.383 E0.06881
G1 X101.853 Y139.383 E1.45144
G1 X99.358 Y138.789 E0.08043
G1 X97.482 Y137.676 E0.06840
G1 X95.913 Y136.049 E0.07085
G1 X94.852 Y134.067 E0.07050
G1 X94.393 Y131.921 E0.06881
G1 X94.393 Y115.628 E0.51086
G1 X94.851 Y113.495 E0.06838
G1 X94.945 Y113.276 E0.00750
G1 X94.851 Y113.056 E0.00750
G1 X94.393 Y110.924 E0.06838
G1 X94.393 Y94.629 E0.51091
G1 X94.987 Y92.134 E0.08043
G1 X96.064 Y90.302 E0.06662
G1 X97.534 Y88.833 E0.06517
G1 X99.337 Y87.774 E0.06555
G1 X101.316 Y87.234 E0.06433
G1 X114.589 Y87.180 E0.41618
G1 X114.140 Y83.791 E0.10721
G1 X114.495 Y81.241 E0.08071
G1 X115.474 Y78.779 E0.08309
G1 X117.345 Y76.298 E0.09742
G1 X119.587 Y74.583 E0.08850
G1 X121.856 Y73.602 E0.07753
G1 X124.001 Y73.191 E0.06848
G1 X125.841 Y73.185 E0.05769
G1 X128.030 Y73.569 E0.06966
G1 X130.196 Y74.459 E0.07345
G1 X132.707 Y76.350 E0.09854
G1 X134.378 Y78.521 E0.08590
G1 X135.448 Y81.033 E0.08560
G1 X135.860 Y84.231 E0.10112
G1 X135.502 Y86.772 E0.08045
G1 X135.379 Y87.123 E0.01166
G1 X134.806 Y87.555 F10800.000
G1 F1200
G1 X148.559 Y87.594 E0.43124
G1 X150.161 Y87.981 E0.05166
G1 X151.755 Y88.784 E0.05595
G1 X153.319 Y90.161 E0.06534
G1 X154.470 Y91.850 E0.06407
G1 X155.230 Y94.565 E0.08842
G1 X155.225 Y110.949 E0.51369
G1 X154.789 Y112.945 E0.06406
G1 X154.655 Y113.238 E0.01010
G1 X155.230 Y115.574 E0.07544
G1 X155.230 Y131.900 E0.51188
G1 X154.653 Y134.302 E0.07745
G1 X153.620 Y136.041 E0.06344
G1 X152.071 Y137.543 E0.06765
G1 X150.185 Y138.561 E0.06719
G1 X148.125 Y139.006 E0.06609
G1 X101.876 Y139.006 E1.45010
G1 X99.474 Y138.429 E0.07745
G1 X97.735 Y137.395 E0.06344
G1 X96.232 Y135.847 E0.06765
G1 X95.215 Y133.961 E0.06719
G1 X94.770 Y131.901 E0.06609
G1 X94.770 Y115.648 E0.50959
G1 X95.214 Y113.598 E0.06577
G1 X95.363 Y113.276 E0.01113
G1 X95.214 Y112.954 E0.01113
G1 X94.770 Y110.904 E0.06577
G1 X94.770 Y94.652 E0.50956
G1 X95.347 Y92.250 E0.07744
G1 X96.376 Y90.516 E0.06323
G1 X97.783 Y89.118 E0.06219
G1 X99.505 Y88.112 E0.06253
G1 X101.390 Y87.604 E0.06123
G1 X115.177 Y87.556 E0.43227
G1 X114.940 Y86.957 E0.02017
G1 X114.518 Y83.767 E0.10091
G1 X114.865 Y81.316 E0.07760
G1 X115.791 Y78.986 E0.07864
G1 X117.630 Y76.545 E0.09581
G1 X119.796 Y74.898 E0.08535
G1 X121.986 Y73.957 E0.07472
G1 X124.054 Y73.565 E0.06601
G1 X125.794 Y73.560 E0.05453
G1 X127.907 Y73.926 E0.06725
G1 X129.989 Y74.775 E0.07052
G1 X132.460 Y76.636 E0.09696
G1 X134.064 Y78.731 E0.08276
G1 X135.077 Y81.107 E0.08097
G1 X135.483 Y84.254 E0.09950
G1 X135.132 Y86.695 E0.07733
G1 X134.827 Y87.499 E0.02695
G1 X134.253 Y87.931 F10800.000
G1 F1200
G1 X148.494 Y87.966 E0.44649
G1 X150.013 Y88.328 E0.04896
G1 X151.525 Y89.084 E0.05301
G1 X153.021 Y90.394 E0.06234
G1 X154.141 Y92.037 E0.06234
G1 X154.853 Y94.591 E0.08314
G1 X154.848 Y110.928 E0.51224
G1 X154.426 Y112.841 E0.06141
G1 X154.226 Y113.258 E0.01450
G1 X154.343 Y113.499 E0.00841
G1 X154.853 Y115.597 E0.06768
G1 X154.853 Y131.878 E0.51049
G1 X154.314 Y134.135 E0.07276
G1 X153.338 Y135.789 E0.06022
G1 X151.867 Y137.225 E0.06443
G1 X150.078 Y138.198 E0.06387
G1 X148.104 Y138.629 E0.06334
G1 X101.898 Y138.629 E1.44877
G1 X99.641 Y138.089 E0.07276
G1 X97.987 Y137.114 E0.06022
G1 X96.551 Y135.643 E0.06443
G1 X95.577 Y133.854 E0.06387
G1 X95.147 Y131.880 E0.06334
G1 X95.147 Y115.669 E0.50830
G1 X95.577 Y113.702 E0.06311
G1 X95.784 Y113.276 E0.01486
G1 X95.577 Y112.849 E0.01486
G1 X95.147 Y110.883 E0.06311
G1 X95.147 Y94.674 E0.50823
G1 X95.686 Y92.417 E0.07275
G1 X96.659 Y90.766 E0.06008
G1 X98.031 Y89.402 E0.06065
G1 X99.672 Y88.451 E0.05946
G1 X101.464 Y87.975 E0.05813
G1 X115.746 Y87.931 E0.44782
G1 X115.311 Y86.882 E0.03562
G1 X114.895 Y83.744 E0.09926
G1 X115.235 Y81.392 E0.07448
G1 X116.107 Y79.192 E0.07421
G1 X117.915 Y76.794 E0.09418
G1 X120.005 Y75.212 E0.08217
G1 X122.115 Y74.312 E0.07192
G1 X124.107 Y73.939 E0.06354
G1 X125.746 Y73.934 E0.05141
G1 X127.785 Y74.283 E0.06484
G1 X129.782 Y75.092 E0.06758
G1 X132.212 Y76.921 E0.09536
G1 X133.750 Y78.941 E0.07961
G1 X134.707 Y81.181 E0.07636
G1 X135.105 Y84.276 E0.09786
G1 X134.763 Y86.619 E0.07423
G1 X134.275 Y87.875 E0.04224
G1 X133.699 Y88.307 F10800.000
G1 F1200
G1 X148.429 Y88.338 E0.46183
G1 X149.865 Y88.676 E0.04626
G1 X151.296 Y89.385 E0.05007
G1 X152.723 Y90.626 E0.05931
G1 X153.811 Y92.223 E0.06060
G1 X154.476 Y94.616 E0.07787
G1 X154.471 Y110.907 E0.51079
G1 X154.063 Y112.735 E0.05872
G1 X153.801 Y113.263 E0.01848
G1 X153.983 Y113.613 E0.01239
G1 X154.476 Y115.620 E0.06477
G1 X154.476 Y131.856 E0.50908
G1 X153.974 Y133.969 E0.06809
G1 X153.055 Y135.538 E0.05702
G1 X151.663 Y136.907 E0.06122
G1 X149.970 Y137.836 E0.06054
G1 X148.084 Y138.252 E0.06057
G1 X101.920 Y138.252 E1.44743
G1 X99.807 Y137.750 E0.06809
G1 X98.237 Y136.831 E0.05702
G1 X96.869 Y135.439 E0.06122
G1 X95.940 Y133.746 E0.06054
G1 X95.524 Y131.860 E0.06057
G1 X95.524 Y115.689 E0.50700
G1 X95.940 Y113.808 E0.06041
G1 X96.207 Y113.276 E0.01867
G1 X95.940 Y112.744 E0.01867
G1 X95.524 Y110.862 E0.06041
G1 X95.524 Y94.696 E0.50689
G1 X96.026 Y92.583 E0.06809
G1 X96.943 Y91.015 E0.05695
G1 X98.243 Y89.715 E0.05763
G1 X99.794 Y88.809 E0.05632
G1 X101.537 Y88.345 E0.05656
G1 X116.317 Y88.307 E0.46343
G1 X115.681 Y86.806 E0.05112
G1 X115.272 Y83.771 E0.09602
G1 X115.594 Y81.509 E0.07161
G1 X116.424 Y79.399 E0.07112
G1 X118.200 Y77.042 E0.09254
G1 X120.175 Y75.550 E0.07759
G1 X122.205 Y74.678 E0.06926
G1 X124.159 Y74.313 E0.06234
G1 X125.699 Y74.309 E0.04830
G1 X127.663 Y74.641 E0.06246
G1 X129.576 Y75.408 E0.06461
G1 X131.964 Y77.206 E0.09374
G1 X133.436 Y79.150 E0.07644
G1 X134.336 Y81.255 E0.07178
G1 X134.728 Y84.298 E0.09621
G1 X134.393 Y86.541 E0.07111
G1 X133.721 Y88.251 E0.05759
G1 X133.144 Y88.683 F10800.000
G1 F1200
G1 X148.365 Y88.710 E0.47724
G1 X149.719 Y89.024 E0.04358
G1 X151.067 Y89.685 E0.04709
G1 X152.457 Y90.895 E0.05775
G1 X153.482 Y92.409 E0.05734
G1 X154.099 Y94.642 E0.07263
G1 X154.094 Y110.886 E0.50933
G1 X153.701 Y112.627 E0.05598
G1 X153.374 Y113.268 E0.02257
G1 X153.623 Y113.730 E0.01644
G1 X154.099 Y115.643 E0.06182
G1 X154.099 Y131.834 E0.50767
G1 X153.634 Y133.804 E0.06346
G1 X152.772 Y135.289 E0.05382
G1 X151.457 Y136.590 E0.05802
G1 X149.861 Y137.474 E0.05719
G1 X148.063 Y137.875 E0.05777
G1 X101.942 Y137.875 E1.44609
G1 X99.972 Y137.409 E0.06346
G1 X98.487 Y136.548 E0.05382
G1 X97.185 Y135.233 E0.05802
G1 X96.302 Y133.637 E0.05719
G1 X95.901 Y131.839 E0.05777
G1 X95.901 Y115.710 E0.50569
G1 X96.302 Y113.915 E0.05767
G1 X96.633 Y113.276 E0.02258
G1 X96.303 Y112.636 E0.02257
G1 X95.901 Y110.841 E0.05767
G1 X95.901 Y94.718 E0.50555
G1 X96.366 Y92.748 E0.06346
G1 X97.227 Y91.264 E0.05378
G1 X98.492 Y90.000 E0.05607
G1 X99.960 Y89.148 E0.05321
G1 X101.609 Y88.716 E0.05344
G1 X116.891 Y88.683 E0.47915
