; generated by Slic3r Prusa Edition 1.40.1+ on 2018-09-01 at 22:16:50

; 

; external perimeters extrusion width = 0.45mm
; perimeters extrusion width = 0.45mm
; infill extrusion width = 0.45mm
; solid infill extrusion width = 0.45mm
; top infill extrusion width = 0.40mm
; first layer extrusion width = 0.42mm

M107
M115 U3.2.1 ; tell printer latest fw version
M201 X1000 Y1000 Z200 E5000 ; sets maximum accelerations, mm/sec^2
M203 X200 Y200 Z12 E120 ; sets maximum feedrates, mm/sec
M204 S1250 T1250 ; sets acceleration (S) and retract acceleration (T)
M205 X10 Y10 Z0.4 E2.5 ; sets the jerk limits, mm/sec
M205 S0 T0 ; sets the minimum extruding and travel feed rate, mm/sec
M83  ; extruder relative mode
M104 S215 ; set extruder temp
M140 S60 ; set bed temp
M190 S60 ; wait for bed temp
M109 S215 ; wait for extruder temp
G28 W ; home all without mesh bed level
G80 ; mesh bed leveling
G1 Y-3.0 F1000.0 ; go outside print area
G92 E0.0
G1 X60.0 E9.0  F1000.0 ; intro line
G1 X100.0 E12.5  F1000.0 ; intro line
G92 E0.0
M221 S95
M900 K30; Filament gcode
G21 ; set units to millimeters
G90 ; use absolute coordinates
M83 ; use relative distances for extrusion
;BEFORE_LAYER_CHANGE
G92 E0.0
;0.2


G1 E-0.80000 F2100.00000
G1 Z0.600 F10800.000
;AFTER_LAYER_CHANGE
;0.2
G1 X118.671 Y100.008
G1 Z0.200
G1 E0.80000 F2100.00000
M204 S1000
G1 F900
G1 X119.581 Y99.099 E0.04034
G1 X120.741 Y98.395 E0.04255
G1 X121.929 Y98.017 E0.03907
G1 X123.305 Y97.911 E0.04328
G1 X123.905 Y97.966 E0.01889
G1 X127.380 Y98.666 E0.11116
G1 X128.341 Y98.988 E0.03176
G1 X129.107 Y99.367 E0.02681
G1 X130.152 Y100.109 E0.04018
G1 X130.959 Y100.933 E0.03618
G1 X131.697 Y102.028 E0.04140
G1 X132.174 Y103.134 E0.03777
G1 X132.469 Y104.450 E0.04228
G1 X132.495 Y105.842 E0.04364
G1 X132.235 Y107.219 E0.04392
G1 X131.723 Y108.468 E0.04233
G1 X131.058 Y109.488 E0.03818
G1 X130.093 Y110.486 E0.04354
G1 X128.973 Y111.253 E0.04255
G1 X127.717 Y111.785 E0.04277
G1 X126.281 Y112.065 E0.04588
G1 X124.795 Y112.029 E0.04660
G1 X123.219 Y111.621 E0.05104
G1 X121.911 Y110.938 E0.04628
G1 X121.018 Y110.225 E0.03580
G1 X120.147 Y109.225 E0.04158
G1 X118.217 Y106.184 E0.11294
G1 X117.739 Y105.097 E0.03722
G1 X117.491 Y103.745 E0.04311
G1 X117.565 Y102.478 E0.03978
G1 X117.966 Y101.170 E0.04290
G1 X118.640 Y100.060 E0.04073
G1 X118.915 Y100.323 F10800.000
G1 F900
G1 X119.766 Y99.434 E0.03858
G1 X120.858 Y98.757 E0.04028
G1 X121.991 Y98.389 E0.03735
G1 X123.305 Y98.288 E0.04133
G1 X127.283 Y99.030 E0.12690
G1 X128.192 Y99.334 E0.03003
G1 X128.889 Y99.677 E0.02437
G1 X129.896 Y100.387 E0.03862
G1 X130.649 Y101.151 E0.03363
G1 X131.268 Y102.035 E0.03384
G1 X131.790 Y103.173 E0.03925
G1 X132.090 Y104.459 E0.04140
G1 X132.125 Y105.731 E0.03990
G1 X131.943 Y106.858 E0.03581
G1 X131.503 Y108.068 E0.04034
G1 X130.817 Y109.185 E0.04113
G1 X129.940 Y110.121 E0.04020
G1 X129.017 Y110.793 E0.03580
G1 X127.846 Y111.345 E0.04059
G1 X126.324 Y111.682 E0.04888
G1 X124.925 Y111.665 E0.04387
G1 X123.551 Y111.343 E0.04425
G1 X122.177 Y110.662 E0.04809
G1 X121.296 Y109.969 E0.03513
G1 X120.472 Y109.030 E0.03918
G1 X118.618 Y106.119 E0.10822
G1 X118.161 Y105.167 E0.03309
G1 X117.883 Y103.923 E0.03996
G1 X117.919 Y102.647 E0.04004
G1 X118.236 Y101.498 E0.03737
G1 X118.874 Y100.366 E0.04072
G1 X119.169 Y100.599 F10800.000
G1 F900
G1 X120.007 Y99.724 E0.03797
G1 X121.022 Y99.096 E0.03744
G1 X122.070 Y98.758 E0.03452
G1 X123.305 Y98.665 E0.03883
G1 X127.187 Y99.395 E0.12387
G1 X127.877 Y99.614 E0.02269
G1 X128.686 Y99.995 E0.02804
G1 X129.514 Y100.559 E0.03142
G1 X130.352 Y101.383 E0.03685
G1 X130.935 Y102.211 E0.03174
G1 X131.423 Y103.267 E0.03648
G1 X131.709 Y104.460 E0.03847
G1 X131.759 Y105.522 E0.03334
G1 X131.589 Y106.720 E0.03793
G1 X131.168 Y107.894 E0.03912
G1 X130.543 Y108.922 E0.03773
G1 X129.828 Y109.714 E0.03345
G1 X128.867 Y110.444 E0.03784
G1 X127.750 Y110.979 E0.03883
G1 X126.290 Y111.306 E0.04689
G1 X124.974 Y111.291 E0.04128
G1 X123.680 Y110.988 E0.04167
G1 X122.376 Y110.341 E0.04565
G1 X121.554 Y109.694 E0.03280
G1 X120.777 Y108.809 E0.03692
G1 X118.945 Y105.931 E0.10696
G1 X118.527 Y105.072 E0.02996
G1 X118.259 Y103.898 E0.03776
G1 X118.291 Y102.712 E0.03721
G1 X118.583 Y101.645 E0.03467
G1 X119.140 Y100.651 E0.03572
G1 X119.466 Y100.833 F10800.000
G1 F900
G1 X120.244 Y100.017 E0.03537
G1 X121.186 Y99.436 E0.03470
G1 X122.144 Y99.127 E0.03157
G1 X123.304 Y99.042 E0.03647
G1 X127.092 Y99.760 E0.12088
G1 X128.460 Y100.301 E0.04611
G1 X129.258 Y100.836 E0.03013
G1 X130.030 Y101.587 E0.03376
G1 X130.583 Y102.358 E0.02976
G1 X130.993 Y103.192 E0.02914
G1 X131.301 Y104.288 E0.03570
G1 X131.384 Y105.452 E0.03659
G1 X131.227 Y106.613 E0.03673
G1 X130.848 Y107.690 E0.03579
G1 X130.245 Y108.691 E0.03664
G1 X129.585 Y109.426 E0.03097
G1 X128.678 Y110.117 E0.03575
G1 X127.649 Y110.614 E0.03584
G1 X126.434 Y110.910 E0.03921
G1 X125.022 Y110.917 E0.04428
G1 X123.808 Y110.634 E0.03907
G1 X122.575 Y110.021 E0.04318
G1 X121.814 Y109.422 E0.03037
G1 X121.080 Y108.585 E0.03491
G1 X119.270 Y105.739 E0.10574
G1 X118.891 Y104.968 E0.02694
G1 X118.635 Y103.867 E0.03544
G1 X118.663 Y102.775 E0.03426
G1 X118.931 Y101.792 E0.03195
G1 X119.437 Y100.886 E0.03254
G1 F8640
G1 X120.244 Y100.017 E-0.27390
G1 X121.186 Y99.436 E-0.25552
G1 X122.137 Y99.130 E-0.23057
G1 E-0.04000 F2100.00000
G1 Z0.800 F10800.000
G1 X122.390 Y105.466
G1 Z0.200
G1 E0.80000 F2100.00000
G1 F900
G1 X122.558 Y105.515 E0.00551
G1 X122.728 Y105.538 E0.00535
G1 X122.814 Y106.043 E0.01606
G1 X122.890 Y106.260 E0.00722
G1 X122.422 Y105.516 E0.02754
G1 F8640
G1 X122.558 Y105.515 E-0.03149
G1 X122.728 Y105.538 E-0.03942
G1 X122.814 Y106.043 E-0.11829
G1 X122.890 Y106.260 E-0.05313
G1 X122.422 Y105.516 E-0.20285
G1 E-0.35483 F2100.00000
G1 Z0.800 F10800.000
G1 X122.902 Y101.444
G1 Z0.200
G1 E0.80000 F2100.00000
G1 F900
G1 X123.092 Y101.442 E0.00596
G1 X123.092 Y101.682 E0.00753
G1 X122.816 Y101.687 E0.00863
G1 X122.465 Y101.762 E0.01126
G1 X122.286 Y101.831 E0.00601
G1 X122.049 Y101.959 E0.00845
G1 X121.896 Y102.070 E0.00592
G1 X121.699 Y102.258 E0.00854
G1 X121.533 Y102.474 E0.00854
G1 X121.364 Y102.805 E0.01166
G1 X121.287 Y103.066 E0.00854
G1 X121.251 Y103.336 E0.00854
G1 X121.251 Y103.523 E0.00585
G1 X121.272 Y103.715 E0.00605
G1 X121.335 Y103.975 E0.00841
G1 X121.482 Y104.305 E0.01131
G1 X121.639 Y104.534 E0.00871
G1 X121.831 Y104.736 E0.00871
G1 X122.123 Y104.948 E0.01132
G1 X122.373 Y105.067 E0.00871
G1 X122.637 Y105.145 E0.00862
G1 X122.907 Y105.181 E0.00852
G1 X123.096 Y105.182 E0.00596
G1 X123.105 Y105.544 E0.01135
G1 X123.179 Y105.945 E0.01280
G1 X123.315 Y106.330 E0.01279
G1 X123.508 Y106.689 E0.01279
G1 X123.754 Y107.011 E0.01270
G1 X123.948 Y107.206 E0.00862
G1 X124.158 Y107.378 E0.00853
G1 X124.386 Y107.527 E0.00853
G1 X124.629 Y107.652 E0.00856
G1 X125.009 Y107.789 E0.01266
G1 X125.277 Y107.848 E0.00862
G1 X125.547 Y107.878 E0.00853
G1 X125.819 Y107.880 E0.00853
G1 X126.090 Y107.854 E0.00853
G1 X126.357 Y107.799 E0.00853
G1 X126.619 Y107.717 E0.00862
G1 X126.983 Y107.547 E0.01262
G1 X127.215 Y107.399 E0.00861
G1 X127.428 Y107.230 E0.00853
G1 X127.623 Y107.040 E0.00853
G1 X127.798 Y106.828 E0.00861
G1 X128.011 Y106.489 E0.01256
G1 X128.127 Y106.238 E0.00866
G1 X128.214 Y105.980 E0.00853
G1 X128.274 Y105.715 E0.00853
G1 X128.306 Y105.445 E0.00853
G1 X128.310 Y105.173 E0.00853
G1 X128.285 Y104.902 E0.00853
G1 X128.233 Y104.635 E0.00853
G1 X128.153 Y104.375 E0.00853
G1 X128.046 Y104.125 E0.00853
G1 X127.914 Y103.887 E0.00853
G1 X127.758 Y103.664 E0.00853
G1 X127.579 Y103.459 E0.00853
G1 X127.380 Y103.274 E0.00853
G1 X127.163 Y103.110 E0.00853
G1 X126.930 Y102.969 E0.00853
G1 X126.684 Y102.854 E0.00853
G1 X126.424 Y102.764 E0.00862
G1 X126.030 Y102.683 E0.01262
G1 X125.712 Y102.664 E0.01000
G1 X125.712 Y101.995 E0.02097
G1 X126.028 Y102.002 E0.00991
G1 X126.362 Y102.052 E0.01061
G1 X126.690 Y102.138 E0.01061
G1 X127.169 Y102.331 E0.01621
G1 X127.461 Y102.496 E0.01053
G1 X127.873 Y102.805 E0.01612
G1 X128.231 Y103.174 E0.01612
G1 X128.432 Y103.443 E0.01053
G1 X128.685 Y103.893 E0.01621
G1 X128.811 Y104.207 E0.01061
G1 X128.905 Y104.535 E0.01070
G1 X128.964 Y104.871 E0.01070
G1 X128.988 Y105.212 E0.01070
G1 X128.977 Y105.553 E0.01070
G1 X128.930 Y105.891 E0.01070
G1 X128.848 Y106.222 E0.01070
G1 X128.735 Y106.539 E0.01054
G1 X128.498 Y107.000 E0.01628
G1 X128.305 Y107.279 E0.01061
G1 X128.083 Y107.538 E0.01070
G1 X127.836 Y107.773 E0.01070
G1 X127.565 Y107.980 E0.01070
G1 X127.274 Y108.159 E0.01070
G1 X126.967 Y108.306 E0.01070
G1 X126.645 Y108.421 E0.01070
G1 X126.314 Y108.502 E0.01070
G1 X125.976 Y108.548 E0.01070
G1 X125.638 Y108.559 E0.01061
G1 X125.123 Y108.508 E0.01621
G1 X124.793 Y108.432 E0.01061
G1 X124.471 Y108.321 E0.01070
G1 X124.162 Y108.177 E0.01070
G1 X123.873 Y108.004 E0.01054
G1 X123.466 Y107.682 E0.01628
G1 X123.230 Y107.439 E0.01061
G1 X123.019 Y107.172 E0.01069
G1 X121.218 Y104.311 E0.10597
G1 X121.102 Y104.023 E0.00974
G1 X121.052 Y103.828 E0.00632
G1 X121.014 Y103.514 E0.00991
G1 X121.015 Y103.315 E0.00624
G1 X121.085 Y102.899 E0.01322
G1 X121.190 Y102.609 E0.00969
G1 X121.397 Y102.255 E0.01284
G1 X121.601 Y102.018 E0.00982
G1 X121.840 Y101.816 E0.00982
G1 X122.009 Y101.706 E0.00632
G1 X122.292 Y101.572 E0.00982
G1 X122.590 Y101.484 E0.00973
G1 X122.842 Y101.452 E0.00796
G1 X123.008 Y101.601 F10800.000
G1 F8640
G1 X123.092 Y101.442 E-0.05766
G1 X123.092 Y101.682 E-0.05542
G1 X122.816 Y101.687 E-0.06355
G1 X122.465 Y101.762 E-0.08291
G1 X122.286 Y101.831 E-0.04427
G1 X122.049 Y101.959 E-0.06224
G1 X121.896 Y102.070 E-0.04363
G1 X121.699 Y102.258 E-0.06288
G1 X121.533 Y102.474 E-0.06288
G1 X121.364 Y102.805 E-0.08587
G1 X121.287 Y103.066 E-0.06288
G1 X121.251 Y103.336 E-0.06287
G1 X121.251 Y103.392 E-0.01294
G1 E-0.04000 F2100.00000
G1 Z0.800 F10800.000
G1 X125.900 Y102.329
G1 Z0.200
G1 E0.80000 F2100.00000
G1 F900
G1 X126.504 Y102.437 E0.01517
G1 X126.802 Y102.542 E0.00782
G1
G1 X127.082 Y102.669 E0.00738
G1 X127.357 Y102.836 E0.00776
G1 X127.648 Y103.060 E0.00884
G1 X127.973 Y103.394 E0.01120
G1 X128.147 Y103.628 E0.00702
G1 X128.351 Y103.984 E0.00987
G1 X128.472 Y104.266 E0.00739
G1 X128.574 Y104.612 E0.00866
G1 X128.627 Y104.913 E0.00736
G1 X128.647 Y105.168 E0.00615
G1 X128.643 Y105.459 E0.00702
G1 X128.605 Y105.780 E0.00776
G1 X128.537 Y106.079 E0.00739
G1 X128.423 Y106.403 E0.00827
G1 X128.204 Y106.824 E0.01143
G1 X128.036 Y107.072 E0.00718
G1 X127.837 Y107.304 E0.00736
G1 X127.615 Y107.514 E0.00736
G1 X127.405 Y107.678 E0.00642
G1 X127.154 Y107.837 E0.00714
G1 X126.835 Y107.991 E0.00851
G1 X126.548 Y108.095 E0.00736
G1 X126.251 Y108.168 E0.00736
G1 X125.842 Y108.216 E0.00989
G1 X125.535 Y108.213 E0.00739
G1 X125.178 Y108.173 E0.00864
G1 X124.887 Y108.106 E0.00719
G1 X124.503 Y107.964 E0.00985
G1 X124.223 Y107.821 E0.00757
G1 X123.955 Y107.643 E0.00775
G1 X123.693 Y107.430 E0.00812
G1 X123.485 Y107.216 E0.00719
G1 X123.232 Y106.881 E0.01009
G1 X122.969 Y106.431 E0.01254
M106 S255
;BEFORE_LAYER_CHANGE
G92 E0.0
;0.35


G1 F8640
G1 X123.232 Y106.881 E-0.12034
G1 X123.485 Y107.216 E-0.09685
G1 X123.693 Y107.430 E-0.06898
G1 X123.955 Y107.643 E-0.07792
G1 X124.223 Y107.821 E-0.07439
G1 X124.503 Y107.964 E-0.07260
G1 X124.887 Y108.106 E-0.09450
G1 X125.178 Y108.173 E-0.06900
G1 X125.535 Y108.213 E-0.08295
G1 X125.546 Y108.213 E-0.00248
G1 E-0.04000 F2100.00000
G1 Z0.800 F10800.000
;AFTER_LAYER_CHANGE
;0.35
M104 S210 ; set temperature
G1 X120.147 Y109.225
G1 Z0.350
G1 E0.80000 F2100.00000
G1 F900
G1 X118.217 Y106.184 E0.08712
G1 X117.739 Y105.097 E0.02871
G1 X117.491 Y103.745 E0.03325
G1 X117.565 Y102.478 E0.03068
G1 X117.966 Y101.170 E0.03309
G1 X118.671 Y100.008 E0.03287
G1 X119.581 Y99.099 E0.03111
G1 X120.741 Y98.395 E0.03282
G1 X121.929 Y98.017 E0.03013
G1 X123.305 Y97.911 E0.03338
G1 X123.905 Y97.966 E0.01457
G1 X127.380 Y98.666 E0.08574
G1 X128.341 Y98.988 E0.02450
G1 X129.107 Y99.367 E0.02068
G1 X130.152 Y100.109 E0.03099
G1 X130.959 Y100.933 E0.02790
G1 X131.697 Y102.028 E0.03193
G1 X132.174 Y103.134 E0.02914
G1 X132.469 Y104.450 E0.03262
G1 X132.495 Y105.842 E0.03366
G1 X132.235 Y107.219 E0.03388
G1 X131.723 Y108.468 E0.03265
G1 X131.058 Y109.488 E0.02945
G1 X130.093 Y110.486 E0.03358
G1 X128.973 Y111.253 E0.03282
G1 X127.717 Y111.785 E0.03299
G1 X126.281 Y112.065 E0.03539
G1 X124.795 Y112.029 E0.03594
G1 X123.219 Y111.621 E0.03937
G1 X121.911 Y110.938 E0.03570
G1 X121.018 Y110.225 E0.02762
G1 X120.187 Y109.270 E0.03063
G1 F8640
G1 X118.416 Y106.496 E-0.76000
G1 E-0.04000 F2100.00000
G1 Z0.950 F10800.000
G1 X122.733 Y105.912
G1 Z0.350
G1 E0.80000 F2100.00000
M204 S800
G1 F900
G1 X122.431 Y105.431 E0.01479
G1 X122.671 Y105.485 E0.00641
G1 X122.722 Y105.853 E0.00968
M204 S1000
G1 X122.911 Y105.095 F10800.000
M204 S800
G1 F900
G1 X123.081 Y105.096 E0.00443
G1 X123.090 Y105.545 E0.01171
G1 X123.165 Y105.949 E0.01071
G1 X123.300 Y106.333 E0.01061
G1 X123.425 Y106.580 E0.00721
G1 X123.573 Y106.810 E0.00713
G1 X123.745 Y107.023 E0.00713
G1 X123.937 Y107.216 E0.00709
G1 X124.262 Y107.468 E0.01072
G1 X124.619 Y107.664 E0.01061
G1 X124.876 Y107.765 E0.00721
G1 X125.140 Y107.837 E0.00713
G1 X125.410 Y107.882 E0.00713
G1 X125.683 Y107.898 E0.00713
G1 X125.957 Y107.885 E0.00713
G1 X126.227 Y107.845 E0.00713
G1 X126.492 Y107.776 E0.00713
G1 X126.748 Y107.680 E0.00713
G1 X126.993 Y107.558 E0.00713
G1 X127.224 Y107.411 E0.00713
G1 X127.438 Y107.241 E0.00713
G1 X127.634 Y107.050 E0.00713
G1 X127.810 Y106.837 E0.00720
G1 X128.023 Y106.499 E0.01042
G1 X128.141 Y106.243 E0.00732
G1 X128.229 Y105.984 E0.00713
G1 X128.289 Y105.717 E0.00713
G1 X128.321 Y105.446 E0.00713
G1 X128.325 Y105.172 E0.00713
G1 X128.300 Y104.900 E0.00713
G1 X128.247 Y104.631 E0.00713
G1 X128.167 Y104.370 E0.00713
G1 X128.059 Y104.118 E0.00713
G1 X127.927 Y103.879 E0.00713
G1 X127.769 Y103.655 E0.00713
G1 X127.590 Y103.449 E0.00713
G1 X127.390 Y103.262 E0.00713
G1 X127.171 Y103.097 E0.00713
G1 X126.937 Y102.956 E0.00713
G1 X126.689 Y102.840 E0.00713
G1 X126.428 Y102.750 E0.00721
G1 X126.032 Y102.668 E0.01053
G1 X125.727 Y102.649 E0.00797
G1 X125.727 Y102.011 E0.01663
G1 X126.026 Y102.017 E0.00781
G1 X126.359 Y102.067 E0.00877
G1 X126.685 Y102.152 E0.00877
G1 X127.157 Y102.342 E0.01326
G1 X127.456 Y102.510 E0.00893
G1 X127.733 Y102.707 E0.00885
G1 X127.985 Y102.930 E0.00877
G1 X128.323 Y103.315 E0.01334
G1 X128.596 Y103.748 E0.01334
G1 X128.738 Y104.053 E0.00877
G1 X128.848 Y104.374 E0.00885
G1 X128.924 Y104.705 E0.00885
G1 X128.966 Y105.042 E0.00885
G1 X128.972 Y105.382 E0.00885
G1 X128.943 Y105.720 E0.00885
G1 X128.879 Y106.054 E0.00885
G1 X128.781 Y106.379 E0.00885
G1 X128.650 Y106.692 E0.00885
G1 X128.491 Y106.982 E0.00861
G1 X128.184 Y107.404 E0.01358
G1 X127.952 Y107.648 E0.00877
G1 X127.694 Y107.868 E0.00885
G1 X127.414 Y108.061 E0.00885
G1 X127.124 Y108.219 E0.00861
G1 X126.638 Y108.408 E0.01358
G1 X126.311 Y108.487 E0.00877
G1 X125.975 Y108.533 E0.00885
G1 X125.635 Y108.544 E0.00885
G1 X125.296 Y108.519 E0.00885
G1 X124.962 Y108.460 E0.00885
G1 X124.638 Y108.367 E0.00877
G1 X124.166 Y108.162 E0.01342
G1 X123.877 Y107.989 E0.00877
G1 X123.605 Y107.785 E0.00885
G1 X123.356 Y107.554 E0.00885
G1 X123.132 Y107.299 E0.00885
G1 X122.933 Y107.017 E0.00899
G1 X121.231 Y104.305 E0.08343
G1 X121.116 Y104.018 E0.00804
G1 X121.067 Y103.825 E0.00520
G1 X121.029 Y103.517 E0.00808
G1 X121.031 Y103.314 E0.00530
G1 X121.074 Y103.003 E0.00818
G1 X121.202 Y102.619 E0.01054
G1 X121.353 Y102.344 E0.00818
G1 X121.471 Y102.183 E0.00520
G1 X121.689 Y101.956 E0.00818
G1 X121.844 Y101.831 E0.00520
G1 X122.110 Y101.669 E0.00810
G1 X122.395 Y101.552 E0.00803
G1 X122.697 Y101.480 E0.00810
G1 X123.077 Y101.457 E0.00990
G1 X123.077 Y101.769 E0.00810
G1 X122.825 Y101.773 E0.00655
G1 X122.483 Y101.846 E0.00911
G1 X122.093 Y102.032 E0.01127
G1 X121.762 Y102.315 E0.01135
G1 X121.515 Y102.674 E0.01135
G1 X121.370 Y103.084 E0.01135
G1 X121.336 Y103.518 E0.01135
G1 X121.414 Y103.940 E0.01119
G1 X121.517 Y104.190 E0.00705
G1 X121.705 Y104.478 E0.00895
G1 X121.903 Y104.685 E0.00746
G1 X122.166 Y104.873 E0.00843
G1 X122.404 Y104.987 E0.00688
G1 X122.655 Y105.061 E0.00682
