; generated by Slic3r 1.37.2.1-prusa3d on 2018-09-04 at 20:57:00

; 

; external perimeters extrusion width = 0.42mm
; perimeters extrusion width = 0.45mm
; infill extrusion width = 0.45mm
; solid infill extrusion width = 0.45mm
; top infill extrusion width = 0.42mm
; first layer extrusion width = 0.42mm

M107 ; disable fan
M115 U3.1.0 ; tell printer latest fw version
M83  ; extruder relative mode
M104 S215 ; set extruder temp
M140 S55 ; set bed temp
M190 S55 ; wait for bed temp
M109 S215 ; wait for extruder temp
G28 W ; home all without mesh bed level
G80 ; mesh bed leveling
G1 Y-3.0 F1000.0 ; go outside pritn area
G1 X60.0 E9.0  F1000.0 ; intro line
G1 X100.0 E12.5  F1000.0 ; intro line
G92 E0.0
M900 K30
G21 ; set units to millimeters
G90 ; use absolute coordinates
M83 ; use relative distances for extrusion
;BEFORE_LAYER_CHANGE
;0.2


G1 E-0.80000 F2100.00000 ; retract
G1 Z0.600 F7200.000 ; lift Z
;AFTER_LAYER_CHANGE
;0.2
G1 X76.747 Y48.422 F7200.000 ; move to first skirt point
G1 Z0.200 F7200.000 ; restore layer Z
G1 E0.80000 F2100.00000 ; unretract
M204 S1000 ; adjust acceleration
G1 F1800
G1 X77.246 Y47.996 E0.02060 ; skirt
G1 X77.840 Y47.724 E0.02048 ; skirt
G1 X78.489 Y47.623 E0.02060 ; skirt
G1 X171.479 Y47.623 E2.91565 ; skirt
G1 X172.346 Y47.788 E0.02767 ; skirt
G1 X173.096 Y48.261 E0.02778 ; skirt
G1 X173.619 Y48.971 E0.02767 ; skirt
G1 X173.846 Y49.828 E0.02778 ; skirt
G1 X173.853 Y75.264 E0.79755 ; skirt
G1 X173.614 Y76.971 E0.05401 ; skirt
G1 X138.457 Y156.275 E2.71994 ; skirt
G1 X137.817 Y157.377 E0.03992 ; skirt
G1 X137.090 Y158.356 E0.03827 ; skirt
G1 X136.257 Y159.253 E0.03838 ; skirt
G1 X135.337 Y160.049 E0.03814 ; skirt
G1 X134.325 Y160.746 E0.03851 ; skirt
G1 X133.254 Y161.322 E0.03813 ; skirt
G1 X132.123 Y161.779 E0.03826 ; skirt
G1 X130.963 Y162.106 E0.03779 ; skirt
G1 X129.748 Y162.309 E0.03861 ; skirt
G1 X128.571 Y162.377 E0.03696 ; skirt
G1 X120.390 Y162.321 E0.25653 ; skirt
G1 X118.942 Y162.082 E0.04600 ; skirt
G1 X117.871 Y161.777 E0.03491 ; skirt
G1 X116.726 Y161.313 E0.03874 ; skirt
G1 X115.682 Y160.750 E0.03718 ; skirt
G1 X114.772 Y160.129 E0.03456 ; skirt
G1 X113.738 Y159.249 E0.04255 ; skirt
G1 X112.923 Y158.372 E0.03754 ; skirt
G1 X112.258 Y157.484 E0.03480 ; skirt
G1 X111.541 Y156.270 E0.04422 ; skirt
G1 X76.423 Y77.084 E2.71602 ; skirt
G1 X76.147 Y75.248 E0.05821 ; skirt
G1 X76.147 Y49.981 E0.79223 ; skirt
G1 X76.209 Y49.460 E0.01645 ; skirt
G1 X76.383 Y48.969 E0.01633 ; skirt
G1 X76.713 Y48.472 E0.01871 ; skirt
G1 F5760
G1 X77.246 Y47.996 E-0.24756 ; wipe and retract
G1 F5760
G1 X77.840 Y47.724 E-0.22620 ; wipe and retract
G1 F5760
G1 X78.489 Y47.623 E-0.22750 ; wipe and retract
G1 F5760
G1 X78.659 Y47.623 E-0.05874 ; wipe and retract
G1 E-0.04000 F2100.00000 ; retract
G1 Z0.800 F7200.000 ; lift Z
G1 X123.002 Y140.755 F7200.000 ; move to first perimeter point
G1 Z0.200 F7200.000 ; restore layer Z
G1 E0.80000 F2100.00000 ; unretract
G1 F1800
G1 X124.121 Y140.391 E0.03687 ; perimeter
G1 X125.273 Y140.319 E0.03618 ; perimeter
G1 X126.449 Y140.537 E0.03750 ; perimeter
G1 X127.514 Y141.039 E0.03692 ; perimeter
G1 X128.420 Y141.788 E0.03687 ; perimeter
G1 X129.111 Y142.740 E0.03687 ; perimeter
G1 X129.544 Y143.833 E0.03687 ; perimeter
G1 X129.692 Y145.000 E0.03687 ; perimeter
G1 X129.544 Y146.167 E0.03687 ; perimeter
G1 X129.111 Y147.260 E0.03687 ; perimeter
G1 X128.420 Y148.212 E0.03687 ; perimeter
G1 X127.514 Y148.961 E0.03687 ; perimeter
G1 X126.450 Y149.462 E0.03687 ; perimeter
G1 X125.295 Y149.682 E0.03687 ; perimeter
G1 X124.121 Y149.609 E0.03687 ; perimeter
G1 X123.002 Y149.245 E0.03687 ; perimeter
G1 X122.009 Y148.615 E0.03687 ; perimeter
G1 X121.204 Y147.758 E0.03687 ; perimeter
G1 X120.638 Y146.727 E0.03687 ; perimeter
G1 X120.345 Y145.588 E0.03687 ; perimeter
G1 X120.345 Y144.412 E0.03687 ; perimeter
G1 X120.638 Y143.273 E0.03687 ; perimeter
G1 X121.204 Y142.242 E0.03687 ; perimeter
G1 X122.009 Y141.385 E0.03687 ; perimeter
G1 X122.952 Y140.787 E0.03499 ; perimeter
G1 X123.154 Y141.105 F7200.000 ; move to first perimeter point
G1 F1800
G1 X124.192 Y140.765 E0.03426 ; perimeter
G1 X125.250 Y140.698 E0.03323 ; perimeter
G1 X126.332 Y140.899 E0.03451 ; perimeter
G1 X127.310 Y141.360 E0.03390 ; perimeter
G1 X128.143 Y142.048 E0.03389 ; perimeter
G1 X128.778 Y142.923 E0.03389 ; perimeter
G1 X129.176 Y143.928 E0.03389 ; perimeter
G1 X129.312 Y145.000 E0.03389 ; perimeter
G1 X129.176 Y146.072 E0.03389 ; perimeter
G1 X128.778 Y147.077 E0.03389 ; perimeter
G1 X128.143 Y147.952 E0.03389 ; perimeter
G1 X127.310 Y148.640 E0.03389 ; perimeter
G1 X126.332 Y149.101 E0.03389 ; perimeter
G1 X125.271 Y149.303 E0.03389 ; perimeter
G1 X124.192 Y149.235 E0.03389 ; perimeter
G1 X123.164 Y148.901 E0.03389 ; perimeter
G1 X122.252 Y148.322 E0.03389 ; perimeter
G1 X121.512 Y147.534 E0.03389 ; perimeter
G1 X120.991 Y146.587 E0.03389 ; perimeter
G1 X120.722 Y145.540 E0.03389 ; perimeter
G1 X120.722 Y144.460 E0.03389 ; perimeter
G1 X120.991 Y143.413 E0.03389 ; perimeter
G1 X121.512 Y142.466 E0.03389 ; perimeter
G1 X122.252 Y141.678 E0.03389 ; perimeter
G1 X123.103 Y141.137 E0.03162 ; perimeter
G1 X123.186 Y140.707 F7200.000 ; move inwards before travel
G1 F5760
G1 X124.192 Y140.765 E-0.39866 ; wipe and retract
G1 F5760
G1 X125.233 Y140.699 E-0.36134 ; wipe and retract
G1 E-0.04000 F2100.00000 ; retract
G1 Z0.800 F7200.000 ; lift Z
G1 X125.000 Y122.564 F7200.000 ; move to first perimeter point
G1 Z0.200 F7200.000 ; restore layer Z
G1 E0.80000 F2100.00000 ; unretract
G1 F1800
G1 X123.828 Y122.409 E0.03706 ; perimeter
G1 X122.695 Y121.944 E0.03840 ; perimeter
G1 X121.741 Y121.207 E0.03781 ; perimeter
G1 X121.012 Y120.248 E0.03776 ; perimeter
G1 X120.572 Y119.169 E0.03654 ; perimeter
G1 X113.291 Y91.322 E0.90249 ; perimeter
G1 X113.147 Y90.174 E0.03625 ; perimeter
G1 X113.309 Y88.991 E0.03746 ; perimeter
G1 X113.770 Y87.889 E0.03746 ; perimeter
G1 X114.500 Y86.943 E0.03746 ; perimeter
G1 X115.450 Y86.218 E0.03746 ; perimeter
G1 X116.554 Y85.762 E0.03746 ; perimeter
G1 X117.701 Y85.611 E0.03625 ; perimeter
G1 X132.299 Y85.611 E0.45773 ; perimeter
G1 X133.446 Y85.762 E0.03625 ; perimeter
G1 X134.550 Y86.218 E0.03746 ; perimeter
G1 X135.500 Y86.943 E0.03746 ; perimeter
G1 X136.230 Y87.889 E0.03746 ; perimeter
G1 X136.691 Y88.991 E0.03746 ; perimeter
G1 X136.853 Y90.174 E0.03746 ; perimeter
G1 X136.709 Y91.322 E0.03625 ; perimeter
G1 X129.428 Y119.169 E0.90249 ; perimeter
G1 X128.988 Y120.248 E0.03654 ; perimeter
G1 X128.259 Y121.207 E0.03776 ; perimeter
G1 X127.306 Y121.943 E0.03776 ; perimeter
G1 X126.194 Y122.406 E0.03776 ; perimeter
G1 X125.059 Y122.556 E0.03588 ; perimeter
G1 X125.010 Y122.182 F7200.000 ; move to first perimeter point
G1 F1800
G1 X123.926 Y122.041 E0.03427 ; perimeter
G1 X122.886 Y121.614 E0.03527 ; perimeter
G1 X122.011 Y120.939 E0.03465 ; perimeter
G1 X121.342 Y120.060 E0.03463 ; perimeter
G1 X120.930 Y119.050 E0.03420 ; perimeter
G1 X113.662 Y91.250 E0.90094 ; perimeter
G1 X113.527 Y90.176 E0.03393 ; perimeter
G1 X113.676 Y89.091 E0.03436 ; perimeter
G1 X114.099 Y88.080 E0.03436 ; perimeter
G1 X114.769 Y87.212 E0.03436 ; perimeter
G1 X115.640 Y86.547 E0.03436 ; perimeter
G1 X116.653 Y86.129 E0.03436 ; perimeter
G1 X117.725 Y85.988 E0.03393 ; perimeter
G1 X132.275 Y85.988 E0.45618 ; perimeter
G1 X133.347 Y86.129 E0.03393 ; perimeter
G1 X134.360 Y86.547 E0.03436 ; perimeter
G1 X135.231 Y87.212 E0.03436 ; perimeter
G1 X135.901 Y88.080 E0.03436 ; perimeter
G1 X136.324 Y89.091 E0.03436 ; perimeter
G1 X136.473 Y90.176 E0.03436 ; perimeter
G1 X136.338 Y91.250 E0.03393 ; perimeter
G1 X129.070 Y119.050 E0.90094 ; perimeter
G1 X128.658 Y120.060 E0.03420 ; perimeter
G1 X127.989 Y120.939 E0.03463 ; perimeter
G1 X127.115 Y121.614 E0.03463 ; perimeter
G1 X126.095 Y122.038 E0.03463 ; perimeter
G1 X125.070 Y122.174 E0.03243 ; perimeter
G1 X124.811 Y122.529 F7200.000 ; move inwards before travel
G1 F5760
G1 X123.926 Y122.041 E-0.39863 ; wipe and retract
G1 F5760
G1 X122.961 Y121.645 E-0.36137 ; wipe and retract
G1 E-0.04000 F2100.00000 ; retract
G1 Z0.800 F7200.000 ; lift Z
G1 X125.295 Y80.349 F7200.000 ; move to first perimeter point
G1 Z0.200 F7200.000 ; restore layer Z
G1 E0.80000 F2100.00000 ; unretract
G1 F1800
G1 X124.121 Y80.275 E0.03687 ; perimeter
G1 X123.023 Y79.918 E0.03618 ; perimeter
G1 X122.010 Y79.283 E0.03750 ; perimeter
G1 X121.204 Y78.424 E0.03692 ; perimeter
G1 X120.638 Y77.394 E0.03687 ; perimeter
G1 X120.345 Y76.254 E0.03687 ; perimeter
G1 X120.345 Y75.078 E0.03687 ; perimeter
G1 X120.638 Y73.939 E0.03687 ; perimeter
G1 X121.204 Y72.909 E0.03687 ; perimeter
G1 X122.009 Y72.051 E0.03687 ; perimeter
G1 X123.002 Y71.421 E0.03687 ; perimeter
G1 X124.121 Y71.058 E0.03687 ; perimeter
G1 X125.273 Y70.985 E0.03618 ; perimeter
G1 X126.449 Y71.204 E0.03750 ; perimeter
G1 X127.514 Y71.705 E0.03692 ; perimeter
G1 X128.420 Y72.455 E0.03687 ; perimeter
G1 X129.111 Y73.406 E0.03687 ; perimeter
G1 X129.544 Y74.500 E0.03687 ; perimeter
G1 X129.692 Y75.666 E0.03687 ; perimeter
G1 X129.544 Y76.833 E0.03687 ; perimeter
G1 X129.111 Y77.927 E0.03687 ; perimeter
G1 X128.420 Y78.878 E0.03687 ; perimeter
G1 X127.514 Y79.628 E0.03687 ; perimeter
G1 X126.450 Y80.129 E0.03687 ; perimeter
G1 X125.354 Y80.338 E0.03499 ; perimeter
G1 X125.283 Y79.967 F7200.000 ; move to first perimeter point
G1 F1800
G1 X124.192 Y79.902 E0.03426 ; perimeter
G1 X123.184 Y79.574 E0.03323 ; perimeter
G1 X122.252 Y78.989 E0.03451 ; perimeter
G1 X121.512 Y78.201 E0.03390 ; perimeter
G1 X120.991 Y77.254 E0.03389 ; perimeter
G1 X120.722 Y76.207 E0.03389 ; perimeter
G1 X120.722 Y75.126 E0.03389 ; perimeter
G1 X120.991 Y74.079 E0.03389 ; perimeter
G1 X121.512 Y73.132 E0.03389 ; perimeter
G1 X122.252 Y72.344 E0.03389 ; perimeter
G1 X123.164 Y71.765 E0.03389 ; perimeter
G1 X124.192 Y71.431 E0.03389 ; perimeter
G1 X125.250 Y71.365 E0.03323 ; perimeter
G1 X126.332 Y71.566 E0.03451 ; perimeter
G1 X127.310 Y72.026 E0.03390 ; perimeter
G1 X128.143 Y72.715 E0.03389 ; perimeter
G1 X128.778 Y73.589 E0.03389 ; perimeter
G1 X129.176 Y74.594 E0.03389 ; perimeter
G1 X129.312 Y75.666 E0.03389 ; perimeter
G1 X129.176 Y76.739 E0.03389 ; perimeter
G1 X128.778 Y77.744 E0.03389 ; perimeter
G1 X128.143 Y78.618 E0.03389 ; perimeter
G1 X127.310 Y79.307 E0.03389 ; perimeter
G1 X126.332 Y79.767 E0.03389 ; perimeter
G1 X125.342 Y79.956 E0.03162 ; perimeter
G1 X125.106 Y80.326 F7200.000 ; move inwards before travel
G1 F5760
G1 X124.192 Y79.902 E-0.39866 ; wipe and retract
G1 F5760
G1 X123.200 Y79.579 E-0.36134 ; wipe and retract
G1 E-0.04000 F2100.00000 ; retract
G1 Z0.800 F7200.000 ; lift Z
G1 X152.063 Y50.587 F7200.000 ; move to first perimeter point
G1 Z0.200 F7200.000 ; restore layer Z
G1 E0.80000 F2100.00000 ; unretract
G1 F1800
G1 X170.888 Y50.587 E0.59027 ; perimeter
G1 X170.888 Y75.207 E0.77194 ; perimeter
G1 X170.767 Y76.127 E0.02911 ; perimeter
G1 X170.427 Y76.949 E0.02789 ; perimeter
G1 X169.885 Y77.655 E0.02789 ; perimeter
G1 X169.180 Y78.197 E0.02789 ; perimeter
G1 X168.358 Y78.537 E0.02789 ; perimeter
G1 X167.437 Y78.658 E0.02911 ; perimeter
G1 X163.439 Y78.658 E0.12536 ; perimeter
G1 X162.542 Y78.471 E0.02875 ; perimeter
G1 X161.524 Y78.404 E0.03198 ; perimeter
G1 X160.489 Y78.486 E0.03254 ; perimeter
G1 X159.513 Y78.701 E0.03134 ; perimeter
G1 X158.558 Y79.058 E0.03196 ; perimeter
G1 X157.663 Y79.545 E0.03196 ; perimeter
G1 X156.846 Y80.154 E0.03196 ; perimeter
G1 X156.122 Y80.871 E0.03196 ; perimeter
G1 X155.506 Y81.683 E0.03196 ; perimeter
G1 X155.011 Y82.574 E0.03196 ; perimeter
G1 X154.645 Y83.525 E0.03196 ; perimeter
G1 X154.428 Y84.469 E0.03038 ; perimeter
G1 X136.436 Y153.289 E2.23031 ; perimeter
G1 X136.158 Y154.157 E0.02858 ; perimeter
G1 X135.792 Y154.975 E0.02808 ; perimeter
G1 X135.340 Y155.747 E0.02808 ; perimeter
G1 X134.806 Y156.466 E0.02808 ; perimeter
G1 X134.196 Y157.122 E0.02808 ; perimeter
G1 X133.518 Y157.707 E0.02808 ; perimeter
G1 X132.796 Y158.205 E0.02750 ; perimeter
G1 X131.991 Y158.639 E0.02868 ; perimeter
G1 X131.161 Y158.974 E0.02806 ; perimeter
G1 X130.299 Y159.216 E0.02808 ; perimeter
G1 X129.416 Y159.363 E0.02808 ; perimeter
G1 X128.505 Y159.413 E0.02858 ; perimeter
G1 X121.495 Y159.413 E0.21981 ; perimeter
G1 X120.584 Y159.363 E0.02858 ; perimeter
G1 X119.701 Y159.216 E0.02808 ; perimeter
G1 X118.839 Y158.974 E0.02808 ; perimeter
G1 X118.008 Y158.639 E0.02808 ; perimeter
G1 X117.220 Y158.215 E0.02808 ; perimeter
G1 X116.482 Y157.707 E0.02808 ; perimeter
G1 X115.804 Y157.122 E0.02808 ; perimeter
G1 X115.194 Y156.466 E0.02808 ; perimeter
G1 X114.660 Y155.747 E0.02808 ; perimeter
G1 X114.208 Y154.975 E0.02808 ; perimeter
G1 X113.842 Y154.157 E0.02808 ; perimeter
G1 X113.564 Y153.289 E0.02858 ; perimeter
G1 X95.572 Y84.469 E2.23031 ; perimeter
G1 X95.355 Y83.525 E0.03038 ; perimeter
G1 X94.989 Y82.574 E0.03196 ; perimeter
G1 X94.494 Y81.683 E0.03196 ; perimeter
G1 X93.878 Y80.871 E0.03196 ; perimeter
G1 X93.154 Y80.154 E0.03196 ; perimeter
G1 X92.337 Y79.545 E0.03196 ; perimeter
G1 X91.442 Y79.058 E0.03196 ; perimeter
G1 X90.487 Y78.701 E0.03196 ; perimeter
G1 X89.492 Y78.481 E0.03196 ; perimeter
G1 X88.475 Y78.404 E0.03196 ; perimeter
G1 X87.458 Y78.471 E0.03196 ; perimeter
G1 X86.561 Y78.658 E0.02875 ; perimeter
G1 X82.563 Y78.658 E0.12536 ; perimeter
G1 X81.642 Y78.537 E0.02911 ; perimeter
G1 X80.821 Y78.197 E0.02789 ; perimeter
G1 X80.115 Y77.655 E0.02789 ; perimeter
G1 X79.573 Y76.949 E0.02789 ; perimeter
G1 X79.233 Y76.127 E0.02789 ; perimeter
G1 X79.112 Y75.207 E0.02911 ; perimeter
G1 X79.112 Y50.587 E0.77194 ; perimeter
G1 X97.937 Y50.587 E0.59027 ; perimeter
G1 X97.937 Y61.370 E0.33810 ; perimeter
G1 X98.089 Y62.520 E0.03637 ; perimeter
G1 X98.548 Y63.628 E0.03759 ; perimeter
G1 X99.277 Y64.579 E0.03759 ; perimeter
G1 X100.228 Y65.309 E0.03759 ; perimeter
G1 X101.336 Y65.768 E0.03759 ; perimeter
G1 X102.486 Y65.919 E0.03637 ; perimeter
G1 X147.514 Y65.919 E1.41182 ; perimeter
G1 X148.664 Y65.768 E0.03637 ; perimeter
G1 X149.772 Y65.309 E0.03759 ; perimeter
G1 X150.723 Y64.579 E0.03759 ; perimeter
G1 X151.452 Y63.628 E0.03759 ; perimeter
G1 X151.911 Y62.520 E0.03759 ; perimeter
G1 X152.063 Y61.370 E0.03637 ; perimeter
G1 X152.063 Y50.647 E0.33622 ; perimeter
G1 X151.686 Y50.210 F7200.000 ; move to first perimeter point
G1 F1800
G1 X171.266 Y50.210 E0.61392 ; perimeter
G1 X171.266 Y75.232 E0.78454 ; perimeter
G1 X171.135 Y76.226 E0.03144 ; perimeter
G1 X170.756 Y77.139 E0.03101 ; perimeter
G1 X170.154 Y77.924 E0.03101 ; perimeter
G1 X169.370 Y78.526 E0.03101 ; perimeter
G1 X168.456 Y78.905 E0.03101 ; perimeter
G1 X167.462 Y79.035 E0.03144 ; perimeter
G1 X163.400 Y79.035 E0.12735 ; perimeter
G1 X162.490 Y78.845 E0.02914 ; perimeter
G1 X161.526 Y78.782 E0.03029 ; perimeter
G1 X160.545 Y78.859 E0.03087 ; perimeter
G1 X159.620 Y79.063 E0.02969 ; perimeter
G1 X158.715 Y79.401 E0.03029 ; perimeter
G1 X157.867 Y79.864 E0.03029 ; perimeter
G1 X157.092 Y80.440 E0.03028 ; perimeter
G1 X156.406 Y81.120 E0.03029 ; perimeter
G1 X155.823 Y81.890 E0.03029 ; perimeter
G1 X155.353 Y82.734 E0.03029 ; perimeter
G1 X155.007 Y83.636 E0.03029 ; perimeter
G1 X154.794 Y84.559 E0.02972 ; perimeter
G1 X136.798 Y153.394 E2.23081 ; perimeter
G1 X136.510 Y154.292 E0.02956 ; perimeter
G1 X136.128 Y155.147 E0.02938 ; perimeter
G1 X135.655 Y155.956 E0.02938 ; perimeter
G1 X135.096 Y156.708 E0.02938 ; perimeter
G1 X134.458 Y157.394 E0.02938 ; perimeter
G1 X133.749 Y158.006 E0.02938 ; perimeter
G1 X132.993 Y158.527 E0.02878 ; perimeter
G1 X132.152 Y158.981 E0.02997 ; perimeter
G1 X131.283 Y159.332 E0.02937 ; perimeter
G1 X130.381 Y159.585 E0.02938 ; perimeter
G1 X129.457 Y159.738 E0.02938 ; perimeter
G1 X128.516 Y159.790 E0.02956 ; perimeter
G1 X121.484 Y159.790 E0.22046 ; perimeter
G1 X120.543 Y159.738 E0.02956 ; perimeter
G1 X119.619 Y159.585 E0.02938 ; perimeter
G1 X118.717 Y159.332 E0.02938 ; perimeter
G1 X117.848 Y158.981 E0.02938 ; perimeter
G1 X117.023 Y158.537 E0.02938 ; perimeter
G1 X116.251 Y158.006 E0.02938 ; perimeter
G1 X115.542 Y157.394 E0.02938 ; perimeter
G1 X114.904 Y156.708 E0.02938 ; perimeter
