; generated by Slic3r 1.37.2.1-prusa3d on 2018-09-09 at 10:52:19

; 

; external perimeters extrusion width = 0.42mm
; perimeters extrusion width = 0.45mm
; infill extrusion width = 0.45mm
; solid infill extrusion width = 0.45mm
; top infill extrusion width = 0.42mm
; first layer extrusion width = 0.42mm

M107 ; disable fan
M115 U3.1.0 ; tell printer latest fw version
M83  ; extruder relative mode
M104 S215 ; set extruder temp
M140 S55 ; set bed temp
M190 S55 ; wait for bed temp
M109 S215 ; wait for extruder temp
G28 W ; home all without mesh bed level
G80 ; mesh bed leveling
G1 Y-3.0 F1000.0 ; go outside pritn area
G1 X60.0 E9.0  F1000.0 ; intro line
G1 X100.0 E12.5  F1000.0 ; intro line
G92 E0.0
M900 K30
G21 ; set units to millimeters
G90 ; use absolute coordinates
M83 ; use relative distances for extrusion
;BEFORE_LAYER_CHANGE
;0.2


G1 E-0.80000 F2100.00000 ; retract
G1 Z0.600 F7200.000 ; lift Z
;AFTER_LAYER_CHANGE
;0.2
G1 X88.189 Y57.686 F7200.000 ; move to first skirt point
G1 Z0.200 F7200.000 ; restore layer Z
G1 E0.80000 F2100.00000 ; unretract
M204 S1000 ; adjust acceleration
G1 F1800
G1 X90.335 Y55.473 E0.09668 ; skirt
G1 X90.814 Y55.110 E0.01882 ; skirt
G1 X91.367 Y54.879 E0.01882 ; skirt
G1 X94.373 Y54.126 E0.09715 ; skirt
G1 X155.504 Y54.123 E1.91672 ; skirt
G1 X156.062 Y54.190 E0.01763 ; skirt
G1 X158.732 Y54.908 E0.08669 ; skirt
G1 X159.230 Y55.136 E0.01716 ; skirt
G1 X159.663 Y55.471 E0.01716 ; skirt
G1 X161.559 Y57.368 E0.08411 ; skirt
G1 X161.916 Y57.860 E0.01906 ; skirt
G1 X162.122 Y58.371 E0.01728 ; skirt
G1 X162.871 Y61.335 E0.09585 ; skirt
G1 X162.877 Y153.511 E2.89013 ; skirt
G1 X162.775 Y154.191 E0.02154 ; skirt
G1 X162.480 Y154.816 E0.02166 ; skirt
G1 X162.104 Y155.254 E0.01811 ; skirt
G1 X161.634 Y155.589 E0.01811 ; skirt
G1 X161.093 Y155.802 E0.01823 ; skirt
G1 X160.520 Y155.877 E0.01811 ; skirt
G1 X89.489 Y155.877 E2.22714 ; skirt
G1 X88.809 Y155.775 E0.02154 ; skirt
G1 X88.184 Y155.480 E0.02166 ; skirt
G1 X87.748 Y155.107 E0.01799 ; skirt
G1 X87.413 Y154.637 E0.01811 ; skirt
G1 X87.200 Y154.100 E0.01811 ; skirt
G1 X87.123 Y153.528 E0.01811 ; skirt
G1 X87.123 Y61.500 E2.88547 ; skirt
G1 X87.189 Y60.942 E0.01763 ; skirt
G1 X87.881 Y58.359 E0.08382 ; skirt
G1 X88.164 Y57.741 E0.02131 ; skirt
G1 F5760
G1 X89.681 Y56.156 E-0.76000 ; wipe and retract
G1 E-0.04000 F2100.00000 ; retract
G1 Z0.800 F7200.000 ; lift Z
G1 X150.179 Y133.663 F7200.000 ; move to first perimeter point
G1 Z0.200 F7200.000 ; restore layer Z
G1 E0.80000 F2100.00000 ; unretract
G1 F1800
G1 X154.321 Y133.663 E0.12987 ; perimeter
G1 X156.392 Y137.250 E0.12987 ; perimeter
G1 X154.321 Y140.837 E0.12987 ; perimeter
G1 X150.179 Y140.837 E0.12987 ; perimeter
G1 X148.108 Y137.250 E0.12987 ; perimeter
G1 X150.149 Y133.715 E0.12799 ; perimeter
G1 X150.397 Y134.040 F7200.000 ; move to first perimeter point
G1 F1800
G1 X154.103 Y134.040 E0.11622 ; perimeter
G1 X155.957 Y137.250 E0.11622 ; perimeter
G1 X154.103 Y140.460 E0.11622 ; perimeter
G1 X150.397 Y140.460 E0.11622 ; perimeter
G1 X148.543 Y137.250 E0.11622 ; perimeter
G1 X150.367 Y134.092 E0.11434 ; perimeter
G1 X150.397 Y133.640 F7200.000 ; move inwards before travel
G1 F5760
G1 X152.561 Y134.061 E-0.76000 ; wipe and retract
G1 E-0.04000 F2100.00000 ; retract
G1 Z0.800 F7200.000 ; lift Z
G1 X102.392 Y137.250 F7200.000 ; move to first perimeter point
G1 Z0.200 F7200.000 ; restore layer Z
G1 E0.80000 F2100.00000 ; unretract
G1 F1800
G1 X100.321 Y140.837 E0.12987 ; perimeter
G1 X96.179 Y140.837 E0.12987 ; perimeter
G1 X94.108 Y137.250 E0.12987 ; perimeter
G1 X96.179 Y133.663 E0.12987 ; perimeter
G1 X100.321 Y133.663 E0.12987 ; perimeter
G1 X102.362 Y137.198 E0.12799 ; perimeter
G1 X101.957 Y137.250 F7200.000 ; move to first perimeter point
G1 F1800
G1 X100.103 Y140.460 E0.11622 ; perimeter
G1 X96.397 Y140.460 E0.11622 ; perimeter
G1 X94.543 Y137.250 E0.11622 ; perimeter
G1 X96.397 Y134.040 E0.11622 ; perimeter
G1 X100.103 Y134.040 E0.11622 ; perimeter
G1 X101.927 Y137.198 E0.11434 ; perimeter
G1 X102.303 Y137.450 F7200.000 ; move inwards before travel
G1 F5760
G1 X100.856 Y139.113 E-0.76000 ; wipe and retract
G1 E-0.04000 F2100.00000 ; retract
G1 Z0.800 F7200.000 ; lift Z
G1 X103.446 Y132.874 F7200.000 ; move to first perimeter point
G1 Z0.200 F7200.000 ; restore layer Z
G1 E0.80000 F2100.00000 ; unretract
G1 F1800
G1 X102.126 Y131.554 E0.05856 ; perimeter
G1 X101.663 Y129.827 E0.05605 ; perimeter
G1 X101.663 Y72.173 E1.80772 ; perimeter
G1 X102.126 Y70.446 E0.05605 ; perimeter
G1 X103.446 Y69.126 E0.05856 ; perimeter
G1 X105.173 Y68.663 E0.05605 ; perimeter
G1 X144.827 Y68.663 E1.24334 ; perimeter
G1 X146.554 Y69.126 E0.05605 ; perimeter
G1 X147.874 Y70.446 E0.05856 ; perimeter
G1 X148.337 Y72.173 E0.05605 ; perimeter
G1 X148.337 Y129.827 E1.80772 ; perimeter
G1 X147.874 Y131.554 E0.05605 ; perimeter
G1 X146.554 Y132.874 E0.05856 ; perimeter
G1 X144.827 Y133.337 E0.05605 ; perimeter
G1 X105.173 Y133.337 E1.24334 ; perimeter
G1 X103.504 Y132.890 E0.05416 ; perimeter
G1 X103.641 Y132.536 F7200.000 ; move to first perimeter point
G1 F1800
G1 X102.464 Y131.359 E0.05222 ; perimeter
G1 X102.040 Y129.778 E0.05132 ; perimeter
G1 X102.040 Y72.222 E1.80461 ; perimeter
G1 X102.464 Y70.641 E0.05132 ; perimeter
G1 X103.641 Y69.464 E0.05222 ; perimeter
G1 X105.222 Y69.040 E0.05132 ; perimeter
G1 X144.778 Y69.040 E1.24023 ; perimeter
G1 X146.359 Y69.464 E0.05132 ; perimeter
G1 X147.536 Y70.641 E0.05222 ; perimeter
G1 X147.960 Y72.222 E0.05132 ; perimeter
G1 X147.960 Y129.778 E1.80461 ; perimeter
G1 X147.536 Y131.359 E0.05132 ; perimeter
G1 X146.359 Y132.536 E0.05222 ; perimeter
G1 X144.778 Y132.960 E0.05132 ; perimeter
G1 X105.222 Y132.960 E1.24023 ; perimeter
G1 X103.699 Y132.552 E0.04944 ; perimeter
G1 X103.294 Y132.735 F7200.000 ; move inwards before travel
G1 F5760
G1 X102.464 Y131.359 E-0.59493 ; wipe and retract
G1 F5760
G1 X102.340 Y130.898 E-0.16507 ; wipe and retract
G1 E-0.04000 F2100.00000 ; retract
G1 Z0.800 F7200.000 ; lift Z
G1 X100.321 Y68.837 F7200.000 ; move to first perimeter point
G1 Z0.200 F7200.000 ; restore layer Z
G1 E0.80000 F2100.00000 ; unretract
G1 F1800
G1 X96.179 Y68.837 E0.12987 ; perimeter
G1 X94.108 Y65.250 E0.12987 ; perimeter
G1 X96.179 Y61.663 E0.12987 ; perimeter
G1 X100.321 Y61.663 E0.12987 ; perimeter
G1 X102.392 Y65.250 E0.12987 ; perimeter
G1 X100.351 Y68.785 E0.12799 ; perimeter
G1 X100.103 Y68.460 F7200.000 ; move to first perimeter point
G1 F1800
G1 X96.397 Y68.460 E0.11622 ; perimeter
G1 X94.543 Y65.250 E0.11622 ; perimeter
G1 X96.397 Y62.040 E0.11622 ; perimeter
G1 X100.103 Y62.040 E0.11622 ; perimeter
G1 X101.957 Y65.250 E0.11622 ; perimeter
G1 X100.133 Y68.408 E0.11434 ; perimeter
G1 X100.103 Y68.860 F7200.000 ; move inwards before travel
G1 F5760
G1 X97.939 Y68.439 E-0.76000 ; wipe and retract
G1 E-0.04000 F2100.00000 ; retract
G1 Z0.800 F7200.000 ; lift Z
G1 X148.108 Y65.250 F7200.000 ; move to first perimeter point
G1 Z0.200 F7200.000 ; restore layer Z
G1 E0.80000 F2100.00000 ; unretract
G1 F1800
G1 X150.179 Y61.663 E0.12987 ; perimeter
G1 X154.321 Y61.663 E0.12987 ; perimeter
G1 X156.392 Y65.250 E0.12987 ; perimeter
G1 X154.321 Y68.837 E0.12987 ; perimeter
G1 X150.179 Y68.837 E0.12987 ; perimeter
G1 X148.138 Y65.302 E0.12799 ; perimeter
G1 X148.543 Y65.250 F7200.000 ; move to first perimeter point
G1 F1800
G1 X150.397 Y62.040 E0.11622 ; perimeter
G1 X154.103 Y62.040 E0.11622 ; perimeter
G1 X155.957 Y65.250 E0.11622 ; perimeter
G1 X154.103 Y68.460 E0.11622 ; perimeter
G1 X150.397 Y68.460 E0.11622 ; perimeter
G1 X148.573 Y65.302 E0.11434 ; perimeter
G1 X148.197 Y65.050 F7200.000 ; move inwards before travel
G1 F5760
G1 X149.644 Y63.387 E-0.76000 ; wipe and retract
G1 E-0.04000 F2100.00000 ; retract
G1 Z0.800 F7200.000 ; lift Z
G1 X157.696 Y57.696 F7200.000 ; move to first perimeter point
G1 Z0.200 F7200.000 ; restore layer Z
G1 E0.80000 F2100.00000 ; unretract
G1 F1800
G1 X159.304 Y59.304 E0.07129 ; perimeter
G1 X159.913 Y61.577 E0.07380 ; perimeter
G1 X159.913 Y152.913 E2.86376 ; perimeter
G1 X90.087 Y152.913 E2.18934 ; perimeter
G1 X90.087 Y61.577 E2.86376 ; perimeter
G1 X90.696 Y59.304 E0.07380 ; perimeter
G1 X92.304 Y57.696 E0.07129 ; perimeter
G1 X94.577 Y57.087 E0.07380 ; perimeter
G1 X155.423 Y57.087 E1.90777 ; perimeter
G1 X157.638 Y57.681 E0.07191 ; perimeter
G1 X157.891 Y57.358 F7200.000 ; move to first perimeter point
G1 F1800
G1 X159.642 Y59.109 E0.07762 ; perimeter
G1 X160.290 Y61.528 E0.07852 ; perimeter
G1 X160.290 Y153.290 E2.87714 ; perimeter
G1 X89.710 Y153.290 E2.21299 ; perimeter
G1 X89.710 Y61.528 E2.87714 ; perimeter
G1 X90.358 Y59.109 E0.07852 ; perimeter
G1 X92.109 Y57.358 E0.07762 ; perimeter
G1 X94.528 Y56.710 E0.07852 ; perimeter
G1 X155.472 Y56.710 E1.91088 ; perimeter
G1 X157.833 Y57.343 E0.07664 ; perimeter
G1 X157.890 Y57.758 F7200.000 ; move inwards before travel
G1 F5760
G1 X159.403 Y58.876 E-0.76000 ; wipe and retract
G1 E-0.04000 F2100.00000 ; retract
G1 Z0.800 F7200.000 ; lift Z
G1 X159.290 Y59.691 F7200.000 ; move to first infill point
G1 Z0.200 F7200.000 ; restore layer Z
G1 E0.80000 F2100.00000 ; unretract
G1 F1800
G1 X157.549 Y57.950 E0.07741 ; infill
G1 X156.819 Y57.754 E0.02376 ; infill
G1 X159.246 Y60.181 E0.10790 ; infill
G1 X159.442 Y60.912 E0.02376 ; infill
G1 X156.088 Y57.558 E0.14906 ; infill
G1 X155.365 Y57.370 E0.02348 ; infill
G1 X159.630 Y61.635 E0.18956 ; infill
G1 X159.630 Y62.169 E0.01680 ; infill
G1 X154.831 Y57.370 E0.21332 ; infill
G1 X154.296 Y57.370 E0.01680 ; infill
G1 X159.630 Y62.704 E0.23708 ; infill
G1 X159.630 Y63.238 E0.01680 ; infill
G1 X153.762 Y57.370 E0.26084 ; infill
G1 X153.227 Y57.370 E0.01680 ; infill
G1 X159.630 Y63.773 E0.28460 ; infill
G1 X159.630 Y64.307 E0.01680 ; infill
G1 X152.693 Y57.370 E0.30836 ; infill
G1 X152.158 Y57.370 E0.01680 ; infill
G1 X159.630 Y64.842 E0.33212 ; infill
G1 X159.630 Y65.376 E0.01680 ; infill
G1 X151.624 Y57.370 E0.35588 ; infill
G1 X151.089 Y57.370 E0.01680 ; infill
G1 X159.630 Y65.911 E0.37964 ; infill
G1 X159.630 Y66.446 E0.01680 ; infill
G1 X150.554 Y57.370 E0.40340 ; infill
G1 X150.020 Y57.370 E0.01680 ; infill
G1 X154.030 Y61.380 E0.17825 ; infill
G1 X153.496 Y61.380 E0.01680 ; infill
G1 X149.485 Y57.370 E0.17825 ; infill
G1 X148.951 Y57.370 E0.01680 ; infill
G1 X152.961 Y61.380 E0.17825 ; infill
G1 X152.427 Y61.380 E0.01680 ; infill
G1 X148.416 Y57.370 E0.17825 ; infill
G1 X147.882 Y57.370 E0.01680 ; infill
G1 X151.892 Y61.380 E0.17825 ; infill
G1 X151.357 Y61.380 E0.01680 ; infill
G1 X147.347 Y57.370 E0.17825 ; infill
G1 X146.813 Y57.370 E0.01680 ; infill
G1 X150.823 Y61.380 E0.17825 ; infill
G1 X150.288 Y61.380 E0.01680 ; infill
G1 X146.278 Y57.370 E0.17825 ; infill
G1 X145.744 Y57.370 E0.01680 ; infill
G1 X149.920 Y61.546 E0.18563 ; infill
G1 X149.724 Y61.885 E0.01230 ; infill
G1 X145.209 Y57.370 E0.20069 ; infill
G1 X144.674 Y57.370 E0.01680 ; infill
G1 X149.529 Y62.224 E0.21576 ; infill
G1 X149.333 Y62.563 E0.01230 ; infill
G1 X144.140 Y57.370 E0.23082 ; infill
G1 X143.605 Y57.370 E0.01680 ; infill
G1 X149.137 Y62.902 E0.24588 ; infill
G1 X148.942 Y63.241 E0.01230 ; infill
G1 X143.071 Y57.370 E0.26095 ; infill
G1 X142.536 Y57.370 E0.01680 ; infill
G1 X148.746 Y63.580 E0.27601 ; infill
G1 X148.550 Y63.918 E0.01230 ; infill
G1 X142.002 Y57.370 E0.29107 ; infill
G1 X141.467 Y57.370 E0.01680 ; infill
G1 X148.355 Y64.257 E0.30614 ; infill
G1 X148.159 Y64.596 E0.01230 ; infill
G1 X140.933 Y57.370 E0.32120 ; infill
G1 X140.398 Y57.370 E0.01680 ; infill
G1 X147.963 Y64.935 E0.33626 ; infill
G1 X147.781 Y65.250 E0.01143 ; infill
G1 X147.833 Y65.340 E0.00325 ; infill
G1 X139.863 Y57.370 E0.35424 ; infill
G1 X139.329 Y57.370 E0.01680 ; infill
G1 X149.027 Y67.068 E0.43106 ; infill
G1 F5760
G1 X147.475 Y65.516 E-0.76000 ; wipe and retract
G1 E-0.04000 F2100.00000 ; retract
G1 Z0.800 F7200.000 ; lift Z
G1 X149.757 Y68.333 F7200.000 ; move to first infill point
G1 Z0.200 F7200.000 ; restore layer Z
G1 E0.80000 F2100.00000 ; unretract
G1 F1800
G1 X138.794 Y57.370 E0.48727 ; infill
G1 X138.260 Y57.370 E0.01680 ; infill
G1 X159.630 Y78.740 E0.94987 ; infill
G1 X159.630 Y78.206 E0.01680 ; infill
G1 X150.544 Y69.120 E0.40385 ; infill
G1 X151.079 Y69.120 E0.01680 ; infill
G1 X159.630 Y77.671 E0.38009 ; infill
G1 X159.630 Y77.137 E0.01680 ; infill
G1 X151.613 Y69.120 E0.35633 ; infill
G1 X152.148 Y69.120 E0.01680 ; infill
G1 X159.630 Y76.602 E0.33257 ; infill
G1 X159.630 Y76.067 E0.01680 ; infill
G1 X152.683 Y69.120 E0.30881 ; infill
G1 X153.217 Y69.120 E0.01680 ; infill
G1 X159.630 Y75.533 E0.28505 ; infill
G1 X159.630 Y74.998 E0.01680 ; infill
G1 X153.752 Y69.120 E0.26129 ; infill
G1 X154.286 Y69.120 E0.01680 ; infill
G1 X159.630 Y74.464 E0.23753 ; infill
G1 X159.630 Y73.929 E0.01680 ; infill
G1 X154.607 Y68.906 E0.22325 ; infill
G1 X154.803 Y68.568 E0.01230 ; infill
G1 X159.630 Y73.395 E0.21455 ; infill
G1 X159.630 Y72.860 E0.01680 ; infill
G1 X154.999 Y68.229 E0.20586 ; infill
G1 X155.194 Y67.890 E0.01230 ; infill
G1 X159.630 Y72.326 E0.19716 ; infill
G1 X159.630 Y71.791 E0.01680 ; infill
G1 X155.390 Y67.551 E0.18846 ; infill
G1 X155.586 Y67.212 E0.01230 ; infill
G1 X159.630 Y71.256 E0.17977 ; infill
G1 X159.630 Y70.722 E0.01680 ; infill
G1 X155.781 Y66.873 E0.17107 ; infill
G1 X155.977 Y66.534 E0.01230 ; infill
G1 X159.630 Y70.187 E0.16237 ; infill
G1 X159.630 Y69.653 E0.01680 ; infill
G1 X156.173 Y66.195 E0.15368 ; infill
G1 X156.368 Y65.857 E0.01230 ; infill
G1 X159.630 Y69.118 E0.14498 ; infill
G1 X159.630 Y68.584 E0.01680 ; infill
G1 X156.564 Y65.518 E0.13628 ; infill
G1 X156.719 Y65.250 E0.00971 ; infill
G1 X156.565 Y64.984 E0.00965 ; infill
G1 X159.800 Y68.219 E0.14378 ; infill
G1 X159.800 Y67.684 F7200.000 ; move to first infill point
G1 F1800
G1 X155.371 Y63.256 E0.19685 ; infill
G1 F5760
G1 X156.923 Y64.807 E-0.76000 ; wipe and retract
G1 E-0.04000 F2100.00000 ; retract
G1 Z0.800 F7200.000 ; lift Z
G1 X154.641 Y61.991 F7200.000 ; move to first infill point
G1 Z0.200 F7200.000 ; restore layer Z
G1 E0.80000 F2100.00000 ; unretract
G1 F1800
G1 X159.800 Y67.150 E0.22931 ; infill
G1 F5760
G1 X158.248 Y65.598 E-0.76000 ; wipe and retract
G1 E-0.04000 F2100.00000 ; retract
G1 Z0.800 F7200.000 ; lift Z
G1 X159.800 Y79.444 F7200.000 ; move to first infill point
G1 Z0.200 F7200.000 ; restore layer Z
G1 E0.80000 F2100.00000 ; unretract
G1 F1800
G1 X137.725 Y57.370 E0.98117 ; infill
G1 X137.191 Y57.370 E0.01680 ; infill
G1 X159.630 Y79.809 E0.99739 ; infill
G1 X159.630 Y80.344 E0.01680 ; infill
G1 X136.656 Y57.370 E1.02115 ; infill
G1 X136.122 Y57.370 E0.01680 ; infill
G1 X159.630 Y80.878 E1.04491 ; infill
G1 X159.630 Y81.413 E0.01680 ; infill
G1 X135.587 Y57.370 E1.06867 ; infill
G1 X135.052 Y57.370 E0.01680 ; infill
G1 X159.630 Y81.948 E1.09243 ; infill
G1 X159.630 Y82.482 E0.01680 ; infill
G1 X148.377 Y71.229 E0.50018 ; infill
G1 X148.573 Y71.959 E0.02376 ; infill
G1 X159.630 Y83.017 E0.49149 ; infill
G1 X159.630 Y83.551 E0.01680 ; infill
G1 X148.620 Y72.541 E0.48939 ; infill
G1 X148.620 Y73.075 E0.01680 ; infill
G1 X159.630 Y84.086 E0.48939 ; infill
G1 X159.630 Y84.620 E0.01680 ; infill
G1 X148.620 Y73.610 E0.48939 ; infill
G1 X148.620 Y74.145 E0.01680 ; infill
G1 X159.630 Y85.155 E0.48939 ; infill
G1 X159.630 Y85.689 E0.01680 ; infill
G1 X148.620 Y74.679 E0.48939 ; infill
G1 X148.620 Y75.214 E0.01680 ; infill
G1 X159.630 Y86.224 E0.48939 ; infill
G1 X159.630 Y86.758 E0.01680 ; infill
G1 X148.620 Y75.748 E0.48939 ; infill
G1 X148.620 Y76.283 E0.01680 ; infill
G1 X159.630 Y87.293 E0.48939 ; infill
G1 X159.630 Y87.828 E0.01680 ; infill
G1 X148.620 Y76.817 E0.48939 ; infill
G1 X148.620 Y77.352 E0.01680 ; infill
G1 X159.630 Y88.362 E0.48939 ; infill
G1 X159.630 Y88.897 E0.01680 ; infill
G1 X148.620 Y77.886 E0.48939 ; infill
G1 X148.620 Y78.421 E0.01680 ; infill
G1 X159.630 Y89.431 E0.48939 ; infill
G1 X159.630 Y89.966 E0.01680 ; infill
G1 X148.620 Y78.956 E0.48939 ; infill
G1 X148.620 Y79.490 E0.01680 ; infill
G1 X159.630 Y90.500 E0.48939 ; infill
G1 X159.630 Y91.035 E0.01680 ; infill
G1 X148.620 Y80.025 E0.48939 ; infill
