; generated by Slic3r Prusa Edition 1.41.0+ on 2018-09-07 at 21:40:45

; 

; external perimeters extrusion width = 0.45mm
; perimeters extrusion width = 0.45mm
; infill extrusion width = 0.45mm
; solid infill extrusion width = 0.45mm
; top infill extrusion width = 0.40mm
; first layer extrusion width = 0.42mm

M201 X1000 Y1000 Z1000 E5000 ; sets maximum accelerations, mm/sec^2
M203 X200 Y200 Z12 E120 ; sets maximum feedrates, mm/sec
M204 P1250 R1250 T1250 ; sets acceleration (P, T) and retract acceleration (R), mm/sec^2
M205 X8.00 Y8.00 Z0.40 E1.50 ; sets the jerk limits, mm/sec
M205 S0 T0 ; sets the minimum extruding and travel feed rate, mm/sec
M107
M115 U3.3.1 ; tell printer latest fw version
M83  ; extruder relative mode
M104 S215 ; set extruder temp
M140 S60 ; set bed temp
M190 S60 ; wait for bed temp
M109 S215 ; wait for extruder temp
G28 W ; home all without mesh bed level
G80 ; mesh bed leveling
G1 Y-3.0 F1000.0 ; go outside print area
G92 E0.0
G1 X60.0 E9.0  F1000.0 ; intro line
M73 Q0 S69
M73 P0 R68
G1 X100.0 E12.5  F1000.0 ; intro line
G92 E0.0
M221 S95
M900 K30; Filament gcode
G21 ; set units to millimeters
G90 ; use absolute coordinates
M83 ; use relative distances for extrusion
;BEFORE_LAYER_CHANGE
G92 E0.0
;0.2


G1 E-0.80000 F2100.00000
G1 Z0.600 F10800.000
;AFTER_LAYER_CHANGE
;0.2
G1 X88.348 Y57.787
G1 Z0.200
G1 E0.80000 F2100.00000
M204 S1000
G1 F1200
G1 X90.468 Y55.607 E0.09534
G1 X90.910 Y55.272 E0.01737
G1 X91.418 Y55.060 E0.01726
G1 X94.388 Y54.314 E0.09602
G1 X155.504 Y54.311 E1.91625
G1 X156.021 Y54.374 E0.01635
G1 X158.672 Y55.087 E0.08605
G1 X159.133 Y55.297 E0.01589
G1 X159.533 Y55.608 E0.01589
G1 X161.418 Y57.494 E0.08362
G1 X161.749 Y57.948 E0.01760
G1 X161.941 Y58.421 E0.01601
G1 X162.683 Y61.351 E0.09477
G1 X162.689 Y153.507 E2.88949
G1 X162.594 Y154.138 E0.01998
G1 X162.321 Y154.714 E0.01998
G1 X161.974 Y155.117 E0.01669
G1 X161.540 Y155.426 E0.01669
G1 X161.045 Y155.620 E0.01669
G1 X160.517 Y155.688 E0.01669
G1 X89.489 Y155.689 E2.22703
G1 X88.862 Y155.594 E0.01987
G1 X88.286 Y155.321 E0.01998
G1 X87.885 Y154.977 E0.01658
G1 X87.576 Y154.543 E0.01669
G1 X87.381 Y154.048 E0.01669
G1 X87.312 Y153.524 E0.01658
G1 X87.311 Y61.500 E2.88535
G1 X87.374 Y60.982 E0.01635
G1 X88.062 Y58.412 E0.08342
G1 X88.323 Y57.842 E0.01969
; PURGING FINISHED
G1 F8640
G1 X90.468 Y55.607 E-0.71520
G1 X90.623 Y55.490 E-0.04480
G1 E-0.04000 F2100.00000
G1 Z0.800 F10800.000
G1 X96.179 Y133.663
G1 Z0.200
G1 E0.80000 F2100.00000
G1 F1200
G1 X100.321 Y133.663 E0.12987
G1 X102.392 Y137.250 E0.12987
G1 X100.321 Y140.837 E0.12987
G1 X96.179 Y140.837 E0.12987
G1 X94.108 Y137.250 E0.12987
G1 X96.149 Y133.715 E0.12799
G1 X96.397 Y134.040 F10800.000
G1 F1200
G1 X100.103 Y134.040 E0.11622
G1 X101.957 Y137.250 E0.11622
G1 X100.103 Y140.460 E0.11622
G1 X96.397 Y140.460 E0.11622
G1 X94.543 Y137.250 E0.11622
G1 X96.367 Y134.092 E0.11434
G1 X96.397 Y133.640 F10800.000
G1 F8640
G1 X99.658 Y134.046 E-0.76000
G1 E-0.04000 F2100.00000
G1 Z0.800 F10800.000
G1 X148.108 Y137.250
G1 Z0.200
G1 E0.80000 F2100.00000
G1 F1200
G1 X150.179 Y133.663 E0.12987
G1 X154.321 Y133.663 E0.12987
G1 X156.392 Y137.250 E0.12987
G1 X154.321 Y140.837 E0.12987
G1 X150.179 Y140.837 E0.12987
G1 X148.138 Y137.302 E0.12799
G1 X148.543 Y137.250 F10800.000
G1 F1200
G1 X150.397 Y134.040 E0.11622
G1 X154.103 Y134.040 E0.11622
G1 X155.957 Y137.250 E0.11622
G1 X154.103 Y140.460 E0.11622
G1 X150.397 Y140.460 E0.11622
G1 X148.573 Y137.302 E0.11434
G1 X148.197 Y137.050 F10800.000
G1 F8640
G1 X150.179 Y134.429 E-0.76000
G1 E-0.04000 F2100.00000
G1 Z0.800 F10800.000
G1 X150.179 Y68.837
G1 Z0.200
G1 E0.80000 F2100.00000
G1 F1200
G1 X148.108 Y65.250 E0.12987
G1 X150.179 Y61.663 E0.12987
G1 X154.321 Y61.663 E0.12987
G1 X156.392 Y65.250 E0.12987
G1 X154.321 Y68.837 E0.12987
G1 X150.239 Y68.837 E0.12799
G1 X150.397 Y68.460 F10800.000
G1 F1200
G1 X148.543 Y65.250 E0.11622
G1 X150.397 Y62.040 E0.11622
G1 X154.103 Y62.040 E0.11622
G1 X155.957 Y65.250 E0.11622
G1 X154.103 Y68.460 E0.11622
G1 X150.457 Y68.460 E0.11434
G1 X150.050 Y68.660 F10800.000
G1 F8640
G1 X148.772 Y65.633 E-0.76000
G1 E-0.04000 F2100.00000
G1 Z0.800 F10800.000
G1 X147.874 Y70.446
G1 Z0.200
G1 E0.80000 F2100.00000
G1 F1200
G1 X148.337 Y72.173 E0.05605
G1 X148.337 Y129.827 E1.80772
G1 X147.874 Y131.554 E0.05605
G1 X146.554 Y132.874 E0.05856
G1 X144.827 Y133.337 E0.05605
G1 X105.173 Y133.337 E1.24334
G1 X103.446 Y132.874 E0.05605
G1 X102.126 Y131.554 E0.05856
G1 X101.663 Y129.827 E0.05605
G1 X101.663 Y72.173 E1.80772
G1 X102.126 Y70.446 E0.05605
G1 X103.446 Y69.126 E0.05856
G1 X105.173 Y68.663 E0.05605
G1 X144.827 Y68.663 E1.24334
G1 X146.554 Y69.126 E0.05605
G1 X147.832 Y70.404 E0.05667
G1 X147.536 Y70.641 F10800.000
G1 F1200
G1 X147.960 Y72.222 E0.05132
G1 X147.960 Y129.778 E1.80461
G1 X147.536 Y131.359 E0.05132
G1 X146.359 Y132.536 E0.05222
G1 X144.778 Y132.960 E0.05132
G1 X105.222 Y132.960 E1.24023
G1 X103.641 Y132.536 E0.05132
G1 X102.464 Y131.359 E0.05222
G1 X102.040 Y129.778 E0.05132
G1 X102.040 Y72.222 E1.80461
G1 X102.464 Y70.641 E0.05132
G1 X103.641 Y69.464 E0.05222
G1 X105.222 Y69.040 E0.05132
G1 X144.778 Y69.040 E1.24023
G1 X146.359 Y69.464 E0.05132
G1 X147.494 Y70.599 E0.05034
G1 X147.936 Y70.642 F10800.000
G1 F8640
G1 X147.960 Y72.222 E-0.39001
G1 X147.960 Y73.825 E-0.36999
G1 E-0.04000 F2100.00000
G1 Z0.800 F10800.000
G1 X102.392 Y65.250
G1 Z0.200
G1 E0.80000 F2100.00000
G1 F1200
G1 X100.321 Y68.837 E0.12987
G1 X96.179 Y68.837 E0.12987
G1 X94.108 Y65.250 E0.12987
G1 X96.179 Y61.663 E0.12987
G1 X100.321 Y61.663 E0.12987
G1 X102.362 Y65.198 E0.12799
G1 X101.957 Y65.250 F10800.000
G1 F1200
G1 X100.103 Y68.460 E0.11622
G1 X96.397 Y68.460 E0.11622
G1 X94.543 Y65.250 E0.11622
G1 X96.397 Y62.040 E0.11622
G1 X100.103 Y62.040 E0.11622
G1 X101.927 Y65.198 E0.11434
G1 X102.303 Y65.450 F10800.000
G1 F8640
G1 X100.321 Y68.071 E-0.76000
G1 E-0.04000 F2100.00000
G1 Z0.800 F10800.000
G1 X92.304 Y57.696
G1 Z0.200
G1 E0.80000 F2100.00000
G1 F1200
G1 X94.577 Y57.087 E0.07380
G1 X155.423 Y57.087 E1.90777
M73 Q1 S68
G1 X157.696 Y57.696 E0.07380
G1 X159.304 Y59.304 E0.07129
G1 X159.913 Y61.577 E0.07380
G1 X159.913 Y152.913 E2.86376
M73 P1 R67
G1 X90.087 Y152.913 E2.18934
G1 X90.087 Y61.577 E2.86376
G1 X90.696 Y59.304 E0.07380
G1 X92.261 Y57.739 E0.06941
G1 X92.109 Y57.358 F10800.000
G1 F1200
G1 X94.528 Y56.710 E0.07852
G1 X155.472 Y56.710 E1.91088
G1 X157.891 Y57.358 E0.07852
G1 X159.642 Y59.109 E0.07762
G1 X160.290 Y61.528 E0.07852
G1 X160.290 Y153.290 E2.87714
G1 X89.710 Y153.290 E2.21299
G1 X89.710 Y61.528 E2.87714
G1 X90.358 Y59.109 E0.07852
G1 X92.066 Y57.401 E0.07574
G1 X92.455 Y57.558 F10800.000
G1 F8640
G1 X94.528 Y56.710 E-0.59028
G1 X95.263 Y56.710 E-0.16972
G1 E-0.04000 F2100.00000
G1 Z0.800 F10800.000
G1 X90.200 Y62.231
G1 Z0.200
G1 E0.80000 F2100.00000
G1 F1200
G1 X95.013 Y67.044 E0.21392
G1 F8640
G1 X92.686 Y64.716 E-0.76000
G1 E-0.04000 F2100.00000
G1 Z0.800 F10800.000
G1 X95.743 Y68.308
G1 Z0.200
G1 E0.80000 F2100.00000
G1 F1200
G1 X90.370 Y62.935 E0.23883
G1 X90.370 Y63.470 E0.01680
G1 X101.380 Y74.480 E0.48939
G1 X101.380 Y73.945 E0.01680
G1 X96.555 Y69.120 E0.21448
G1 X97.089 Y69.120 E0.01680
G1 X101.380 Y73.411 E0.19072
G1 X101.380 Y72.876 E0.01680
G1 X97.624 Y69.120 E0.16696
G1 X98.158 Y69.120 E0.01680
G1 X101.380 Y72.342 E0.14320
G1 X101.380 Y72.135 E0.00648
G1 X101.450 Y71.877 E0.00843
G1 X98.693 Y69.120 E0.12253
G1 X99.227 Y69.120 E0.01680
G1 X101.562 Y71.455 E0.10379
G1 X101.675 Y71.033 E0.01372
G1 X99.762 Y69.120 E0.08505
G1 X100.297 Y69.120 E0.01680
G1 X101.788 Y70.612 E0.06631
G1 X101.872 Y70.300 E0.01015
G1 X101.941 Y70.230 E0.00309
G1 X100.611 Y68.900 E0.05913
G1 X100.807 Y68.561 E0.01230
G1 X102.209 Y69.963 E0.06231
G1 X102.476 Y69.696 E0.01188
G1 X101.003 Y68.222 E0.06549
G1 X101.198 Y67.883 E0.01230
G1 X102.743 Y69.428 E0.06868
G1 X103.011 Y69.161 E0.01188
G1 X101.394 Y67.544 E0.07186
G1 X101.590 Y67.206 E0.01230
G1 X103.278 Y68.894 E0.07504
G1 X103.300 Y68.872 E0.00097
G1 X103.687 Y68.768 E0.01260
G1 X101.785 Y66.867 E0.08452
G1 X101.981 Y66.528 E0.01230
G1 X104.108 Y68.655 E0.09457
G1 X104.530 Y68.542 E0.01372
G1 X102.176 Y66.189 E0.10461
G1 X102.372 Y65.850 E0.01230
G1 X104.952 Y68.429 E0.11465
G1 X105.135 Y68.380 E0.00598
G1 X105.437 Y68.380 E0.00947
G1 X102.568 Y65.511 E0.12752
G1 X102.719 Y65.250 E0.00948
G1 X102.551 Y64.960 E0.01054
G1 X106.141 Y68.550 E0.15958
G1 X106.676 Y68.550 F10800.000
G1 F1200
G1 X101.357 Y63.231 E0.23640
G1 F8640
G1 X103.684 Y65.559 E-0.76000
G1 E-0.04000 F2100.00000
G1 Z0.800 F10800.000
G1 X100.627 Y61.967
G1 Z0.200
G1 E0.80000 F2100.00000
G1 F1200
G1 X107.041 Y68.380 E0.28507
G1 X107.575 Y68.380 E0.01680
G1 X96.565 Y57.370 E0.48939
G1 X97.099 Y57.370 E0.01680
G1 X108.110 Y68.380 E0.48939
G1 X108.644 Y68.380 E0.01680
G1 X97.634 Y57.370 E0.48939
G1 X98.168 Y57.370 E0.01680
G1 X109.179 Y68.380 E0.48939
G1 X109.713 Y68.380 E0.01680
G1 X98.703 Y57.370 E0.48939
G1 X99.238 Y57.370 E0.01680
G1 X110.248 Y68.380 E0.48939
G1 X110.782 Y68.380 E0.01680
G1 X99.772 Y57.370 E0.48939
G1 X100.307 Y57.370 E0.01680
G1 X111.317 Y68.380 E0.48939
G1 X111.851 Y68.380 E0.01680
G1 X100.841 Y57.370 E0.48939
G1 X101.376 Y57.370 E0.01680
G1 X112.386 Y68.380 E0.48939
G1 X112.921 Y68.380 E0.01680
G1 X101.910 Y57.370 E0.48939
G1 X102.445 Y57.370 E0.01680
G1 X113.455 Y68.380 E0.48939
G1 X113.990 Y68.380 E0.01680
G1 X102.979 Y57.370 E0.48939
G1 X103.514 Y57.370 E0.01680
G1 X114.524 Y68.380 E0.48939
G1 X115.059 Y68.380 E0.01680
G1 X104.049 Y57.370 E0.48939
G1 X104.583 Y57.370 E0.01680
G1 X115.593 Y68.380 E0.48939
G1 X116.128 Y68.380 E0.01680
G1 X105.118 Y57.370 E0.48939
G1 X105.652 Y57.370 E0.01680
G1 X116.662 Y68.380 E0.48939
G1 X117.197 Y68.380 E0.01680
G1 X106.187 Y57.370 E0.48939
G1 X106.721 Y57.370 E0.01680
G1 X117.732 Y68.380 E0.48939
G1 X118.266 Y68.380 E0.01680
G1 X107.256 Y57.370 E0.48939
G1 X107.790 Y57.370 E0.01680
G1 X118.801 Y68.380 E0.48939
G1 X119.335 Y68.380 E0.01680
G1 X108.325 Y57.370 E0.48939
G1 X108.859 Y57.370 E0.01680
G1 X119.870 Y68.380 E0.48939
G1 X120.404 Y68.380 E0.01680
G1 X109.394 Y57.370 E0.48939
G1 X109.929 Y57.370 E0.01680
G1 X120.939 Y68.380 E0.48939
G1 X121.473 Y68.380 E0.01680
G1 X110.463 Y57.370 E0.48939
G1 X110.998 Y57.370 E0.01680
G1 X122.008 Y68.380 E0.48939
M73 Q3 S67
G1 X122.542 Y68.380 E0.01680
G1 X111.532 Y57.370 E0.48939
G1 X112.067 Y57.370 E0.01680
G1 X123.077 Y68.380 E0.48939
G1 X123.612 Y68.380 E0.01680
G1 X112.601 Y57.370 E0.48939
G1 X113.136 Y57.370 E0.01680
G1 X124.146 Y68.380 E0.48939
G1 X124.681 Y68.380 E0.01680
G1 X113.670 Y57.370 E0.48939
G1 X114.205 Y57.370 E0.01680
G1 X125.215 Y68.380 E0.48939
M73 P3 R66
G1 X125.750 Y68.380 E0.01680
G1 X114.740 Y57.370 E0.48939
G1 X115.274 Y57.370 E0.01680
G1 X126.284 Y68.380 E0.48939
G1 X126.819 Y68.380 E0.01680
G1 X115.809 Y57.370 E0.48939
G1 X116.343 Y57.370 E0.01680
G1 X127.353 Y68.380 E0.48939
G1 X127.888 Y68.380 E0.01680
G1 X116.878 Y57.370 E0.48939
G1 X117.412 Y57.370 E0.01680
G1 X128.423 Y68.380 E0.48939
G1 X128.957 Y68.380 E0.01680
G1 X117.947 Y57.370 E0.48939
G1 X118.481 Y57.370 E0.01680
G1 X129.492 Y68.380 E0.48939
G1 X130.026 Y68.380 E0.01680
G1 X119.016 Y57.370 E0.48939
G1 X119.550 Y57.370 E0.01680
G1 X130.561 Y68.380 E0.48939
G1 X131.095 Y68.380 E0.01680
G1 X120.085 Y57.370 E0.48939
G1 X120.620 Y57.370 E0.01680
G1 X131.630 Y68.380 E0.48939
G1 X132.164 Y68.380 E0.01680
G1 X121.154 Y57.370 E0.48939
G1 X121.689 Y57.370 E0.01680
G1 X132.699 Y68.380 E0.48939
G1 X133.234 Y68.380 E0.01680
G1 X122.223 Y57.370 E0.48939
G1 X122.758 Y57.370 E0.01680
G1 X133.768 Y68.380 E0.48939
G1 X134.303 Y68.380 E0.01680
G1 X123.292 Y57.370 E0.48939
G1 X123.827 Y57.370 E0.01680
G1 X134.837 Y68.380 E0.48939
G1 X135.372 Y68.380 E0.01680
G1 X124.361 Y57.370 E0.48939
G1 X124.896 Y57.370 E0.01680
G1 X135.906 Y68.380 E0.48939
G1 X136.441 Y68.380 E0.01680
G1 X125.431 Y57.370 E0.48939
G1 X125.965 Y57.370 E0.01680
G1 X136.975 Y68.380 E0.48939
G1 X137.510 Y68.380 E0.01680
G1 X126.500 Y57.370 E0.48939
G1 X127.034 Y57.370 E0.01680
G1 X138.044 Y68.380 E0.48939
G1 X138.579 Y68.380 E0.01680
G1 X127.569 Y57.370 E0.48939
G1 X128.103 Y57.370 E0.01680
G1 X139.114 Y68.380 E0.48939
G1 X139.648 Y68.380 E0.01680
G1 X128.638 Y57.370 E0.48939
G1 X129.172 Y57.370 E0.01680
G1 X140.183 Y68.380 E0.48939
G1 X140.717 Y68.380 E0.01680
G1 X129.707 Y57.370 E0.48939
G1 X130.242 Y57.370 E0.01680
G1 X141.252 Y68.380 E0.48939
G1 X141.786 Y68.380 E0.01680
G1 X130.776 Y57.370 E0.48939
G1 X131.311 Y57.370 E0.01680
G1 X142.321 Y68.380 E0.48939
G1 X142.855 Y68.380 E0.01680
G1 X131.845 Y57.370 E0.48939
G1 X132.380 Y57.370 E0.01680
G1 X143.390 Y68.380 E0.48939
G1 X143.925 Y68.380 E0.01680
G1 X132.914 Y57.370 E0.48939
G1 X133.449 Y57.370 E0.01680
G1 X144.459 Y68.380 E0.48939
G1 X144.865 Y68.380 E0.01274
G1 X145.041 Y68.427 E0.00574
G1 X133.983 Y57.370 E0.49149
G1 X134.518 Y57.370 E0.01680
G1 X146.011 Y68.863 E0.51085
G1 F8640
G1 X143.684 Y66.536 E-0.76000
G1 E-0.04000 F2100.00000
G1 Z0.800 F10800.000
G1 X149.027 Y67.068
G1 Z0.200
G1 E0.80000 F2100.00000
G1 F1200
G1 X139.329 Y57.370 E0.43106
G1 X139.863 Y57.370 E0.01680
G1 X147.833 Y65.340 E0.35424
G1 X147.781 Y65.250 E0.00325
G1 X147.963 Y64.935 E0.01143
G1 X140.398 Y57.370 E0.33626
G1 X140.933 Y57.370 E0.01680
G1 X148.159 Y64.596 E0.32120
G1 X148.355 Y64.257 E0.01230
G1 X141.467 Y57.370 E0.30613
G1 X142.002 Y57.370 E0.01680
G1 X148.550 Y63.918 E0.29107
G1 X148.746 Y63.580 E0.01230
G1 X142.536 Y57.370 E0.27601
G1 X143.071 Y57.370 E0.01680
G1 X148.942 Y63.241 E0.26095
G1 X149.137 Y62.902 E0.01230
G1 X143.605 Y57.370 E0.24588
G1 X144.140 Y57.370 E0.01680
G1 X149.333 Y62.563 E0.23082
G1 X149.529 Y62.224 E0.01230
G1 X144.674 Y57.370 E0.21576
G1 X145.209 Y57.370 E0.01680
G1 X149.724 Y61.885 E0.20069
G1 X149.920 Y61.546 E0.01230
G1 X145.744 Y57.370 E0.18563
G1 X146.278 Y57.370 E0.01680
G1 X150.288 Y61.380 E0.17825
G1 X150.823 Y61.380 E0.01680
G1 X146.813 Y57.370 E0.17825
G1 X147.347 Y57.370 E0.01680
G1 X151.357 Y61.380 E0.17825
G1 X151.892 Y61.380 E0.01680
G1 X147.882 Y57.370 E0.17825
G1 X148.416 Y57.370 E0.01680
G1 X152.427 Y61.380 E0.17825
G1 X152.961 Y61.380 E0.01680
G1 X148.951 Y57.370 E0.17825
G1 X149.485 Y57.370 E0.01680
G1 X153.496 Y61.380 E0.17825
G1 X154.030 Y61.380 E0.01680
G1 X150.020 Y57.370 E0.17825
G1 X150.554 Y57.370 E0.01680
G1 X159.630 Y66.446 E0.40340
G1 X159.630 Y65.911 E0.01680
G1 X151.089 Y57.370 E0.37964
G1 X151.624 Y57.370 E0.01680
G1 X159.630 Y65.376 E0.35588
G1 X159.630 Y64.842 E0.01680
G1 X152.158 Y57.370 E0.33212
G1 X152.693 Y57.370 E0.01680
G1 X159.630 Y64.307 E0.30836
G1 X159.630 Y63.773 E0.01680
G1 X153.227 Y57.370 E0.28460
G1 X153.762 Y57.370 E0.01680
G1 X159.630 Y63.238 E0.26084
G1 X159.630 Y62.704 E0.01680
G1 X154.296 Y57.370 E0.23708
G1 X154.831 Y57.370 E0.01680
G1 X159.630 Y62.169 E0.21332
G1 X159.630 Y61.635 E0.01680
G1 X155.365 Y57.370 E0.18956
G1 X156.088 Y57.558 E0.02348
G1 X159.442 Y60.912 E0.14906
G1 X159.246 Y60.181 E0.02376
G1 X156.819 Y57.754 E0.10790
G1 X157.549 Y57.950 E0.02376
G1 X159.290 Y59.691 E0.07741
G1 F8640
G1 X157.549 Y57.950 E-0.56874
G1 X156.819 Y57.754 E-0.17456
G1 X156.870 Y57.805 E-0.01670
G1 E-0.04000 F2100.00000
G1 Z0.800 F10800.000
G1 X154.641 Y61.991
G1 Z0.200
G1 E0.80000 F2100.00000
G1 F1200
G1 X159.800 Y67.150 E0.22931
G1 X159.800 Y67.684 F10800.000
G1 F1200
G1 X155.371 Y63.256 E0.19685
G1 F8640
G1 X157.698 Y65.583 E-0.76000
G1 E-0.04000 F2100.00000
G1 Z0.800 F10800.000
G1 X159.800 Y68.219
G1 Z0.200
G1 E0.80000 F2100.00000
G1 F1200
G1 X156.565 Y64.984 E0.14378
G1 X156.719 Y65.250 E0.00965
G1 X156.564 Y65.518 E0.00971
G1 X159.630 Y68.584 E0.13628
G1 X159.630 Y69.118 E0.01680
G1 X156.368 Y65.857 E0.14498
G1 X156.173 Y66.195 E0.01230
G1 X159.630 Y69.653 E0.15368
G1 X159.630 Y70.187 E0.01680
G1 X155.977 Y66.534 E0.16237
G1 X155.781 Y66.873 E0.01230
G1 X159.630 Y70.722 E0.17107
G1 X159.630 Y71.256 E0.01680
G1 X155.586 Y67.212 E0.17977
G1 X155.390 Y67.551 E0.01230
G1 X159.630 Y71.791 E0.18846
G1 X159.630 Y72.326 E0.01680
G1 X155.194 Y67.890 E0.19716
G1 X154.999 Y68.229 E0.01230
G1 X159.630 Y72.860 E0.20586
