; generated by Slic3r 1.37.2.1-prusa3d on 2018-08-26 at 12:42:04

; 

; external perimeters extrusion width = 0.42mm
; perimeters extrusion width = 0.45mm
; infill extrusion width = 0.45mm
; solid infill extrusion width = 0.45mm
; top infill extrusion width = 0.42mm
; first layer extrusion width = 0.42mm

M107 ; disable fan
M115 U3.1.0 ; tell printer latest fw version
M83  ; extruder relative mode
M104 S230 ; set extruder temp
M140 S85 ; set bed temp
M190 S85 ; wait for bed temp
M109 S230 ; wait for extruder temp
G28 W ; home all without mesh bed level
G80 ; mesh bed leveling
G1 Y-3.0 F1000.0 ; go outside pritn area
G1 X60.0 E9.0  F1000.0 ; intro line
G1 X100.0 E12.5  F1000.0 ; intro line
G92 E0.0
M900 K45
G21 ; set units to millimeters
G90 ; use absolute coordinates
M83 ; use relative distances for extrusion
;BEFORE_LAYER_CHANGE
;0.2


G1 E-0.80000 F2100.00000 ; retract
G1 Z0.600 F7200.000 ; lift Z
;AFTER_LAYER_CHANGE
;0.2
G1 X78.007 Y93.222 F7200.000 ; move to first skirt point
G1 Z0.200 F7200.000 ; restore layer Z
G1 E0.80000 F2100.00000 ; unretract
M204 S1000 ; adjust acceleration
G1 F1800
G1 X78.697 Y92.936 E0.02343 ; skirt
G1 X79.249 Y92.871 E0.01743 ; skirt
G1 X170.755 Y92.871 E2.86908 ; skirt
G1 X171.650 Y93.048 E0.02860 ; skirt
G1 X172.412 Y93.549 E0.02860 ; skirt
G1 X172.932 Y94.303 E0.02872 ; skirt
G1 X173.127 Y95.194 E0.02860 ; skirt
G1 X173.120 Y114.949 E0.61941 ; skirt
G1 X172.944 Y115.668 E0.02319 ; skirt
G1 X172.554 Y116.301 E0.02331 ; skirt
G1 X171.990 Y116.780 E0.02319 ; skirt
G1 X171.303 Y117.064 E0.02331 ; skirt
G1 X170.751 Y117.129 E0.01743 ; skirt
G1 X79.204 Y117.128 E2.87040 ; skirt
G1 X78.439 Y116.986 E0.02437 ; skirt
G1 X77.759 Y116.603 E0.02449 ; skirt
G1 X77.239 Y116.020 E0.02449 ; skirt
G1 X76.937 Y115.304 E0.02437 ; skirt
G1 X76.872 Y114.760 E0.01716 ; skirt
G1 X76.879 Y95.062 E0.61762 ; skirt
G1 X77.053 Y94.339 E0.02331 ; skirt
G1 X77.441 Y93.705 E0.02331 ; skirt
G1 X77.961 Y93.261 E0.02143 ; skirt
G1 F5760
G1 X78.697 Y92.936 E-0.27865 ; wipe and retract
G1 F5760
G1 X79.249 Y92.871 E-0.19255 ; wipe and retract
G1 F5760
G1 X80.083 Y92.871 E-0.28880 ; wipe and retract
G1 E-0.04000 F2100.00000 ; retract
G1 Z0.800 F7200.000 ; lift Z
G1 X79.836 Y95.836 F7200.000 ; move to first perimeter point
G1 Z0.200 F7200.000 ; restore layer Z
G1 E0.80000 F2100.00000 ; unretract
G1 F1800
G1 X170.164 Y95.836 E2.83215 ; perimeter
G1 X170.164 Y114.164 E0.57469 ; perimeter
G1 X79.836 Y114.164 E2.83215 ; perimeter
G1 X79.836 Y95.896 E0.57281 ; perimeter
G1 X79.459 Y95.458 F7200.000 ; move to first perimeter point
G1 F1800
G1 X170.541 Y95.458 E2.85580 ; perimeter
G1 X170.541 Y114.541 E0.59833 ; perimeter
G1 X79.459 Y114.541 E2.85580 ; perimeter
G1 X79.459 Y95.518 E0.59645 ; perimeter
G1 X79.858 Y95.486 F7200.000 ; move inwards before travel
G1 F5760
G1 X81.654 Y95.517 E-0.76000 ; wipe and retract
G1 E-0.04000 F2100.00000 ; retract
G1 Z0.800 F7200.000 ; lift Z
G1 X79.949 Y113.289 F7200.000 ; move to first infill point
G1 Z0.200 F7200.000 ; restore layer Z
G1 E0.80000 F2100.00000 ; unretract
G1 F1800
G1 X80.542 Y113.882 E0.02629 ; infill
G1 X81.076 Y113.882 E0.01673 ; infill
G1 X80.119 Y112.925 E0.04242 ; infill
G1 X80.119 Y112.392 E0.01673 ; infill
G1 X81.609 Y113.882 E0.06608 ; infill
G1 X82.142 Y113.882 E0.01673 ; infill
G1 X80.119 Y111.858 E0.08973 ; infill
G1 X80.119 Y111.325 E0.01673 ; infill
G1 X82.676 Y113.882 E0.11339 ; infill
G1 X83.209 Y113.882 E0.01673 ; infill
G1 X80.119 Y110.792 E0.13705 ; infill
G1 X80.119 Y110.258 E0.01673 ; infill
G1 X83.742 Y113.882 E0.16070 ; infill
G1 X84.276 Y113.882 E0.01673 ; infill
G1 X80.119 Y109.725 E0.18436 ; infill
G1 X80.119 Y109.191 E0.01673 ; infill
G1 X84.809 Y113.882 E0.20802 ; infill
G1 X85.343 Y113.882 E0.01673 ; infill
G1 X80.119 Y108.658 E0.23168 ; infill
G1 X80.119 Y108.125 E0.01673 ; infill
G1 X85.876 Y113.882 E0.25533 ; infill
G1 X86.409 Y113.882 E0.01673 ; infill
G1 X80.119 Y107.591 E0.27899 ; infill
G1 X80.119 Y107.058 E0.01673 ; infill
G1 X86.943 Y113.882 E0.30265 ; infill
G1 X87.476 Y113.882 E0.01673 ; infill
G1 X80.119 Y106.524 E0.32630 ; infill
G1 X80.119 Y105.991 E0.01673 ; infill
G1 X88.010 Y113.882 E0.34996 ; infill
G1 X88.543 Y113.882 E0.01673 ; infill
G1 X80.119 Y105.458 E0.37362 ; infill
G1 X80.119 Y104.924 E0.01673 ; infill
G1 X89.076 Y113.882 E0.39728 ; infill
G1 X89.610 Y113.882 E0.01673 ; infill
G1 X80.119 Y104.391 E0.42093 ; infill
G1 X80.119 Y103.858 E0.01673 ; infill
G1 X90.143 Y113.882 E0.44459 ; infill
G1 X90.677 Y113.882 E0.01673 ; infill
G1 X80.119 Y103.324 E0.46825 ; infill
G1 X80.119 Y102.791 E0.01673 ; infill
G1 X91.210 Y113.882 E0.49190 ; infill
G1 X91.743 Y113.882 E0.01673 ; infill
G1 X80.119 Y102.257 E0.51556 ; infill
G1 X80.119 Y101.724 E0.01673 ; infill
G1 X92.277 Y113.882 E0.53922 ; infill
G1 X92.810 Y113.882 E0.01673 ; infill
G1 X80.119 Y101.191 E0.56287 ; infill
G1 X80.119 Y100.657 E0.01673 ; infill
G1 X93.344 Y113.882 E0.58653 ; infill
G1 X93.877 Y113.882 E0.01673 ; infill
G1 X80.119 Y100.124 E0.61019 ; infill
G1 X80.119 Y99.590 E0.01673 ; infill
G1 X94.410 Y113.882 E0.63385 ; infill
G1 X94.944 Y113.882 E0.01673 ; infill
G1 X80.119 Y99.057 E0.65750 ; infill
G1 X80.119 Y98.524 E0.01673 ; infill
G1 X95.477 Y113.882 E0.68116 ; infill
G1 X96.011 Y113.882 E0.01673 ; infill
G1 X80.119 Y97.990 E0.70482 ; infill
G1 X80.119 Y97.457 E0.01673 ; infill
G1 X96.544 Y113.882 E0.72847 ; infill
G1 X97.077 Y113.882 E0.01673 ; infill
G1 X80.119 Y96.923 E0.75213 ; infill
G1 X80.119 Y96.390 E0.01673 ; infill
G1 X97.611 Y113.882 E0.77579 ; infill
G1 X98.144 Y113.882 E0.01673 ; infill
G1 X80.381 Y96.118 E0.78784 ; infill
G1 X80.914 Y96.118 E0.01673 ; infill
G1 X98.678 Y113.882 E0.78784 ; infill
G1 X99.211 Y113.882 E0.01673 ; infill
G1 X81.448 Y96.118 E0.78784 ; infill
G1 X81.981 Y96.118 E0.01673 ; infill
G1 X99.744 Y113.882 E0.78784 ; infill
G1 X100.278 Y113.882 E0.01673 ; infill
G1 X82.514 Y96.118 E0.78784 ; infill
G1 X83.048 Y96.118 E0.01673 ; infill
G1 X100.811 Y113.882 E0.78784 ; infill
G1 X101.345 Y113.882 E0.01673 ; infill
G1 X83.581 Y96.118 E0.78784 ; infill
G1 X84.115 Y96.118 E0.01673 ; infill
G1 X101.878 Y113.882 E0.78784 ; infill
G1 X102.411 Y113.882 E0.01673 ; infill
G1 X84.648 Y96.118 E0.78784 ; infill
G1 X85.181 Y96.118 E0.01673 ; infill
G1 X102.945 Y113.882 E0.78784 ; infill
G1 X103.478 Y113.882 E0.01673 ; infill
G1 X85.715 Y96.118 E0.78784 ; infill
G1 X86.248 Y96.118 E0.01673 ; infill
G1 X104.011 Y113.882 E0.78784 ; infill
G1 X104.545 Y113.882 E0.01673 ; infill
G1 X86.782 Y96.118 E0.78784 ; infill
G1 X87.315 Y96.118 E0.01673 ; infill
G1 X105.078 Y113.882 E0.78784 ; infill
G1 X105.612 Y113.882 E0.01673 ; infill
G1 X87.848 Y96.118 E0.78784 ; infill
G1 X88.382 Y96.118 E0.01673 ; infill
G1 X106.145 Y113.882 E0.78784 ; infill
G1 X106.678 Y113.882 E0.01673 ; infill
G1 X88.915 Y96.118 E0.78784 ; infill
G1 X89.449 Y96.118 E0.01673 ; infill
G1 X107.212 Y113.882 E0.78784 ; infill
G1 X107.745 Y113.882 E0.01673 ; infill
G1 X89.982 Y96.118 E0.78784 ; infill
G1 X90.515 Y96.118 E0.01673 ; infill
G1 X108.279 Y113.882 E0.78784 ; infill
G1 X108.812 Y113.882 E0.01673 ; infill
G1 X91.049 Y96.118 E0.78784 ; infill
G1 X91.582 Y96.118 E0.01673 ; infill
G1 X109.345 Y113.882 E0.78784 ; infill
G1 X109.879 Y113.882 E0.01673 ; infill
G1 X92.116 Y96.118 E0.78784 ; infill
G1 X92.649 Y96.118 E0.01673 ; infill
G1 X110.412 Y113.882 E0.78784 ; infill
G1 X110.946 Y113.882 E0.01673 ; infill
G1 X93.182 Y96.118 E0.78784 ; infill
G1 X93.716 Y96.118 E0.01673 ; infill
G1 X111.479 Y113.882 E0.78784 ; infill
G1 X112.012 Y113.882 E0.01673 ; infill
G1 X94.249 Y96.118 E0.78784 ; infill
G1 X94.783 Y96.118 E0.01673 ; infill
G1 X112.546 Y113.882 E0.78784 ; infill
G1 X113.079 Y113.882 E0.01673 ; infill
G1 X95.316 Y96.118 E0.78784 ; infill
G1 X95.849 Y96.118 E0.01673 ; infill
G1 X113.613 Y113.882 E0.78784 ; infill
G1 X114.146 Y113.882 E0.01673 ; infill
G1 X96.383 Y96.118 E0.78784 ; infill
G1 X96.916 Y96.118 E0.01673 ; infill
G1 X114.679 Y113.882 E0.78784 ; infill
G1 X115.213 Y113.882 E0.01673 ; infill
G1 X97.450 Y96.118 E0.78784 ; infill
G1 X97.983 Y96.118 E0.01673 ; infill
G1 X115.746 Y113.882 E0.78784 ; infill
G1 X116.280 Y113.882 E0.01673 ; infill
G1 X98.516 Y96.118 E0.78784 ; infill
G1 X99.050 Y96.118 E0.01673 ; infill
G1 X116.813 Y113.882 E0.78784 ; infill
G1 X117.346 Y113.882 E0.01673 ; infill
G1 X99.583 Y96.118 E0.78784 ; infill
G1 X100.116 Y96.118 E0.01673 ; infill
G1 X117.880 Y113.882 E0.78784 ; infill
G1 X118.413 Y113.882 E0.01673 ; infill
G1 X100.650 Y96.118 E0.78784 ; infill
G1 X101.183 Y96.118 E0.01673 ; infill
G1 X118.947 Y113.882 E0.78784 ; infill
G1 X119.480 Y113.882 E0.01673 ; infill
G1 X101.717 Y96.118 E0.78784 ; infill
G1 X102.250 Y96.118 E0.01673 ; infill
G1 X120.013 Y113.882 E0.78784 ; infill
G1 X120.547 Y113.882 E0.01673 ; infill
G1 X102.783 Y96.118 E0.78784 ; infill
G1 X103.317 Y96.118 E0.01673 ; infill
G1 X121.080 Y113.882 E0.78784 ; infill
G1 X121.614 Y113.882 E0.01673 ; infill
G1 X103.850 Y96.118 E0.78784 ; infill
G1 X104.384 Y96.118 E0.01673 ; infill
G1 X122.147 Y113.882 E0.78784 ; infill
G1 X122.680 Y113.882 E0.01673 ; infill
G1 X104.917 Y96.118 E0.78784 ; infill
G1 X105.450 Y96.118 E0.01673 ; infill
G1 X123.214 Y113.882 E0.78784 ; infill
G1 X123.747 Y113.882 E0.01673 ; infill
G1 X105.984 Y96.118 E0.78784 ; infill
G1 X106.517 Y96.118 E0.01673 ; infill
G1 X124.280 Y113.882 E0.78784 ; infill
G1 X124.814 Y113.882 E0.01673 ; infill
G1 X107.051 Y96.118 E0.78784 ; infill
G1 X107.584 Y96.118 E0.01673 ; infill
G1 X125.347 Y113.882 E0.78784 ; infill
G1 X125.881 Y113.882 E0.01673 ; infill
G1 X108.117 Y96.118 E0.78784 ; infill
G1 X108.651 Y96.118 E0.01673 ; infill
G1 X126.414 Y113.882 E0.78784 ; infill
G1 X126.947 Y113.882 E0.01673 ; infill
G1 X109.184 Y96.118 E0.78784 ; infill
G1 X109.718 Y96.118 E0.01673 ; infill
G1 X127.481 Y113.882 E0.78784 ; infill
G1 X128.014 Y113.882 E0.01673 ; infill
G1 X110.251 Y96.118 E0.78784 ; infill
G1 X110.784 Y96.118 E0.01673 ; infill
G1 X128.548 Y113.882 E0.78784 ; infill
G1 X129.081 Y113.882 E0.01673 ; infill
G1 X111.318 Y96.118 E0.78784 ; infill
G1 X111.851 Y96.118 E0.01673 ; infill
G1 X129.614 Y113.882 E0.78784 ; infill
G1 X130.148 Y113.882 E0.01673 ; infill
G1 X112.385 Y96.118 E0.78784 ; infill
G1 X112.918 Y96.118 E0.01673 ; infill
G1 X130.681 Y113.882 E0.78784 ; infill
G1 X131.215 Y113.882 E0.01673 ; infill
G1 X113.451 Y96.118 E0.78784 ; infill
G1 X113.985 Y96.118 E0.01673 ; infill
G1 X131.748 Y113.882 E0.78784 ; infill
G1 X132.281 Y113.882 E0.01673 ; infill
G1 X114.518 Y96.118 E0.78784 ; infill
G1 X115.052 Y96.118 E0.01673 ; infill
G1 X132.815 Y113.882 E0.78784 ; infill
G1 X133.348 Y113.882 E0.01673 ; infill
G1 X115.585 Y96.118 E0.78784 ; infill
G1 X116.118 Y96.118 E0.01673 ; infill
G1 X133.882 Y113.882 E0.78784 ; infill
G1 X134.415 Y113.882 E0.01673 ; infill
G1 X116.652 Y96.118 E0.78784 ; infill
G1 X117.185 Y96.118 E0.01673 ; infill
G1 X134.948 Y113.882 E0.78784 ; infill
G1 X135.482 Y113.882 E0.01673 ; infill
G1 X117.719 Y96.118 E0.78784 ; infill
G1 X118.252 Y96.118 E0.01673 ; infill
G1 X136.015 Y113.882 E0.78784 ; infill
G1 X136.549 Y113.882 E0.01673 ; infill
G1 X118.785 Y96.118 E0.78784 ; infill
G1 X119.319 Y96.118 E0.01673 ; infill
G1 X137.082 Y113.882 E0.78784 ; infill
G1 X137.615 Y113.882 E0.01673 ; infill
G1 X119.852 Y96.118 E0.78784 ; infill
G1 X120.385 Y96.118 E0.01673 ; infill
G1 X138.149 Y113.882 E0.78784 ; infill
G1 X138.682 Y113.882 E0.01673 ; infill
G1 X120.919 Y96.118 E0.78784 ; infill
G1 X121.452 Y96.118 E0.01673 ; infill
G1 X139.216 Y113.882 E0.78784 ; infill
G1 X139.749 Y113.882 E0.01673 ; infill
G1 X121.986 Y96.118 E0.78784 ; infill
G1 X122.519 Y96.118 E0.01673 ; infill
G1 X140.282 Y113.882 E0.78784 ; infill
G1 X140.816 Y113.882 E0.01673 ; infill
G1 X123.052 Y96.118 E0.78784 ; infill
G1 X123.586 Y96.118 E0.01673 ; infill
G1 X141.349 Y113.882 E0.78784 ; infill
G1 X141.883 Y113.882 E0.01673 ; infill
G1 X124.119 Y96.118 E0.78784 ; infill
G1 X124.653 Y96.118 E0.01673 ; infill
G1 X142.416 Y113.882 E0.78784 ; infill
G1 X142.949 Y113.882 E0.01673 ; infill
G1 X125.186 Y96.118 E0.78784 ; infill
G1 X125.719 Y96.118 E0.01673 ; infill
G1 X143.483 Y113.882 E0.78784 ; infill
G1 X144.016 Y113.882 E0.01673 ; infill
G1 X126.253 Y96.118 E0.78784 ; infill
G1 X126.786 Y96.118 E0.01673 ; infill
G1 X144.549 Y113.882 E0.78784 ; infill
G1 X145.083 Y113.882 E0.01673 ; infill
G1 X127.320 Y96.118 E0.78784 ; infill
G1 X127.853 Y96.118 E0.01673 ; infill
G1 X145.616 Y113.882 E0.78784 ; infill
G1 X146.150 Y113.882 E0.01673 ; infill
G1 X128.386 Y96.118 E0.78784 ; infill
G1 X128.920 Y96.118 E0.01673 ; infill
G1 X146.683 Y113.882 E0.78784 ; infill
G1 X147.216 Y113.882 E0.01673 ; infill
G1 X129.453 Y96.118 E0.78784 ; infill
G1 X129.987 Y96.118 E0.01673 ; infill
G1 X147.750 Y113.882 E0.78784 ; infill
G1 X148.283 Y113.882 E0.01673 ; infill
G1 X130.520 Y96.118 E0.78784 ; infill
G1 X131.053 Y96.118 E0.01673 ; infill
G1 X148.817 Y113.882 E0.78784 ; infill
G1 X149.350 Y113.882 E0.01673 ; infill
G1 X131.587 Y96.118 E0.78784 ; infill
G1 X132.120 Y96.118 E0.01673 ; infill
G1 X149.883 Y113.882 E0.78784 ; infill
G1 X150.417 Y113.882 E0.01673 ; infill
G1 X132.654 Y96.118 E0.78784 ; infill
G1 X133.187 Y96.118 E0.01673 ; infill
G1 X150.950 Y113.882 E0.78784 ; infill
G1 X151.484 Y113.882 E0.01673 ; infill
G1 X133.720 Y96.118 E0.78784 ; infill
G1 X134.254 Y96.118 E0.01673 ; infill
G1 X152.017 Y113.882 E0.78784 ; infill
G1 X152.550 Y113.882 E0.01673 ; infill
G1 X134.787 Y96.118 E0.78784 ; infill
G1 X135.321 Y96.118 E0.01673 ; infill
G1 X153.084 Y113.882 E0.78784 ; infill
G1 X153.617 Y113.882 E0.01673 ; infill
G1 X135.854 Y96.118 E0.78784 ; infill
G1 X136.387 Y96.118 E0.01673 ; infill
G1 X154.151 Y113.882 E0.78784 ; infill
G1 X154.684 Y113.882 E0.01673 ; infill
G1 X136.921 Y96.118 E0.78784 ; infill
G1 X137.454 Y96.118 E0.01673 ; infill
G1 X155.217 Y113.882 E0.78784 ; infill
G1 X155.751 Y113.882 E0.01673 ; infill
G1 X137.988 Y96.118 E0.78784 ; infill
G1 X138.521 Y96.118 E0.01673 ; infill
G1 X156.284 Y113.882 E0.78784 ; infill
G1 X156.818 Y113.882 E0.01673 ; infill
G1 X139.054 Y96.118 E0.78784 ; infill
G1 X139.588 Y96.118 E0.01673 ; infill
G1 X157.351 Y113.882 E0.78784 ; infill
G1 X157.884 Y113.882 E0.01673 ; infill
G1 X140.121 Y96.118 E0.78784 ; infill
G1 X140.654 Y96.118 E0.01673 ; infill
G1 X158.418 Y113.882 E0.78784 ; infill
G1 X158.951 Y113.882 E0.01673 ; infill
G1 X141.188 Y96.118 E0.78784 ; infill
G1 X141.721 Y96.118 E0.01673 ; infill
G1 X159.485 Y113.882 E0.78784 ; infill
G1 X160.018 Y113.882 E0.01673 ; infill
G1 X142.255 Y96.118 E0.78784 ; infill
G1 X142.788 Y96.118 E0.01673 ; infill
G1 X160.551 Y113.882 E0.78784 ; infill
G1 X161.085 Y113.882 E0.01673 ; infill
G1 X143.321 Y96.118 E0.78784 ; infill
G1 X143.855 Y96.118 E0.01673 ; infill
G1 X161.618 Y113.882 E0.78784 ; infill
G1 X162.152 Y113.882 E0.01673 ; infill
G1 X144.388 Y96.118 E0.78784 ; infill
G1 X144.922 Y96.118 E0.01673 ; infill
G1 X162.685 Y113.882 E0.78784 ; infill
G1 X163.218 Y113.882 E0.01673 ; infill
G1 X145.455 Y96.118 E0.78784 ; infill
G1 X145.988 Y96.118 E0.01673 ; infill
G1 X163.752 Y113.882 E0.78784 ; infill
G1 X164.285 Y113.882 E0.01673 ; infill
G1 X146.522 Y96.118 E0.78784 ; infill
G1 X147.055 Y96.118 E0.01673 ; infill
G1 X164.818 Y113.882 E0.78784 ; infill
G1 X165.352 Y113.882 E0.01673 ; infill
G1 X147.589 Y96.118 E0.78784 ; infill
G1 X148.122 Y96.118 E0.01673 ; infill
G1 X165.885 Y113.882 E0.78784 ; infill
G1 X166.419 Y113.882 E0.01673 ; infill
G1 X148.655 Y96.118 E0.78784 ; infill
G1 X149.189 Y96.118 E0.01673 ; infill
G1 X166.952 Y113.882 E0.78784 ; infill
G1 X167.485 Y113.882 E0.01673 ; infill
G1 X149.722 Y96.118 E0.78784 ; infill
G1 X150.256 Y96.118 E0.01673 ; infill
G1 X168.019 Y113.882 E0.78784 ; infill
G1 X168.552 Y113.882 E0.01673 ; infill
G1 X150.789 Y96.118 E0.78784 ; infill
G1 X151.322 Y96.118 E0.01673 ; infill
G1 X169.086 Y113.882 E0.78784 ; infill
G1 X169.619 Y113.882 E0.01673 ; infill
G1 X151.856 Y96.118 E0.78784 ; infill
G1 X152.389 Y96.118 E0.01673 ; infill
G1 X169.881 Y113.610 E0.77579 ; infill
G1 X169.881 Y113.077 E0.01673 ; infill
