; generated by Slic3r 1.37.2.1-prusa3d on 2018-08-16 at 23:05:47

; 

; external perimeters extrusion width = 0.42mm
; perimeters extrusion width = 0.45mm
; infill extrusion width = 0.45mm
; solid infill extrusion width = 0.45mm
; top infill extrusion width = 0.42mm
; first layer extrusion width = 0.42mm

M107 ; disable fan
M115 U3.1.0 ; tell printer latest fw version
M83  ; extruder relative mode
M104 S230 ; set extruder temp
M140 S85 ; set bed temp
M190 S85 ; wait for bed temp
M109 S230 ; wait for extruder temp
G28 W ; home all without mesh bed level
G80 ; mesh bed leveling
G1 Y-3.0 F1000.0 ; go outside pritn area
G1 X60.0 E9.0  F1000.0 ; intro line
G1 X100.0 E12.5  F1000.0 ; intro line
G92 E0.0
M900 K45
G21 ; set units to millimeters
G90 ; use absolute coordinates
M83 ; use relative distances for extrusion
;BEFORE_LAYER_CHANGE
;0.2


G1 E-0.80000 F2100.00000 ; retract
G1 Z0.600 F7200.000 ; lift Z
;AFTER_LAYER_CHANGE
;0.2
G1 X90.912 Y90.864 F7200.000 ; move to first skirt point
G1 Z0.200 F7200.000 ; restore layer Z
G1 E0.80000 F2100.00000 ; unretract
M204 S1000 ; adjust acceleration
G1 F1800
G1 X91.413 Y90.230 E0.02532 ; skirt
G1 X95.960 Y86.862 E0.17742 ; skirt
G1 X96.462 Y86.685 E0.01668 ; skirt
G1 X96.990 Y86.623 E0.01668 ; skirt
G1 X154.004 Y86.623 E1.78762 ; skirt
G1 X154.710 Y86.673 E0.02220 ; skirt
G1 X155.757 Y86.919 E0.03374 ; skirt
G1 X156.687 Y87.343 E0.03204 ; skirt
G1 X157.513 Y87.931 E0.03180 ; skirt
G1 X158.478 Y89.036 E0.04598 ; skirt
G1 X158.934 Y89.865 E0.02966 ; skirt
G1 X159.271 Y90.937 E0.03523 ; skirt
G1 X159.377 Y91.991 E0.03322 ; skirt
G1 X159.374 Y115.129 E0.72549 ; skirt
G1 X159.255 Y116.139 E0.03188 ; skirt
G1 X158.920 Y117.169 E0.03394 ; skirt
G1 X158.378 Y118.122 E0.03440 ; skirt
G1 X157.761 Y118.834 E0.02953 ; skirt
G1 X152.041 Y123.137 E0.22443 ; skirt
G1 X151.561 Y123.310 E0.01597 ; skirt
G1 X151.053 Y123.376 E0.01609 ; skirt
G1 X140.882 Y123.374 E0.31889 ; skirt
G1 X95.460 Y120.350 E1.42732 ; skirt
G1 X94.289 Y120.097 E0.03756 ; skirt
G1 X93.120 Y119.534 E0.04068 ; skirt
G1 X92.403 Y118.997 E0.02810 ; skirt
G1 X91.789 Y118.334 E0.02834 ; skirt
G1 X91.122 Y117.261 E0.03961 ; skirt
G1 X90.746 Y116.145 E0.03691 ; skirt
G1 X90.623 Y115.043 E0.03477 ; skirt
G1 X90.652 Y91.628 E0.73416 ; skirt
G1 X90.893 Y90.921 E0.02343 ; skirt
G1 F5760
G1 X91.413 Y90.230 E-0.29931 ; wipe and retract
G1 F5760
G1 X92.482 Y89.439 E-0.46070 ; wipe and retract
G1 E-0.04000 F2100.00000 ; retract
G1 Z0.800 F7200.000 ; lift Z
G1 X146.465 Y115.445 F7200.000 ; move to first perimeter point
G1 Z0.200 F7200.000 ; restore layer Z
G1 E0.80000 F2100.00000 ; unretract
G1 F1800
G1 X146.227 Y115.272 E0.00925 ; perimeter
G1 X146.029 Y115.052 E0.00926 ; perimeter
G1 X145.882 Y114.798 E0.00922 ; perimeter
G1 X145.790 Y114.518 E0.00924 ; perimeter
G1 X145.759 Y114.223 E0.00928 ; perimeter
G1 X145.790 Y113.930 E0.00924 ; perimeter
G1 X145.882 Y113.649 E0.00927 ; perimeter
G1 X146.029 Y113.394 E0.00923 ; perimeter
G1 X146.227 Y113.175 E0.00926 ; perimeter
G1 X146.465 Y113.001 E0.00925 ; perimeter
G1 X146.735 Y112.881 E0.00927 ; perimeter
G1 X147.024 Y112.820 E0.00924 ; perimeter
G1 X147.319 Y112.820 E0.00925 ; perimeter
G1 X147.607 Y112.881 E0.00924 ; perimeter
G1 X147.877 Y113.002 E0.00928 ; perimeter
G1 X148.115 Y113.175 E0.00923 ; perimeter
G1 X148.312 Y113.394 E0.00924 ; perimeter
G1 X148.460 Y113.649 E0.00925 ; perimeter
G1 X148.551 Y113.931 E0.00927 ; perimeter
G1 X148.582 Y114.223 E0.00923 ; perimeter
G1 X148.551 Y114.517 E0.00926 ; perimeter
G1 X148.460 Y114.799 E0.00929 ; perimeter
G1 X148.299 Y115.067 E0.00980 ; perimeter
G1 X148.115 Y115.272 E0.00863 ; perimeter
G1 X147.877 Y115.445 E0.00923 ; perimeter
G1 X147.769 Y115.493 E0.00371 ; perimeter
G1 X147.877 Y115.542 E0.00371 ; perimeter
G1 X148.115 Y115.715 E0.00923 ; perimeter
G1 X148.312 Y115.934 E0.00924 ; perimeter
G1 X148.460 Y116.189 E0.00925 ; perimeter
G1 X148.551 Y116.471 E0.00927 ; perimeter
G1 X148.582 Y116.763 E0.00923 ; perimeter
G1 X148.551 Y117.057 E0.00926 ; perimeter
G1 X148.460 Y117.339 E0.00929 ; perimeter
G1 X148.299 Y117.607 E0.00980 ; perimeter
G1 X148.115 Y117.812 E0.00863 ; perimeter
G1 X147.877 Y117.985 E0.00923 ; perimeter
G1 X147.769 Y118.033 E0.00371 ; perimeter
G1 X147.877 Y118.082 E0.00371 ; perimeter
G1 X148.115 Y118.255 E0.00923 ; perimeter
G1 X148.312 Y118.474 E0.00924 ; perimeter
G1 X148.460 Y118.729 E0.00925 ; perimeter
G1 X148.551 Y119.011 E0.00927 ; perimeter
G1 X148.582 Y119.303 E0.00923 ; perimeter
G1 X148.551 Y119.597 E0.00926 ; perimeter
G1 X148.460 Y119.879 E0.00929 ; perimeter
G1 X148.299 Y120.147 E0.00980 ; perimeter
G1 X148.115 Y120.352 E0.00863 ; perimeter
G1 X147.877 Y120.525 E0.00923 ; perimeter
G1 X147.607 Y120.646 E0.00928 ; perimeter
G1 X147.319 Y120.707 E0.00924 ; perimeter
G1 X147.024 Y120.707 E0.00925 ; perimeter
G1 X146.735 Y120.646 E0.00924 ; perimeter
G1 X146.465 Y120.525 E0.00927 ; perimeter
G1 X146.227 Y120.352 E0.00925 ; perimeter
G1 X146.029 Y120.133 E0.00926 ; perimeter
G1 X145.882 Y119.878 E0.00922 ; perimeter
G1 X145.790 Y119.598 E0.00924 ; perimeter
G1 X145.759 Y119.303 E0.00928 ; perimeter
G1 X145.790 Y119.010 E0.00924 ; perimeter
G1 X145.882 Y118.729 E0.00927 ; perimeter
G1 X146.029 Y118.474 E0.00923 ; perimeter
G1 X146.227 Y118.255 E0.00926 ; perimeter
G1 X146.465 Y118.082 E0.00925 ; perimeter
G1 X146.573 Y118.033 E0.00370 ; perimeter
G1 X146.465 Y117.985 E0.00370 ; perimeter
G1 X146.227 Y117.812 E0.00925 ; perimeter
G1 X146.029 Y117.592 E0.00926 ; perimeter
G1 X145.882 Y117.338 E0.00922 ; perimeter
G1 X145.790 Y117.058 E0.00924 ; perimeter
G1 X145.759 Y116.763 E0.00928 ; perimeter
G1 X145.790 Y116.470 E0.00924 ; perimeter
G1 X145.882 Y116.189 E0.00927 ; perimeter
G1 X146.029 Y115.934 E0.00923 ; perimeter
G1 X146.227 Y115.715 E0.00926 ; perimeter
G1 X146.465 Y115.541 E0.00925 ; perimeter
G1 X146.573 Y115.493 E0.00370 ; perimeter
G1 X146.520 Y115.470 E0.00182 ; perimeter
G1 X146.172 Y115.476 F7200.000 ; move inwards before travel
G1 F5760
G1 X146.227 Y115.272 E-0.12258 ; wipe and retract
G1 F5760
G1 X146.029 Y115.052 E-0.10227 ; wipe and retract
G1 F5760
G1 X145.882 Y114.798 E-0.10188 ; wipe and retract
G1 F5760
G1 X145.790 Y114.518 E-0.10210 ; wipe and retract
G1 F5760
G1 X145.759 Y114.223 E-0.10249 ; wipe and retract
G1 F5760
G1 X145.790 Y113.930 E-0.10209 ; wipe and retract
G1 F5760
G1 X145.882 Y113.649 E-0.10240 ; wipe and retract
G1 F5760
G1 X145.917 Y113.589 E-0.02420 ; wipe and retract
G1 E-0.04000 F2100.00000 ; retract
G1 Z0.800 F7200.000 ; lift Z
G1 X148.423 Y115.493 F7200.000 ; move to first perimeter point
G1 Z0.200 F7200.000 ; restore layer Z
G1 E0.80000 F2100.00000 ; unretract
G1 F1800
G1 X148.604 Y115.292 E0.00848 ; perimeter
G1 X148.805 Y114.956 E0.01229 ; perimeter
G1 X148.922 Y114.596 E0.01188 ; perimeter
G1 X148.961 Y114.223 E0.01175 ; perimeter
G1 X148.922 Y113.852 E0.01170 ; perimeter
G1 X148.807 Y113.495 E0.01177 ; perimeter
G1 X148.618 Y113.171 E0.01175 ; perimeter
G1 X148.369 Y112.893 E0.01169 ; perimeter
G1 X148.067 Y112.673 E0.01171 ; perimeter
G1 X147.874 Y112.587 E0.00664 ; perimeter
G1 X151.587 Y112.587 E0.11642 ; perimeter
G1 X151.587 Y94.413 E0.56984 ; perimeter
G1 X149.534 Y94.413 E0.06438 ; perimeter
G1 X149.525 Y94.323 E0.00282 ; perimeter
G1 X149.408 Y93.967 E0.01176 ; perimeter
G1 X149.222 Y93.644 E0.01169 ; perimeter
G1 X149.087 Y93.495 E0.00631 ; perimeter
G1 X149.087 Y93.357 E0.00430 ; perimeter
G1 X149.222 Y93.208 E0.00630 ; perimeter
G1 X149.408 Y92.884 E0.01171 ; perimeter
G1 X149.525 Y92.527 E0.01178 ; perimeter
G1 X149.563 Y92.156 E0.01170 ; perimeter
G1 X149.525 Y91.785 E0.01170 ; perimeter
G1 X149.408 Y91.427 E0.01178 ; perimeter
G1 X149.222 Y91.104 E0.01171 ; perimeter
G1 X149.087 Y90.954 E0.00630 ; perimeter
G1 X149.087 Y90.817 E0.00430 ; perimeter
G1 X149.222 Y90.668 E0.00631 ; perimeter
G1 X149.408 Y90.345 E0.01169 ; perimeter
G1 X149.525 Y89.988 E0.01176 ; perimeter
G1 X149.560 Y89.587 E0.01263 ; perimeter
G1 X153.413 Y89.587 E0.12082 ; perimeter
G1 X153.413 Y89.603 E0.00051 ; perimeter
G1 X154.252 Y89.603 E0.02631 ; perimeter
G1 X154.745 Y89.708 E0.01580 ; perimeter
G1 X155.205 Y89.913 E0.01579 ; perimeter
G1 X155.612 Y90.209 E0.01580 ; perimeter
G1 X155.950 Y90.584 E0.01579 ; perimeter
G1 X156.201 Y91.020 E0.01579 ; perimeter
G1 X156.357 Y91.499 E0.01580 ; perimeter
G1 X156.413 Y92.031 E0.01676 ; perimeter
G1 X156.413 Y114.969 E0.71922 ; perimeter
G1 X156.357 Y115.501 E0.01677 ; perimeter
G1 X156.201 Y115.980 E0.01580 ; perimeter
G1 X155.950 Y116.416 E0.01579 ; perimeter
G1 X155.612 Y116.791 E0.01579 ; perimeter
G1 X155.205 Y117.087 E0.01580 ; perimeter
G1 X154.745 Y117.292 E0.01579 ; perimeter
G1 X154.252 Y117.396 E0.01580 ; perimeter
G1 X153.413 Y117.396 E0.02631 ; perimeter
G1 X153.413 Y117.413 E0.00052 ; perimeter
G1 X150.413 Y117.413 E0.09406 ; perimeter
G1 X150.413 Y120.413 E0.09406 ; perimeter
G1 X148.567 Y120.413 E0.05787 ; perimeter
G1 X148.805 Y120.036 E0.01397 ; perimeter
G1 X148.922 Y119.676 E0.01188 ; perimeter
G1 X148.961 Y119.303 E0.01175 ; perimeter
G1 X148.922 Y118.932 E0.01170 ; perimeter
G1 X148.807 Y118.575 E0.01177 ; perimeter
G1 X148.618 Y118.251 E0.01175 ; perimeter
G1 X148.423 Y118.033 E0.00917 ; perimeter
G1 X148.604 Y117.832 E0.00848 ; perimeter
G1 X148.805 Y117.496 E0.01229 ; perimeter
G1 X148.922 Y117.136 E0.01188 ; perimeter
G1 X148.961 Y116.763 E0.01175 ; perimeter
G1 X148.922 Y116.392 E0.01170 ; perimeter
G1 X148.807 Y116.035 E0.01177 ; perimeter
G1 X148.618 Y115.711 E0.01175 ; perimeter
G1 X148.463 Y115.538 E0.00729 ; perimeter
G1 F5760
G1 X148.604 Y115.292 E-0.09806 ; wipe and retract
G1 F5760
G1 X148.805 Y114.956 E-0.13575 ; wipe and retract
G1 F5760
G1 X148.922 Y114.596 E-0.13119 ; wipe and retract
G1 F5760
G1 X148.961 Y114.223 E-0.12978 ; wipe and retract
G1 F5760
G1 X148.922 Y113.852 E-0.12928 ; wipe and retract
G1 F5760
G1 X148.807 Y113.495 E-0.13006 ; wipe and retract
G1 F5760
G1 X148.798 Y113.480 E-0.00588 ; wipe and retract
G1 E-0.04000 F2100.00000 ; retract
G1 Z0.800 F7200.000 ; lift Z
G1 X145.919 Y115.493 F7200.000 ; move to first perimeter point
G1 Z0.200 F7200.000 ; restore layer Z
G1 E0.80000 F2100.00000 ; unretract
G1 F1800
G1 X145.722 Y115.711 E0.00920 ; perimeter
G1 X145.536 Y116.035 E0.01170 ; perimeter
G1 X145.420 Y116.391 E0.01175 ; perimeter
G1 X145.380 Y116.763 E0.01174 ; perimeter
G1 X145.420 Y117.137 E0.01178 ; perimeter
G1 X145.536 Y117.492 E0.01172 ; perimeter
G1 X145.722 Y117.815 E0.01169 ; perimeter
G1 X145.919 Y118.033 E0.00920 ; perimeter
G1 X145.722 Y118.251 E0.00920 ; perimeter
G1 X145.536 Y118.575 E0.01170 ; perimeter
G1 X145.420 Y118.931 E0.01175 ; perimeter
G1 X145.380 Y119.303 E0.01174 ; perimeter
G1 X145.420 Y119.677 E0.01178 ; perimeter
G1 X145.536 Y120.032 E0.01172 ; perimeter
G1 X145.722 Y120.355 E0.01169 ; perimeter
G1 X145.774 Y120.413 E0.00243 ; perimeter
G1 X142.531 Y120.413 E0.10169 ; perimeter
G1 X142.645 Y120.218 E0.00708 ; perimeter
G1 X142.760 Y119.860 E0.01177 ; perimeter
G1 X142.799 Y119.489 E0.01170 ; perimeter
G1 X142.760 Y119.116 E0.01175 ; perimeter
G1 X142.644 Y118.760 E0.01175 ; perimeter
G1 X142.457 Y118.437 E0.01171 ; perimeter
G1 X142.208 Y118.159 E0.01170 ; perimeter
G1 X141.905 Y117.939 E0.01175 ; perimeter
G1 X141.587 Y117.797 E0.01090 ; perimeter
G1 X141.587 Y117.413 E0.01204 ; perimeter
G1 X96.587 Y117.413 E1.41094 ; perimeter
G1 X96.587 Y117.396 E0.00052 ; perimeter
G1 X95.748 Y117.396 E0.02630 ; perimeter
G1 X95.255 Y117.292 E0.01580 ; perimeter
G1 X94.795 Y117.087 E0.01579 ; perimeter
G1 X94.388 Y116.791 E0.01580 ; perimeter
G1 X94.059 Y116.426 E0.01540 ; perimeter
G1 X93.798 Y115.979 E0.01622 ; perimeter
G1 X93.643 Y115.501 E0.01575 ; perimeter
G1 X93.587 Y114.969 E0.01677 ; perimeter
G1 X93.587 Y113.771 E0.03757 ; perimeter
G1 X93.841 Y113.507 E0.01149 ; perimeter
G1 X93.997 Y113.236 E0.00980 ; perimeter
G1 X94.092 Y112.941 E0.00970 ; perimeter
G1 X94.126 Y112.630 E0.00981 ; perimeter
G1 X94.092 Y112.321 E0.00976 ; perimeter
G1 X93.997 Y112.025 E0.00975 ; perimeter
G1 X93.841 Y111.756 E0.00975 ; perimeter
G1 X93.587 Y111.490 E0.01152 ; perimeter
G1 X93.587 Y111.251 E0.00749 ; perimeter
G1 X93.841 Y110.987 E0.01149 ; perimeter
G1 X93.997 Y110.716 E0.00980 ; perimeter
G1 X94.092 Y110.422 E0.00970 ; perimeter
G1 X94.126 Y110.111 E0.00981 ; perimeter
G1 X94.092 Y109.802 E0.00976 ; perimeter
G1 X93.997 Y109.506 E0.00972 ; perimeter
G1 X93.841 Y109.235 E0.00981 ; perimeter
G1 X93.587 Y108.971 E0.01149 ; perimeter
G1 X93.587 Y101.333 E0.23948 ; perimeter
G1 X93.628 Y101.382 E0.00201 ; perimeter
G1 X93.941 Y101.610 E0.01216 ; perimeter
G1 X94.283 Y101.763 E0.01174 ; perimeter
G1 X94.651 Y101.841 E0.01178 ; perimeter
G1 X95.024 Y101.841 E0.01171 ; perimeter
G1 X95.391 Y101.763 E0.01175 ; perimeter
G1 X95.732 Y101.610 E0.01173 ; perimeter
G1 X96.046 Y101.382 E0.01216 ; perimeter
G1 X96.107 Y101.308 E0.00302 ; perimeter
G1 X96.168 Y101.382 E0.00302 ; perimeter
G1 X96.481 Y101.610 E0.01216 ; perimeter
G1 X96.823 Y101.763 E0.01174 ; perimeter
G1 X97.191 Y101.841 E0.01178 ; perimeter
G1 X97.563 Y101.841 E0.01167 ; perimeter
G1 X97.931 Y101.763 E0.01178 ; perimeter
G1 X98.272 Y101.610 E0.01174 ; perimeter
G1 X98.413 Y101.508 E0.00545 ; perimeter
G1 X98.413 Y112.587 E0.34738 ; perimeter
G1 X139.529 Y112.587 E1.28916 ; perimeter
G1 X139.757 Y112.860 E0.01113 ; perimeter
G1 X139.560 Y113.078 E0.00920 ; perimeter
G1 X139.374 Y113.401 E0.01169 ; perimeter
G1 X139.257 Y113.757 E0.01176 ; perimeter
G1 X139.219 Y114.130 E0.01174 ; perimeter
G1 X139.257 Y114.501 E0.01170 ; perimeter
G1 X139.374 Y114.858 E0.01178 ; perimeter
G1 X139.560 Y115.181 E0.01170 ; perimeter
G1 X139.811 Y115.460 E0.01175 ; perimeter
G1 X140.114 Y115.680 E0.01173 ; perimeter
G1 X140.456 Y115.833 E0.01176 ; perimeter
G1 X140.822 Y115.910 E0.01174 ; perimeter
G1 X141.196 Y115.910 E0.01171 ; perimeter
G1 X141.562 Y115.833 E0.01174 ; perimeter
G1 X141.905 Y115.680 E0.01176 ; perimeter
G1 X142.208 Y115.459 E0.01175 ; perimeter
G1 X142.457 Y115.182 E0.01170 ; perimeter
G1 X142.645 Y114.858 E0.01172 ; perimeter
G1 X142.761 Y114.499 E0.01184 ; perimeter
G1 X142.798 Y114.118 E0.01199 ; perimeter
G1 X142.760 Y113.757 E0.01139 ; perimeter
G1 X142.644 Y113.401 E0.01175 ; perimeter
G1 X142.457 Y113.078 E0.01171 ; perimeter
G1 X142.261 Y112.860 E0.00918 ; perimeter
G1 X142.488 Y112.587 E0.01112 ; perimeter
G1 X146.468 Y112.587 E0.12479 ; perimeter
G1 X146.276 Y112.673 E0.00662 ; perimeter
G1 X145.973 Y112.893 E0.01173 ; perimeter
G1 X145.722 Y113.171 E0.01175 ; perimeter
G1 X145.536 Y113.495 E0.01170 ; perimeter
G1 X145.420 Y113.851 E0.01175 ; perimeter
G1 X145.380 Y114.223 E0.01174 ; perimeter
G1 X145.420 Y114.597 E0.01178 ; perimeter
G1 X145.536 Y114.952 E0.01172 ; perimeter
G1 X145.722 Y115.275 E0.01169 ; perimeter
G1 X145.879 Y115.449 E0.00732 ; perimeter
G1 F5760
G1 X145.722 Y115.711 E-0.10585 ; wipe and retract
G1 F5760
G1 X145.536 Y116.035 E-0.12930 ; wipe and retract
G1 F5760
G1 X145.420 Y116.391 E-0.12976 ; wipe and retract
G1 F5760
G1 X145.380 Y116.763 E-0.12966 ; wipe and retract
G1 F5760
G1 X145.420 Y117.137 E-0.13017 ; wipe and retract
G1 F5760
G1 X145.536 Y117.492 E-0.12948 ; wipe and retract
G1 F5760
G1 X145.544 Y117.507 E-0.00578 ; wipe and retract
G1 E-0.04000 F2100.00000 ; retract
G1 Z0.800 F7200.000 ; lift Z
G1 X150.790 Y117.790 F7200.000 ; move to first perimeter point
G1 Z0.200 F7200.000 ; restore layer Z
G1 E0.80000 F2100.00000 ; unretract
G1 F1800
G1 X150.790 Y120.790 E0.09406 ; perimeter
G1 X141.538 Y120.790 E0.29010 ; perimeter
G1 X141.715 Y120.711 E0.00609 ; perimeter
G1 X141.954 Y120.537 E0.00926 ; perimeter
G1 X142.150 Y120.318 E0.00923 ; perimeter
G1 X142.298 Y120.063 E0.00924 ; perimeter
G1 X142.389 Y119.782 E0.00927 ; perimeter
G1 X142.420 Y119.489 E0.00923 ; perimeter
G1 X142.389 Y119.195 E0.00926 ; perimeter
G1 X142.298 Y118.915 E0.00925 ; perimeter
G1 X142.150 Y118.660 E0.00924 ; perimeter
G1 X141.954 Y118.441 E0.00923 ; perimeter
G1 X141.715 Y118.267 E0.00926 ; perimeter
G1 X141.445 Y118.146 E0.00927 ; perimeter
G1 X141.210 Y118.097 E0.00753 ; perimeter
