; generated by Slic3r 1.37.2.1-prusa3d on 2018-08-27 at 19:10:03

; 

; external perimeters extrusion width = 0.42mm
; perimeters extrusion width = 0.45mm
; infill extrusion width = 0.45mm
; solid infill extrusion width = 0.45mm
; top infill extrusion width = 0.42mm
; first layer extrusion width = 0.42mm

M107 ; disable fan
M115 U3.1.0 ; tell printer latest fw version
M83  ; extruder relative mode
M104 S230 ; set extruder temp
M140 S85 ; set bed temp
M190 S85 ; wait for bed temp
M109 S230 ; wait for extruder temp
G28 W ; home all without mesh bed level
G80 ; mesh bed leveling
G1 Y-3.0 F1000.0 ; go outside pritn area
G1 X60.0 E9.0  F1000.0 ; intro line
G1 X100.0 E12.5  F1000.0 ; intro line
G92 E0.0
M900 K45
G21 ; set units to millimeters
G90 ; use absolute coordinates
M83 ; use relative distances for extrusion
;BEFORE_LAYER_CHANGE
;0.2


G1 E-0.80000 F2100.00000 ; retract
G1 Z0.600 F7200.000 ; lift Z
;AFTER_LAYER_CHANGE
;0.2
G1 X104.888 Y94.224 F7200.000 ; move to first skirt point
G1 Z0.200 F7200.000 ; restore layer Z
G1 E0.80000 F2100.00000 ; unretract
M204 S1000 ; adjust acceleration
G1 F1800
G1 X105.493 Y93.695 E0.02520 ; skirt
G1 X123.424 Y83.368 E0.64879 ; skirt
G1 X124.270 Y83.197 E0.02708 ; skirt
G1 X133.714 Y83.197 E0.29610 ; skirt
G1 X134.298 Y83.271 E0.01846 ; skirt
G1 X134.850 Y83.488 E0.01858 ; skirt
G1 X135.330 Y83.834 E0.01858 ; skirt
G1 X135.710 Y84.289 E0.01858 ; skirt
G1 X145.334 Y100.953 E0.60335 ; skirt
G1 X145.612 Y101.731 E0.02590 ; skirt
G1 X145.645 Y123.030 E0.66782 ; skirt
G1 X145.520 Y151.262 E0.88519 ; skirt
G1 X145.382 Y152.050 E0.02508 ; skirt
G1 X145.051 Y152.669 E0.02201 ; skirt
G1 X144.551 Y153.167 E0.02213 ; skirt
G1 X143.930 Y153.494 E0.02201 ; skirt
G1 X143.236 Y153.626 E0.02213 ; skirt
G1 X109.385 Y153.628 E1.06137 ; skirt
G1 X108.594 Y153.490 E0.02520 ; skirt
G1 X107.968 Y153.154 E0.02225 ; skirt
G1 X105.183 Y150.938 E0.11161 ; skirt
G1 X104.697 Y150.243 E0.02661 ; skirt
G1 X104.486 Y149.417 E0.02673 ; skirt
G1 X104.355 Y123.034 E0.82723 ; skirt
G1 X104.355 Y95.723 E0.85631 ; skirt
G1 X104.493 Y94.924 E0.02543 ; skirt
G1 X104.858 Y94.276 E0.02332 ; skirt
G1 F5760
G1 X105.493 Y93.695 E-0.29802 ; wipe and retract
G1 F5760
G1 X106.649 Y93.029 E-0.46198 ; wipe and retract
G1 E-0.04000 F2100.00000 ; retract
G1 Z0.800 F7200.000 ; lift Z
G1 X136.291 Y102.128 F7200.000 ; move to first perimeter point
G1 Z0.200 F7200.000 ; restore layer Z
G1 E0.80000 F2100.00000 ; unretract
G1 F1800
G1 X139.351 Y100.362 E0.11079 ; perimeter
G1 X142.411 Y102.128 E0.11079 ; perimeter
G1 X142.411 Y105.662 E0.11079 ; perimeter
G1 X139.351 Y107.428 E0.11079 ; perimeter
G1 X136.291 Y105.662 E0.11079 ; perimeter
G1 X136.291 Y102.188 E0.10891 ; perimeter
G1 X136.091 Y101.782 F7200.000 ; move inwards before travel
G1 F5760
G1 X138.175 Y101.064 E-0.76000 ; wipe and retract
G1 E-0.04000 F2100.00000 ; retract
G1 Z0.800 F7200.000 ; lift Z
G1 X125.216 Y113.589 F7200.000 ; move to first perimeter point
G1 Z0.200 F7200.000 ; restore layer Z
G1 E0.80000 F2100.00000 ; unretract
G1 F1800
G1 X127.201 Y117.026 E0.12444 ; perimeter
G1 X125.216 Y120.463 E0.12444 ; perimeter
G1 X121.248 Y120.463 E0.12444 ; perimeter
G1 X119.263 Y117.026 E0.12444 ; perimeter
G1 X121.248 Y113.589 E0.12444 ; perimeter
G1 X125.156 Y113.589 E0.12256 ; perimeter
G1 X124.999 Y113.966 F7200.000 ; move to first perimeter point
G1 F1800
G1 X126.765 Y117.026 E0.11079 ; perimeter
G1 X124.999 Y120.086 E0.11079 ; perimeter
G1 X121.465 Y120.086 E0.11079 ; perimeter
G1 X119.699 Y117.026 E0.11079 ; perimeter
G1 X121.465 Y113.966 E0.11079 ; perimeter
G1 X124.939 Y113.966 E0.10891 ; perimeter
G1 X125.345 Y113.766 F7200.000 ; move inwards before travel
G1 F5760
G1 X126.063 Y115.850 E-0.76000 ; wipe and retract
G1 E-0.04000 F2100.00000 ; retract
G1 Z0.800 F7200.000 ; lift Z
G1 X128.169 Y92.465 F7200.000 ; move to first perimeter point
G1 Z0.200 F7200.000 ; restore layer Z
G1 E0.80000 F2100.00000 ; unretract
G1 F1800
G1 X131.606 Y94.449 E0.12444 ; perimeter
G1 X135.043 Y92.465 E0.12444 ; perimeter
G1 X135.043 Y89.857 E0.08177 ; perimeter
G1 X141.610 Y101.230 E0.41176 ; perimeter
G1 X139.351 Y99.926 E0.08177 ; perimeter
G1 X135.914 Y101.911 E0.12444 ; perimeter
G1 X135.914 Y105.879 E0.12444 ; perimeter
G1 X139.351 Y107.864 E0.12444 ; perimeter
G1 X142.281 Y106.172 E0.10607 ; perimeter
G1 X142.281 Y122.039 E0.49750 ; perimeter
G1 X107.719 Y122.039 E1.08366 ; perimeter
G1 X107.719 Y96.293 E0.80725 ; perimeter
G1 X124.576 Y86.561 E0.61030 ; perimeter
G1 X131.521 Y86.561 E0.21777 ; perimeter
G1 X128.169 Y88.496 E0.12136 ; perimeter
G1 X128.169 Y92.405 E0.12256 ; perimeter
G1 X128.546 Y92.247 F7200.000 ; move to first perimeter point
G1 F1800
G1 X128.546 Y88.714 E0.11079 ; perimeter
G1 X131.606 Y86.947 E0.11079 ; perimeter
G1 X134.666 Y88.714 E0.11079 ; perimeter
G1 X134.666 Y92.247 E0.11079 ; perimeter
G1 X131.606 Y94.014 E0.11079 ; perimeter
G1 X128.598 Y92.277 E0.10891 ; perimeter
G1 X128.146 Y92.247 F7200.000 ; move inwards before travel
G1 F5760
G1 X128.566 Y90.083 E-0.76000 ; wipe and retract
G1 E-0.04000 F2100.00000 ; retract
G1 Z0.800 F7200.000 ; lift Z
G1 X131.847 Y86.651 F7200.000 ; move to first perimeter point
G1 Z0.200 F7200.000 ; restore layer Z
G1 E0.80000 F2100.00000 ; unretract
G1 F1800
G1 X131.691 Y86.561 E0.00563 ; perimeter
G1 X133.140 Y86.561 E0.04543 ; perimeter
G1 X133.865 Y87.816 E0.04543 ; perimeter
G1 X131.899 Y86.681 E0.07118 ; perimeter
G1 F5760
G1 X131.691 Y86.561 E-0.08293 ; wipe and retract
G1 F5760
G1 X133.140 Y86.561 E-0.50185 ; wipe and retract
G1 F5760
G1 X133.393 Y86.999 E-0.17522 ; wipe and retract
G1 E-0.04000 F2100.00000 ; retract
G1 Z0.800 F7200.000 ; lift Z
G1 X133.358 Y86.184 F7200.000 ; move to first perimeter point
G1 Z0.200 F7200.000 ; restore layer Z
G1 E0.80000 F2100.00000 ; unretract
G1 F1800
G1 X142.658 Y102.292 E0.58318 ; perimeter
G1 X142.658 Y122.416 E0.63099 ; perimeter
G1 X107.342 Y122.416 E1.10731 ; perimeter
G1 X107.342 Y96.075 E0.82590 ; perimeter
G1 X124.475 Y86.184 E0.62029 ; perimeter
G1 X133.298 Y86.184 E0.27664 ; perimeter
G1 X133.337 Y86.583 F7200.000 ; move inwards before travel
G1 X132.785 Y86.674 F7200.000 ; move to first infill point
G1 F1800
G1 X133.396 Y87.285 E0.03251 ; infill
G1 F5760
G1 X132.785 Y86.674 E-0.29926 ; wipe and retract
G1 E-0.50074 F2100.00000 ; retract
G1 Z0.800 F7200.000 ; lift Z
G1 X130.491 Y87.025 F7200.000 ; move to first infill point
G1 Z0.200 F7200.000 ; restore layer Z
G1 E0.80000 F2100.00000 ; unretract
G1 F1800
G1 X130.310 Y86.844 E0.00807 ; infill
G1 X129.774 Y86.844 E0.01688 ; infill
G1 X130.027 Y87.097 E0.01128 ; infill
G1 X129.688 Y87.293 E0.01236 ; infill
G1 X129.239 Y86.844 E0.02001 ; infill
G1 X128.703 Y86.844 E0.01688 ; infill
G1 X129.348 Y87.489 E0.02875 ; infill
G1 X129.008 Y87.685 E0.01236 ; infill
G1 X128.167 Y86.844 E0.03749 ; infill
G1 X127.631 Y86.844 E0.01688 ; infill
G1 X128.669 Y87.881 E0.04622 ; infill
G1 X128.329 Y88.077 E0.01236 ; infill
G1 X127.095 Y86.844 E0.05496 ; infill
G1 X126.560 Y86.844 E0.01688 ; infill
G1 X127.989 Y88.273 E0.06370 ; infill
G1 X127.886 Y88.333 E0.00374 ; infill
G1 X127.886 Y88.706 E0.01176 ; infill
G1 X126.024 Y86.844 E0.08298 ; infill
G1 X125.488 Y86.844 E0.01688 ; infill
G1 X127.886 Y89.242 E0.10685 ; infill
G1 X127.886 Y89.778 E0.01688 ; infill
G1 X124.952 Y86.844 E0.13072 ; infill
G1 X124.652 Y86.844 E0.00947 ; infill
G1 X124.503 Y86.930 E0.00543 ; infill
G1 X127.886 Y90.314 E0.15076 ; infill
G1 X127.886 Y90.849 E0.01688 ; infill
G1 X124.163 Y87.126 E0.16589 ; infill
G1 X123.823 Y87.322 E0.01236 ; infill
G1 X127.886 Y91.385 E0.18103 ; infill
G1 X127.886 Y91.921 E0.01688 ; infill
G1 X123.483 Y87.518 E0.19616 ; infill
G1 X123.144 Y87.714 E0.01236 ; infill
G1 X136.611 Y101.182 E0.59999 ; infill
G1 X136.951 Y100.985 E0.01236 ; infill
G1 X129.096 Y93.131 E0.34995 ; infill
G1 F5760
G1 X130.648 Y94.682 E-0.76000 ; wipe and retract
G1 E-0.04000 F2100.00000 ; retract
G1 Z0.800 F7200.000 ; lift Z
G1 X130.364 Y93.862 F7200.000 ; move to first infill point
G1 Z0.200 F7200.000 ; restore layer Z
G1 E0.80000 F2100.00000 ; unretract
G1 F1800
G1 X137.291 Y100.789 E0.30860 ; infill
G1 X137.630 Y100.593 E0.01236 ; infill
G1 X131.737 Y94.700 E0.26254 ; infill
G1 X132.077 Y94.504 E0.01236 ; infill
G1 X137.970 Y100.397 E0.26254 ; infill
G1 X138.310 Y100.201 E0.01236 ; infill
G1 X132.417 Y94.308 E0.26254 ; infill
G1 X132.756 Y94.112 E0.01236 ; infill
G1 X138.649 Y100.005 E0.26254 ; infill
G1 X138.989 Y99.809 E0.01236 ; infill
G1 X133.096 Y93.916 E0.26254 ; infill
G1 X133.436 Y93.720 E0.01236 ; infill
G1 X139.731 Y100.015 E0.28046 ; infill
G1 F5760
G1 X138.179 Y98.463 E-0.76000 ; wipe and retract
G1 E-0.04000 F2100.00000 ; retract
G1 Z0.800 F7200.000 ; lift Z
G1 X140.743 Y99.956 F7200.000 ; move to first infill point
G1 Z0.200 F7200.000 ; restore layer Z
G1 E0.80000 F2100.00000 ; unretract
G1 F1800
G1 X134.115 Y93.327 E0.29530 ; infill
G1 X133.775 Y93.524 E0.01236 ; infill
G1 X140.998 Y100.747 E0.32180 ; infill
G1 F5760
G1 X139.447 Y99.195 E-0.76000 ; wipe and retract
G1 E-0.04000 F2100.00000 ; retract
G1 Z0.800 F7200.000 ; lift Z
G1 X140.011 Y98.688 F7200.000 ; move to first infill point
G1 Z0.200 F7200.000 ; restore layer Z
G1 E0.80000 F2100.00000 ; unretract
G1 F1800
G1 X134.455 Y93.131 E0.24756 ; infill
G1 X134.794 Y92.935 E0.01236 ; infill
G1 X139.279 Y97.420 E0.19982 ; infill
G1 F5760
G1 X137.728 Y95.869 E-0.76000 ; wipe and retract
G1 E-0.04000 F2100.00000 ; retract
G1 Z0.800 F7200.000 ; lift Z
G1 X138.548 Y96.153 F7200.000 ; move to first infill point
G1 Z0.200 F7200.000 ; restore layer Z
G1 E0.80000 F2100.00000 ; unretract
G1 F1800
G1 X135.134 Y92.739 E0.15208 ; infill
G1 X135.326 Y92.628 E0.00699 ; infill
G1 X135.326 Y92.395 E0.00733 ; infill
G1 X137.816 Y94.885 E0.11091 ; infill
G1 F5760
G1 X136.264 Y93.333 E-0.76000 ; wipe and retract
G1 E-0.04000 F2100.00000 ; retract
G1 Z0.800 F7200.000 ; lift Z
G1 X137.084 Y93.617 F7200.000 ; move to first infill point
G1 Z0.200 F7200.000 ; restore layer Z
G1 E0.80000 F2100.00000 ; unretract
G1 F1800
G1 X135.326 Y91.860 E0.07830 ; infill
G1 X135.326 Y91.324 E0.01688 ; infill
G1 X136.352 Y92.349 E0.04569 ; infill
G1 F5760
G1 X135.326 Y91.324 E-0.50237 ; wipe and retract
G1 F5760
G1 X135.326 Y91.860 E-0.18558 ; wipe and retract
G1 F5760
G1 X135.473 Y92.007 E-0.07205 ; wipe and retract
G1 E-0.04000 F2100.00000 ; retract
G1 Z0.800 F7200.000 ; lift Z
G1 X136.396 Y101.502 F7200.000 ; move to first infill point
G1 Z0.200 F7200.000 ; restore layer Z
G1 E0.80000 F2100.00000 ; unretract
G1 F1800
G1 X122.804 Y87.910 E0.60553 ; infill
G1 X122.464 Y88.106 E0.01236 ; infill
G1 X135.932 Y101.574 E0.59999 ; infill
G1 X135.631 Y101.747 E0.01093 ; infill
G1 X135.631 Y101.809 E0.00195 ; infill
G1 X122.125 Y88.303 E0.60174 ; infill
G1 X121.785 Y88.499 E0.01236 ; infill
G1 X135.631 Y102.345 E0.61687 ; infill
G1 X135.631 Y102.881 E0.01688 ; infill
G1 X121.445 Y88.695 E0.63200 ; infill
G1 X121.106 Y88.891 E0.01236 ; infill
G1 X135.631 Y103.416 E0.64714 ; infill
G1 X135.631 Y103.952 E0.01688 ; infill
G1 X120.766 Y89.087 E0.66227 ; infill
G1 X120.426 Y89.283 E0.01236 ; infill
G1 X135.631 Y104.488 E0.67740 ; infill
G1 X135.631 Y105.024 E0.01688 ; infill
G1 X120.087 Y89.479 E0.69254 ; infill
G1 X119.747 Y89.675 E0.01236 ; infill
G1 X135.631 Y105.560 E0.70767 ; infill
G1 F5760
G1 X134.080 Y104.008 E-0.76000 ; wipe and retract
G1 E-0.04000 F2100.00000 ; retract
G1 Z0.800 F7200.000 ; lift Z
G1 X136.774 Y106.702 F7200.000 ; move to first infill point
G1 Z0.200 F7200.000 ; restore layer Z
G1 E0.80000 F2100.00000 ; unretract
G1 F1800
G1 X141.998 Y111.926 E0.23274 ; infill
G1 X141.998 Y112.462 E0.01688 ; infill
G1 X119.407 Y89.871 E1.00646 ; infill
G1 X119.068 Y90.068 E0.01236 ; infill
G1 X141.998 Y112.998 E1.02159 ; infill
G1 X141.998 Y113.534 E0.01688 ; infill
G1 X118.728 Y90.264 E1.03672 ; infill
G1 X118.388 Y90.460 E0.01236 ; infill
G1 X141.998 Y114.070 E1.05186 ; infill
G1 X141.998 Y114.605 E0.01688 ; infill
G1 X118.049 Y90.656 E1.06699 ; infill
G1 X117.709 Y90.852 E0.01236 ; infill
G1 X141.998 Y115.141 E1.08212 ; infill
G1 X141.998 Y115.677 E0.01688 ; infill
G1 X117.369 Y91.048 E1.09726 ; infill
G1 X117.030 Y91.244 E0.01236 ; infill
G1 X141.998 Y116.213 E1.11239 ; infill
G1 X141.998 Y116.749 E0.01688 ; infill
G1 X116.690 Y91.440 E1.12752 ; infill
G1 X116.350 Y91.636 E0.01236 ; infill
G1 X141.998 Y117.284 E1.14266 ; infill
G1 X141.998 Y117.820 E0.01688 ; infill
G1 X116.010 Y91.833 E1.15779 ; infill
G1 X115.671 Y92.029 E0.01236 ; infill
G1 X141.998 Y118.356 E1.17292 ; infill
G1 X141.998 Y118.892 E0.01688 ; infill
G1 X115.331 Y92.225 E1.18806 ; infill
G1 X114.991 Y92.421 E0.01236 ; infill
G1 X141.998 Y119.428 E1.20319 ; infill
G1 X141.998 Y119.963 E0.01688 ; infill
G1 X114.652 Y92.617 E1.21832 ; infill
G1 X114.312 Y92.813 E0.01236 ; infill
G1 X141.998 Y120.499 E1.23346 ; infill
G1 X141.998 Y121.035 E0.01688 ; infill
G1 X113.972 Y93.009 E1.24859 ; infill
G1 X113.633 Y93.205 E0.01236 ; infill
G1 X141.998 Y121.571 E1.26372 ; infill
G1 X141.998 Y121.756 E0.00585 ; infill
G1 X141.648 Y121.756 E0.01103 ; infill
G1 X113.293 Y93.401 E1.26326 ; infill
G1 X112.953 Y93.598 E0.01236 ; infill
G1 X141.112 Y121.756 E1.25452 ; infill
G1 X140.576 Y121.756 E0.01688 ; infill
G1 X112.614 Y93.794 E1.24578 ; infill
G1 X112.274 Y93.990 E0.01236 ; infill
G1 X140.041 Y121.756 E1.23705 ; infill
G1 X139.505 Y121.756 E0.01688 ; infill
G1 X111.934 Y94.186 E1.22831 ; infill
G1 X111.595 Y94.382 E0.01236 ; infill
G1 X138.969 Y121.756 E1.21957 ; infill
G1 X138.433 Y121.756 E0.01688 ; infill
G1 X111.255 Y94.578 E1.21083 ; infill
G1 X110.915 Y94.774 E0.01236 ; infill
G1 X137.897 Y121.756 E1.20210 ; infill
G1 X137.362 Y121.756 E0.01688 ; infill
G1 X110.576 Y94.970 E1.19336 ; infill
G1 X110.236 Y95.167 E0.01236 ; infill
G1 X136.826 Y121.756 E1.18462 ; infill
G1 X136.290 Y121.756 E0.01688 ; infill
G1 X109.896 Y95.363 E1.17589 ; infill
G1 X109.557 Y95.559 E0.01236 ; infill
G1 X135.754 Y121.756 E1.16715 ; infill
G1 X135.218 Y121.756 E0.01688 ; infill
G1 X109.217 Y95.755 E1.15841 ; infill
G1 X108.877 Y95.951 E0.01236 ; infill
G1 X134.683 Y121.756 E1.14967 ; infill
G1 X134.147 Y121.756 E0.01688 ; infill
G1 X108.538 Y96.147 E1.14094 ; infill
G1 X108.198 Y96.343 E0.01236 ; infill
G1 X133.611 Y121.756 E1.13220 ; infill
G1 X133.075 Y121.756 E0.01688 ; infill
G1 X125.947 Y114.628 E0.31758 ; infill
G1 F5760
G1 X127.498 Y116.180 E-0.76000 ; wipe and retract
G1 E-0.04000 F2100.00000 ; retract
G1 Z0.800 F7200.000 ; lift Z
G1 X124.795 Y113.476 F7200.000 ; move to first infill point
G1 Z0.200 F7200.000 ; restore layer Z
G1 E0.80000 F2100.00000 ; unretract
G1 F1800
G1 X108.002 Y96.683 E0.74816 ; infill
G1 X108.002 Y97.219 E0.01688 ; infill
G1 X124.089 Y113.306 E0.71672 ; infill
G1 X123.554 Y113.306 E0.01688 ; infill
G1 X108.002 Y97.755 E0.69285 ; infill
G1 X108.002 Y98.290 E0.01688 ; infill
G1 X123.018 Y113.306 E0.66898 ; infill
G1 X122.482 Y113.306 E0.01688 ; infill
G1 X108.002 Y98.826 E0.64511 ; infill
G1 X108.002 Y99.362 E0.01688 ; infill
G1 X121.946 Y113.306 E0.62124 ; infill
G1 X121.410 Y113.306 E0.01688 ; infill
G1 X108.002 Y99.898 E0.59737 ; infill
G1 X108.002 Y100.434 E0.01688 ; infill
G1 X121.008 Y113.439 E0.57943 ; infill
G1 X120.812 Y113.779 E0.01236 ; infill
G1 X108.002 Y100.969 E0.57069 ; infill
G1 X108.002 Y101.505 E0.01688 ; infill
G1 X120.615 Y114.119 E0.56195 ; infill
G1 X120.419 Y114.458 E0.01236 ; infill
G1 X108.002 Y102.041 E0.55321 ; infill
G1 X108.002 Y102.577 E0.01688 ; infill
G1 X120.223 Y114.798 E0.54448 ; infill
G1 X120.027 Y115.138 E0.01236 ; infill
G1 X108.002 Y103.113 E0.53574 ; infill
G1 X108.002 Y103.648 E0.01688 ; infill
G1 X119.831 Y115.477 E0.52700 ; infill
G1 X119.635 Y115.817 E0.01236 ; infill
G1 X108.002 Y104.184 E0.51826 ; infill
G1 X108.002 Y104.720 E0.01688 ; infill
G1 X119.439 Y116.157 E0.50953 ; infill
G1 X119.243 Y116.497 E0.01236 ; infill
G1 X108.002 Y105.256 E0.50079 ; infill
G1 X108.002 Y105.792 E0.01688 ; infill
G1 X119.046 Y116.836 E0.49205 ; infill
G1 X118.937 Y117.026 E0.00691 ; infill
